;PYCAM-META-DATA: Filename: C:\Users\hanse\Desktop\Beep\Hardware\GetriebeB\EncoderWheel2_.stl
;PYCAM-META-DATA: Timestamp: 2013-06-05 18:32:27.611000
;PYCAM-META-DATA: Version: 0.5.1
;Estimated machine time: 3 minutes
G40 (disable tool radius compensation)
G49 (disable tool length compensation)
G80 (cancel modal motion)
G54 (select coordinate system 1)
G90 (disable incremental moves)
G21 (metric)
G61 (exact path mode)
F200.00000
S1000.00000
;PYCAM_TOOLPATH_SETTINGS: START
;[Bounds]
;maxz = 1.9
;maxx = 21.27
;maxy = 21.27
;minx = 0.73
;miny = 0.73
;minz = 0.0
;
;[Tool]
;torus_radius = 0.25
;speed = 1000.0
;shape = CylindricalCutter
;tool_radius = 0.73
;feedrate = 200.0
;
;[Process]
;generator = ContourFollow
;pocketing_type = none
;engrave_offset = 0.0
;milling_style = conventional
;path_direction = x
;step_down = 5.0
;postprocessor = SimpleCutter
;material_allowance = 0.0
;
;PYCAM_TOOLPATH_SETTINGS: END
T1 M6
G0 Z5.0000
M3 (start spindle)
G04 P3 (wait for 3 seconds)
 X19.7500 Y13.8517
G1 Z1.9000
 X19.7530 Y13.8511
 X19.7556 Y13.8494
 X19.7574 Y13.8471
 X19.7584 Y13.8442
 X19.7583 Y13.8411
 X19.7571 Y13.8383
 X19.7551 Y13.8361
 X19.7524 Y13.8347
 X19.7494 Y13.8342
 X19.7464 Y13.8349
 X19.7439 Y13.8365
 X19.7420 Y13.8389
 X19.7411 Y13.8417
 X19.7412 Y13.8448
 X19.7423 Y13.8476
 X19.7443 Y13.8498
 X19.7470 Y13.8513
 X19.7500 Y13.8517
G0 Z5.0000
 X14.7507 Y19.4040
G1 Z1.9000
 X14.7500 Y19.4011
 X14.7483 Y19.3986
 X14.7458 Y19.3968
 X14.7429 Y19.3959
 X14.7399 Y19.3961
 X14.7371 Y19.3974
 X14.7349 Y19.3995
 X14.7336 Y19.4022
 X14.7333 Y19.4052
 X14.7340 Y19.4082
 X14.7357 Y19.4107
 X14.7381 Y19.4125
 X14.7411 Y19.4133
 X14.7441 Y19.4131
 X14.7469 Y19.4119
 X14.7490 Y19.4098
 X14.7504 Y19.4070
 X14.7507 Y19.4040
G0 Z5.0000
 X17.8443 Y17.1606
G1 Z1.9000
 X17.8455 Y17.1578
 X17.8456 Y17.1548
 X17.8446 Y17.1519
 X17.8428 Y17.1495
 X17.8402 Y17.1479
 X17.8372 Y17.1473
 X17.8342 Y17.1477
 X17.8316 Y17.1491
 X17.8295 Y17.1514
 X17.8284 Y17.1542
 X17.8283 Y17.1572
 X17.8292 Y17.1601
 X17.8311 Y17.1625
 X17.8337 Y17.1641
 X17.8366 Y17.1647
 X17.8396 Y17.1643
 X17.8423 Y17.1629
 X17.8443 Y17.1606
G0 Z5.0000
 X20.1505 Y10.0470
G1 Z1.9000
 X20.1534 Y10.0462
 X20.1559 Y10.0444
 X20.1576 Y10.0419
 X20.1583 Y10.0389
 X20.1580 Y10.0359
 X20.1567 Y10.0332
 X20.1545 Y10.0311
 X20.1517 Y10.0299
 X20.1487 Y10.0297
 X20.1458 Y10.0305
 X20.1433 Y10.0323
 X20.1416 Y10.0348
 X20.1409 Y10.0377
 X20.1412 Y10.0407
 X20.1425 Y10.0435
 X20.1447 Y10.0456
 X20.1475 Y10.0468
 X20.1505 Y10.0470
G0 Z5.0000
 X18.9718 Y6.4076
G1 Z1.9000
 X18.9741 Y6.4056
 X18.9756 Y6.4030
 X18.9762 Y6.4000
 X18.9756 Y6.3970
 X18.9741 Y6.3944
 X18.9718 Y6.3924
 X18.9689 Y6.3914
 X18.9659
 X18.9631 Y6.3924
 X18.9607 Y6.3944
 X18.9592 Y6.3970
 X18.9587 Y6.4000
 X18.9592 Y6.4030
 X18.9607 Y6.4056
 X18.9631 Y6.4076
 X18.9659 Y6.4086
 X18.9689
 X18.9718 Y6.4076
G0 Z5.0000
 X16.4163 Y3.5564
G1 Z1.9000
 X16.4156 Y3.5535
 X16.4139 Y3.5510
 X16.4115 Y3.5492
 X16.4085 Y3.5484
 X16.4055 Y3.5486
 X16.4027 Y3.5498
 X16.4006 Y3.5519
 X16.3992 Y3.5546
 X16.3989 Y3.5577
 X16.3996 Y3.5606
 X16.4013 Y3.5631
 X16.4038 Y3.5649
 X16.4067 Y3.5657
 X16.4097 Y3.5655
 X16.4125 Y3.5643
 X16.4147 Y3.5622
 X16.4160 Y3.5595
 X16.4163 Y3.5564
G0 Z5.0000
 X12.9205 Y1.9969
G1 Z1.9000
 X12.9186 Y1.9946
 X12.9161 Y1.9929
 X12.9131 Y1.9923
 X12.9101 Y1.9927
 X12.9074 Y1.9942
 X12.9054 Y1.9964
 X12.9042 Y1.9992
 X12.9041 Y2.0023
 X12.9051 Y2.0051
 X12.9069 Y2.0075
 X12.9095 Y2.0091
 X12.9125 Y2.0098
 X12.9155 Y2.0093
 X12.9182 Y2.0079
 X12.9202 Y2.0057
 X12.9213 Y2.0029
 X12.9214 Y1.9998
 X12.9205 Y1.9969
G0 Z5.0000
 X11.0087 Y20.2000
G1 Z1.9000
 X11.0082 Y20.1970
 X11.0067 Y20.1944
 X11.0044 Y20.1924
 X11.0015 Y20.1914
 X10.9985
 X10.9956 Y20.1924
 X10.9933 Y20.1944
 X10.9918 Y20.1970
 X10.9913 Y20.2000
 X10.9918 Y20.2030
 X10.9933 Y20.2056
 X10.9956 Y20.2076
 X10.9985 Y20.2086
 X11.0015
 X11.0044 Y20.2076
 X11.0067 Y20.2056
 X11.0082 Y20.2030
 X11.0087 Y20.2000
G0 Z5.0000
 X11.2006 Y11.0652
G1 Z1.9000
 X11.2109 Y11.0000
 X11.2006 Y10.9348
 X11.1706 Y10.8760
 X11.1240 Y10.8294
 X11.0652 Y10.7994
 X11.0000 Y10.7891
 X10.9348 Y10.7994
 X10.8760 Y10.8294
 X10.8294 Y10.8760
 X10.7994 Y10.9348
 X10.7891 Y11.0000
 X10.7994 Y11.0652
 X10.8294 Y11.1240
 X10.8760 Y11.1706
 X10.9348 Y11.2006
 X11.0000 Y11.2109
 X11.0652 Y11.2006
 X11.1240 Y11.1706
 X11.1706 Y11.1240
 X11.2006 Y11.0652
G0 Z5.0000
 X7.2660 Y19.4082
G1 Z1.9000
 X7.2667 Y19.4052
 X7.2664 Y19.4022
 X7.2651 Y19.3995
 X7.2629 Y19.3974
 X7.2601 Y19.3961
 X7.2571 Y19.3959
 X7.2542 Y19.3968
 X7.2517 Y19.3986
 X7.2500 Y19.4011
 X7.2493 Y19.4040
 X7.2496 Y19.4070
 X7.2510 Y19.4098
 X7.2531 Y19.4119
 X7.2559 Y19.4131
 X7.2589 Y19.4133
 X7.2619 Y19.4125
 X7.2643 Y19.4107
 X7.2660 Y19.4082
G0 Z5.0000
 X9.0959 Y2.0023
G1 Z1.9000
 X9.0958 Y1.9992
 X9.0946 Y1.9964
 X9.0926 Y1.9942
 X9.0899 Y1.9927
 X9.0869 Y1.9923
 X9.0839 Y1.9929
 X9.0814 Y1.9946
 X9.0795 Y1.9969
 X9.0786 Y1.9998
 X9.0787 Y2.0029
 X9.0798 Y2.0057
 X9.0818 Y2.0079
 X9.0845 Y2.0093
 X9.0875 Y2.0098
 X9.0905 Y2.0091
 X9.0931 Y2.0075
 X9.0949 Y2.0051
 X9.0959 Y2.0023
G0 Z5.0000
 X4.1689 Y17.1625
G1 Z1.9000
 X4.1708 Y17.1601
 X4.1717 Y17.1572
 X4.1716 Y17.1542
 X4.1705 Y17.1514
 X4.1684 Y17.1491
 X4.1658 Y17.1477
 X4.1628 Y17.1473
 X4.1598 Y17.1479
 X4.1572 Y17.1495
 X4.1554 Y17.1519
 X4.1544 Y17.1548
 X4.1545 Y17.1578
 X4.1557 Y17.1606
 X4.1577 Y17.1629
 X4.1604 Y17.1643
 X4.1634 Y17.1647
 X4.1663 Y17.1641
 X4.1689 Y17.1625
G0 Z5.0000
 X2.2577 Y13.8476
G1 Z1.9000
 X2.2588 Y13.8448
 X2.2589 Y13.8417
 X2.2580 Y13.8389
 X2.2561 Y13.8365
 X2.2536 Y13.8349
 X2.2506 Y13.8342
 X2.2476 Y13.8347
 X2.2449 Y13.8361
 X2.2429 Y13.8383
 X2.2417 Y13.8411
 X2.2416 Y13.8442
 X2.2426 Y13.8471
 X2.2444 Y13.8494
 X2.2470 Y13.8511
 X2.2500 Y13.8517
 X2.2530 Y13.8513
 X2.2557 Y13.8498
 X2.2577 Y13.8476
G0 Z5.0000
 X1.8525 Y10.0468
G1 Z1.9000
 X1.8553 Y10.0456
 X1.8575 Y10.0435
 X1.8588 Y10.0407
 X1.8591 Y10.0377
 X1.8584 Y10.0348
 X1.8567 Y10.0323
 X1.8542 Y10.0305
 X1.8513 Y10.0297
 X1.8483 Y10.0299
 X1.8455 Y10.0311
 X1.8433 Y10.0332
 X1.8420 Y10.0359
 X1.8417 Y10.0389
 X1.8424 Y10.0419
 X1.8441 Y10.0444
 X1.8466 Y10.0462
 X1.8495 Y10.0470
 X1.8525 Y10.0468
G0 Z5.0000
 X3.0341 Y6.4086
G1 Z1.9000
 X3.0369 Y6.4076
 X3.0393 Y6.4056
 X3.0408 Y6.4030
 X3.0413 Y6.4000
 X3.0408 Y6.3970
 X3.0393 Y6.3944
 X3.0369 Y6.3924
 X3.0341 Y6.3914
 X3.0311
 X3.0282 Y6.3924
 X3.0259 Y6.3944
 X3.0244 Y6.3970
 X3.0238 Y6.4000
 X3.0244 Y6.4030
 X3.0259 Y6.4056
 X3.0282 Y6.4076
 X3.0311 Y6.4086
 X3.0341
G0 Z5.0000
 X5.6008 Y3.5546
G1 Z1.9000
 X5.5994 Y3.5519
 X5.5973 Y3.5498
 X5.5945 Y3.5486
 X5.5915 Y3.5484
 X5.5885 Y3.5492
 X5.5861 Y3.5510
 X5.5844 Y3.5535
 X5.5837 Y3.5564
 X5.5840 Y3.5595
 X5.5853 Y3.5622
 X5.5875 Y3.5643
 X5.5903 Y3.5655
 X5.5933 Y3.5657
 X5.5962 Y3.5649
 X5.5987 Y3.5631
 X5.6004 Y3.5606
 X5.6011 Y3.5577
 X5.6008 Y3.5546
G0 Z5.0000
 X19.7500 Y13.8517
G1 Z0.0000
 X19.7530 Y13.8511
 X19.7556 Y13.8494
 X19.7574 Y13.8471
 X19.7584 Y13.8442
 X19.7583 Y13.8411
 X19.7571 Y13.8383
 X19.7551 Y13.8361
 X19.7524 Y13.8347
 X19.7494 Y13.8342
 X19.7464 Y13.8349
 X19.7439 Y13.8365
 X19.7420 Y13.8389
 X19.7411 Y13.8417
 X19.7412 Y13.8448
 X19.7423 Y13.8476
 X19.7443 Y13.8498
 X19.7470 Y13.8513
 X19.7500 Y13.8517
G0 Z5.0000
 X14.7507 Y19.4040
G1 Z0.0000
 X14.7500 Y19.4011
 X14.7483 Y19.3986
 X14.7458 Y19.3968
 X14.7429 Y19.3959
 X14.7399 Y19.3961
 X14.7371 Y19.3974
 X14.7349 Y19.3995
 X14.7336 Y19.4022
 X14.7333 Y19.4052
 X14.7340 Y19.4082
 X14.7357 Y19.4107
 X14.7381 Y19.4125
 X14.7411 Y19.4133
 X14.7441 Y19.4131
 X14.7469 Y19.4119
 X14.7490 Y19.4098
 X14.7504 Y19.4070
 X14.7507 Y19.4040
G0 Z5.0000
 X17.8443 Y17.1606
G1 Z0.0000
 X17.8455 Y17.1578
 X17.8456 Y17.1548
 X17.8446 Y17.1519
 X17.8428 Y17.1495
 X17.8402 Y17.1479
 X17.8372 Y17.1473
 X17.8342 Y17.1477
 X17.8316 Y17.1491
 X17.8295 Y17.1514
 X17.8284 Y17.1542
 X17.8283 Y17.1572
 X17.8292 Y17.1601
 X17.8311 Y17.1625
 X17.8337 Y17.1641
 X17.8366 Y17.1647
 X17.8396 Y17.1643
 X17.8423 Y17.1629
 X17.8443 Y17.1606
G0 Z5.0000
 X20.1505 Y10.0470
G1 Z0.0000
 X20.1534 Y10.0462
 X20.1559 Y10.0444
 X20.1576 Y10.0419
 X20.1583 Y10.0389
 X20.1580 Y10.0359
 X20.1567 Y10.0332
 X20.1545 Y10.0311
 X20.1517 Y10.0299
 X20.1487 Y10.0297
 X20.1458 Y10.0305
 X20.1433 Y10.0323
 X20.1416 Y10.0348
 X20.1409 Y10.0377
 X20.1412 Y10.0407
 X20.1425 Y10.0435
 X20.1447 Y10.0456
 X20.1475 Y10.0468
 X20.1505 Y10.0470
G0 Z5.0000
 X18.9689 Y6.4086
G1 Z0.0000
 X18.9718 Y6.4076
 X18.9741 Y6.4056
 X18.9756 Y6.4030
 X18.9762 Y6.4000
 X18.9756 Y6.3970
 X18.9741 Y6.3944
 X18.9718 Y6.3924
 X18.9689 Y6.3914
 X18.9659
 X18.9631 Y6.3924
 X18.9607 Y6.3944
 X18.9592 Y6.3970
 X18.9587 Y6.4000
 X18.9592 Y6.4030
 X18.9607 Y6.4056
 X18.9631 Y6.4076
 X18.9659 Y6.4086
 X18.9689
G0 Z5.0000
 X16.4163 Y3.5564
G1 Z0.0000
 X16.4156 Y3.5535
 X16.4139 Y3.5510
 X16.4115 Y3.5492
 X16.4085 Y3.5484
 X16.4055 Y3.5486
 X16.4027 Y3.5498
 X16.4006 Y3.5519
 X16.3992 Y3.5546
 X16.3989 Y3.5577
 X16.3996 Y3.5606
 X16.4013 Y3.5631
 X16.4038 Y3.5649
 X16.4067 Y3.5657
 X16.4097 Y3.5655
 X16.4125 Y3.5643
 X16.4147 Y3.5622
 X16.4160 Y3.5595
 X16.4163 Y3.5564
G0 Z5.0000
 X12.9214 Y1.9998
G1 Z0.0000
 X12.9205 Y1.9969
 X12.9186 Y1.9946
 X12.9161 Y1.9929
 X12.9131 Y1.9923
 X12.9101 Y1.9927
 X12.9074 Y1.9942
 X12.9054 Y1.9964
 X12.9042 Y1.9992
 X12.9041 Y2.0023
 X12.9051 Y2.0051
 X12.9069 Y2.0075
 X12.9095 Y2.0091
 X12.9125 Y2.0098
 X12.9155 Y2.0093
 X12.9182 Y2.0079
 X12.9202 Y2.0057
 X12.9213 Y2.0029
 X12.9214 Y1.9998
G0 Z5.0000
 X11.0087 Y20.2000
G1 Z0.0000
 X11.0082 Y20.1970
 X11.0067 Y20.1944
 X11.0044 Y20.1924
 X11.0015 Y20.1914
 X10.9985
 X10.9956 Y20.1924
 X10.9933 Y20.1944
 X10.9918 Y20.1970
 X10.9913 Y20.2000
 X10.9918 Y20.2030
 X10.9933 Y20.2056
 X10.9956 Y20.2076
 X10.9985 Y20.2086
 X11.0015
 X11.0044 Y20.2076
 X11.0067 Y20.2056
 X11.0082 Y20.2030
 X11.0087 Y20.2000
G0 Z5.0000
 X11.2006 Y11.0652
G1 Z0.0000
 X11.2109 Y11.0000
 X11.2006 Y10.9348
 X11.1706 Y10.8760
 X11.1240 Y10.8294
 X11.0652 Y10.7994
 X11.0000 Y10.7891
 X10.9348 Y10.7994
 X10.8760 Y10.8294
 X10.8294 Y10.8760
 X10.7994 Y10.9348
 X10.7891 Y11.0000
 X10.7994 Y11.0652
 X10.8294 Y11.1240
 X10.8760 Y11.1706
 X10.9348 Y11.2006
 X11.0000 Y11.2109
 X11.0652 Y11.2006
 X11.1240 Y11.1706
 X11.1706 Y11.1240
 X11.2006 Y11.0652
G0 Z5.0000
 X7.2664 Y19.4022
G1 Z0.0000
 X7.2651 Y19.3995
 X7.2629 Y19.3974
 X7.2601 Y19.3961
 X7.2571 Y19.3959
 X7.2542 Y19.3968
 X7.2517 Y19.3986
 X7.2500 Y19.4011
 X7.2493 Y19.4040
 X7.2496 Y19.4070
 X7.2510 Y19.4098
 X7.2531 Y19.4119
 X7.2559 Y19.4131
 X7.2589 Y19.4133
 X7.2619 Y19.4125
 X7.2643 Y19.4107
 X7.2660 Y19.4082
 X7.2667 Y19.4052
 X7.2664 Y19.4022
G0 Z5.0000
 X9.0959 Y2.0023
G1 Z0.0000
 X9.0958 Y1.9992
 X9.0946 Y1.9964
 X9.0926 Y1.9942
 X9.0899 Y1.9927
 X9.0869 Y1.9923
 X9.0839 Y1.9929
 X9.0814 Y1.9946
 X9.0795 Y1.9969
 X9.0786 Y1.9998
 X9.0787 Y2.0029
 X9.0798 Y2.0057
 X9.0818 Y2.0079
 X9.0845 Y2.0093
 X9.0875 Y2.0098
 X9.0905 Y2.0091
 X9.0931 Y2.0075
 X9.0949 Y2.0051
 X9.0959 Y2.0023
G0 Z5.0000
 X4.1689 Y17.1625
G1 Z0.0000
 X4.1708 Y17.1601
 X4.1717 Y17.1572
 X4.1716 Y17.1542
 X4.1705 Y17.1514
 X4.1684 Y17.1491
 X4.1658 Y17.1477
 X4.1628 Y17.1473
 X4.1598 Y17.1479
 X4.1572 Y17.1495
 X4.1554 Y17.1519
 X4.1544 Y17.1548
 X4.1545 Y17.1578
 X4.1557 Y17.1606
 X4.1577 Y17.1629
 X4.1604 Y17.1643
 X4.1634 Y17.1647
 X4.1663 Y17.1641
 X4.1689 Y17.1625
G0 Z5.0000
 X2.2577 Y13.8476
G1 Z0.0000
 X2.2588 Y13.8448
 X2.2589 Y13.8417
 X2.2580 Y13.8389
 X2.2561 Y13.8365
 X2.2536 Y13.8349
 X2.2506 Y13.8342
 X2.2476 Y13.8347
 X2.2449 Y13.8361
 X2.2429 Y13.8383
 X2.2417 Y13.8411
 X2.2416 Y13.8442
 X2.2426 Y13.8471
 X2.2444 Y13.8494
 X2.2470 Y13.8511
 X2.2500 Y13.8517
 X2.2530 Y13.8513
 X2.2557 Y13.8498
 X2.2577 Y13.8476
G0 Z5.0000
 X1.8525 Y10.0468
G1 Z0.0000
 X1.8553 Y10.0456
 X1.8575 Y10.0435
 X1.8588 Y10.0407
 X1.8591 Y10.0377
 X1.8584 Y10.0348
 X1.8567 Y10.0323
 X1.8542 Y10.0305
 X1.8513 Y10.0297
 X1.8483 Y10.0299
 X1.8455 Y10.0311
 X1.8433 Y10.0332
 X1.8420 Y10.0359
 X1.8417 Y10.0389
 X1.8424 Y10.0419
 X1.8441 Y10.0444
 X1.8466 Y10.0462
 X1.8495 Y10.0470
 X1.8525 Y10.0468
G0 Z5.0000
 X3.0341 Y6.4086
G1 Z0.0000
 X3.0369 Y6.4076
 X3.0393 Y6.4056
 X3.0408 Y6.4030
 X3.0413 Y6.4000
 X3.0408 Y6.3970
 X3.0393 Y6.3944
 X3.0369 Y6.3924
 X3.0341 Y6.3914
 X3.0311
 X3.0282 Y6.3924
 X3.0259 Y6.3944
 X3.0244 Y6.3970
 X3.0238 Y6.4000
 X3.0244 Y6.4030
 X3.0259 Y6.4056
 X3.0282 Y6.4076
 X3.0311 Y6.4086
 X3.0341
G0 Z5.0000
 X5.6008 Y3.5546
G1 Z0.0000
 X5.5994 Y3.5519
 X5.5973 Y3.5498
 X5.5945 Y3.5486
 X5.5915 Y3.5484
 X5.5885 Y3.5492
 X5.5861 Y3.5510
 X5.5844 Y3.5535
 X5.5837 Y3.5564
 X5.5840 Y3.5595
 X5.5853 Y3.5622
 X5.5875 Y3.5643
 X5.5903 Y3.5655
 X5.5933 Y3.5657
 X5.5962 Y3.5649
 X5.5987 Y3.5631
 X5.6004 Y3.5606
 X5.6011 Y3.5577
 X5.6008 Y3.5546
G0 Z5.0000
M5 (stop spindle)
G04 P3 (wait for 3 seconds)
G0 Z5.0000
M2 (end program)
