;PYCAM-META-DATA: Filename: C:\Users\hanse\Desktop\Beep\Hardware\3D-CAD\parts\encoder_wheel.stl
;PYCAM-META-DATA: Timestamp: 2013-09-17 15:42:38.614000
;PYCAM-META-DATA: Version: 0.5.1
;Estimated machine time: 3 minutes
G40 (disable tool radius compensation)
G49 (disable tool length compensation)
G80 (cancel modal motion)
G54 (select coordinate system 1)
G90 (disable incremental moves)
G21 (metric)
G61 (exact path mode)
F200.00000
S1000.00000
;PYCAM_TOOLPATH_SETTINGS: START
;[Bounds]
;maxz = 1.5
;maxx = 26.696348
;maxy = 26.699004
;minx = -26.699668
;miny = -26.699004
;minz = 0.0
;
;[Tool]
;torus_radius = 0.25
;speed = 1000.0
;shape = CylindricalCutter
;tool_radius = 1.5
;feedrate = 200.0
;
;[Process]
;generator = ContourFollow
;pocketing_type = none
;engrave_offset = 0.0
;milling_style = conventional
;path_direction = x
;step_down = 1.5
;postprocessor = SimpleCutter
;overlap_percent = 0
;material_allowance = 0.0
;
;PYCAM_TOOLPATH_SETTINGS: END
T1 M6
G0 Z15.0000
M3 (start spindle)
G04 P3 (wait for 3 seconds)
 X0.1742 Y1.9910
G1 Z1.5000
 X0.3470 Y1.9682
 X0.5173 Y1.9305
 X0.6835 Y1.8780
 X0.8446 Y1.8113
 X0.9993 Y1.7308
 X1.1463 Y1.6371
 X1.2846 Y1.5310
 X1.4132 Y1.4132
 X1.5310 Y1.2846
 X1.6371 Y1.1463
 X1.7308 Y0.9993
 X1.8113 Y0.8446
 X1.8780 Y0.6835
 X1.9305 Y0.5173
 X1.9682 Y0.3470
 X1.9910 Y0.1742
 X1.9986 Y0.0000
 X1.9910 Y-0.1742
 X1.9682 Y-0.3470
 X1.9305 Y-0.5173
 X1.8780 Y-0.6835
 X1.8113 Y-0.8446
 X1.7308 Y-0.9993
 X1.6371 Y-1.1463
 X1.5310 Y-1.2846
 X1.4132 Y-1.4132
 X1.2846 Y-1.5310
 X1.1463 Y-1.6371
 X0.9993 Y-1.7308
 X0.8446 Y-1.8113
 X0.6835 Y-1.8780
 X0.5173 Y-1.9305
 X0.3470 Y-1.9682
 X0.1742 Y-1.9910
 X0.0000 Y-1.9986
 X-0.1742 Y-1.9910
 X-0.3470 Y-1.9682
 X-0.5173 Y-1.9305
 X-0.6835 Y-1.8780
 X-0.8446 Y-1.8113
 X-0.9993 Y-1.7308
 X-1.1463 Y-1.6371
 X-1.2846 Y-1.5310
 X-1.4132 Y-1.4132
 X-1.5310 Y-1.2846
 X-1.6371 Y-1.1463
 X-1.7308 Y-0.9993
 X-1.8113 Y-0.8446
 X-1.8780 Y-0.6835
 X-1.9305 Y-0.5173
 X-1.9682 Y-0.3470
 X-1.9910 Y-0.1742
 X-1.9986 Y0.0000
 X-1.9910 Y0.1742
 X-1.9682 Y0.3470
 X-1.9305 Y0.5173
 X-1.8780 Y0.6835
 X-1.8113 Y0.8446
 X-1.7308 Y0.9993
 X-1.6371 Y1.1463
 X-1.5310 Y1.2846
 X-1.4132 Y1.4132
 X-1.2846 Y1.5310
 X-1.1463 Y1.6371
 X-0.9993 Y1.7308
 X-0.8446 Y1.8113
 X-0.6835 Y1.8780
 X-0.5173 Y1.9305
 X-0.3470 Y1.9682
 X-0.1742 Y1.9910
 X0.0000 Y1.9986
 X0.1742 Y1.9910
G0 Z15.0000
 X17.6034 Y17.7519
G1 Z1.5000
 X16.9971 Y18.3333
 X16.3717 Y18.8939
 X15.7277 Y19.4332
 X15.0660 Y19.9506
 X14.3873 Y20.4455
 X13.6923 Y20.9173
 X12.9819 Y21.3654
 X12.2568 Y21.7895
 X11.5179 Y22.1889
 X10.7660 Y22.5633
 X10.0020 Y22.9123
 X9.2266 Y23.2353
 X8.4409 Y23.5322
 X7.6456 Y23.8024
 X6.8416 Y24.0459
 X6.0300 Y24.2621
 X5.2115 Y24.4510
 X4.3872 Y24.6123
 X3.5579 Y24.7458
 X2.7246 Y24.8513
 X1.8882 Y24.9288
 X1.0497 Y24.9782
 X0.2100 Y24.9993
 X-0.6299 Y24.9923
 X-1.4692 Y24.9570
 X-2.3067 Y24.8936
 X-3.1417 Y24.8020
 X-3.9731 Y24.6825
 X-4.8000 Y24.5351
 X-5.6216 Y24.3600
 X-6.4367 Y24.1574
 X-7.2446 Y23.9275
 X-8.0443 Y23.6706
 X-8.8350 Y23.3871
 X-9.6157 Y23.0771
 X-10.3855 Y22.7410
 X-11.1436 Y22.3793
 X-11.8891 Y21.9923
 X-12.6212 Y21.5805
 X-13.3390 Y21.1443
 X-14.0418 Y20.6843
 X-14.7287 Y20.2009
 X-15.3990 Y19.6947
 X-16.0520 Y19.1663
 X-16.6868 Y18.6162
 X-17.3027 Y18.0451
 X-17.8992 Y17.4537
 X-18.4754 Y16.8425
 X-19.0308 Y16.2124
 X-19.5647 Y15.5639
 X-20.0765 Y14.8979
 X-20.5656 Y14.2150
 X-21.0315 Y13.5161
 X-21.4737 Y12.8020
 X-21.8917 Y12.0734
 X-22.2849 Y11.3311
 X-22.6530 Y10.5761
 X-22.9955 Y9.8092
 X-23.3120 Y9.0311
 X-23.6022 Y8.2429
 X-23.8658 Y7.4454
 X-24.1025 Y6.6394
 X-24.3119 Y5.8260
 X-24.4939 Y5.0060
 X-24.6483 Y4.1803
 X-24.7748 Y3.3499
 X-24.8733 Y2.5157
 X-24.9438 Y1.6788
 X-24.9861 Y0.8398
 X-25.0002 Y-0.0000
 X-24.9861 Y-0.8398
 X-24.9438 Y-1.6788
 X-24.8733 Y-2.5157
 X-24.7748 Y-3.3499
 X-24.6483 Y-4.1803
 X-24.4939 Y-5.0060
 X-24.3119 Y-5.8260
 X-24.1025 Y-6.6394
 X-23.8658 Y-7.4454
 X-23.6022 Y-8.2429
 X-23.3120 Y-9.0311
 X-22.9955 Y-9.8092
 X-22.6530 Y-10.5761
 X-22.2849 Y-11.3311
 X-21.8917 Y-12.0734
 X-21.4737 Y-12.8020
 X-21.0315 Y-13.5161
 X-20.5656 Y-14.2150
 X-20.0765 Y-14.8979
 X-19.5647 Y-15.5639
 X-19.0308 Y-16.2124
 X-18.4754 Y-16.8425
 X-17.8992 Y-17.4537
 X-17.3027 Y-18.0451
 X-16.6868 Y-18.6162
 X-16.0520 Y-19.1663
 X-15.3990 Y-19.6947
 X-14.7287 Y-20.2009
 X-14.0418 Y-20.6843
 X-13.3390 Y-21.1443
 X-12.6212 Y-21.5805
 X-11.8891 Y-21.9923
 X-11.1436 Y-22.3793
 X-10.3855 Y-22.7410
 X-9.6157 Y-23.0771
 X-8.8350 Y-23.3871
 X-8.0443 Y-23.6706
 X-7.2446 Y-23.9275
 X-6.4367 Y-24.1574
 X-5.6216 Y-24.3600
 X-4.8000 Y-24.5351
 X-3.9731 Y-24.6825
 X-3.1417 Y-24.8020
 X-2.3067 Y-24.8936
 X-1.4692 Y-24.9570
 X-0.6299 Y-24.9923
 X0.2100 Y-24.9993
 X1.0497 Y-24.9782
 X1.8882 Y-24.9288
 X2.7246 Y-24.8513
 X3.5579 Y-24.7458
 X4.3872 Y-24.6123
 X5.2115 Y-24.4510
 X6.0300 Y-24.2621
 X6.8416 Y-24.0459
 X7.6456 Y-23.8024
 X8.4409 Y-23.5322
 X9.2266 Y-23.2353
 X10.0020 Y-22.9123
 X10.7660 Y-22.5633
 X11.5179 Y-22.1889
 X12.2568 Y-21.7895
 X12.9819 Y-21.3654
 X13.6923 Y-20.9173
 X14.3873 Y-20.4455
 X15.0660 Y-19.9506
 X15.7277 Y-19.4332
 X16.3717 Y-18.8939
 X16.9971 Y-18.3333
 X17.6034 Y-17.7519
 X18.1898 Y-17.1505
 X18.7557 Y-16.5298
 X19.3004 Y-15.8904
 X19.8233 Y-15.2331
 X20.3239 Y-14.5585
 X20.8015 Y-13.8676
 X21.2556 Y-13.1609
 X21.6858 Y-12.4394
 X22.0914 Y-11.7039
 X22.4721 Y-10.9552
 X22.8274 Y-10.1941
 X23.1570 Y-9.4215
 X23.4604 Y-8.6382
 X23.7374 Y-7.8452
 X23.9875 Y-7.0434
 X24.2106 Y-6.2336
 X24.4064 Y-5.4167
 X24.5746 Y-4.5938
 X24.7150 Y-3.7656
 X24.8276 Y-2.9332
 X24.9121 Y-2.0975
 X24.9685 Y-1.2595
 X24.9967 Y-0.4200
 Y0.4200
 X24.9685 Y1.2595
 X24.9121 Y2.0975
 X24.8276 Y2.9332
 X24.7150 Y3.7656
 X24.5746 Y4.5938
 X24.4064 Y5.4167
 X24.2106 Y6.2336
 X23.9875 Y7.0434
 X23.7374 Y7.8452
 X23.4604 Y8.6382
 X23.1570 Y9.4215
 X22.8274 Y10.1941
 X22.4721 Y10.9552
 X22.0914 Y11.7039
 X21.6858 Y12.4394
 X21.2556 Y13.1609
 X20.8015 Y13.8676
 X20.3239 Y14.5585
 X19.8233 Y15.2331
 X19.3004 Y15.8904
 X18.7557 Y16.5298
 X18.1898 Y17.1505
 X17.6034 Y17.7519
G0 Z15.0000
 X0.1742 Y1.9910
G1 Z0.0000
 X0.3470 Y1.9682
 X0.5173 Y1.9305
 X0.6835 Y1.8780
 X0.8446 Y1.8113
 X0.9993 Y1.7308
 X1.1463 Y1.6371
 X1.2846 Y1.5310
 X1.4132 Y1.4132
 X1.5310 Y1.2846
 X1.6371 Y1.1463
 X1.7308 Y0.9993
 X1.8113 Y0.8446
 X1.8780 Y0.6835
 X1.9305 Y0.5173
 X1.9682 Y0.3470
 X1.9910 Y0.1742
 X1.9986 Y0.0000
 X1.9910 Y-0.1742
 X1.9682 Y-0.3470
 X1.9305 Y-0.5173
 X1.8780 Y-0.6835
 X1.8113 Y-0.8446
 X1.7308 Y-0.9993
 X1.6371 Y-1.1463
 X1.5310 Y-1.2846
 X1.4132 Y-1.4132
 X1.2846 Y-1.5310
 X1.1463 Y-1.6371
 X0.9993 Y-1.7308
 X0.8446 Y-1.8113
 X0.6835 Y-1.8780
 X0.5173 Y-1.9305
 X0.3470 Y-1.9682
 X0.1742 Y-1.9910
 X0.0000 Y-1.9986
 X-0.1742 Y-1.9910
 X-0.3470 Y-1.9682
 X-0.5173 Y-1.9305
 X-0.6835 Y-1.8780
 X-0.8446 Y-1.8113
 X-0.9993 Y-1.7308
 X-1.1463 Y-1.6371
 X-1.2846 Y-1.5310
 X-1.4132 Y-1.4132
 X-1.5310 Y-1.2846
 X-1.6371 Y-1.1463
 X-1.7308 Y-0.9993
 X-1.8113 Y-0.8446
 X-1.8780 Y-0.6835
 X-1.9305 Y-0.5173
 X-1.9682 Y-0.3470
 X-1.9910 Y-0.1742
 X-1.9986 Y-0.0000
 X-1.9910 Y0.1742
 X-1.9682 Y0.3470
 X-1.9305 Y0.5173
 X-1.8780 Y0.6835
 X-1.8113 Y0.8446
 X-1.7308 Y0.9993
 X-1.6371 Y1.1463
 X-1.5310 Y1.2846
 X-1.4132 Y1.4132
 X-1.2846 Y1.5310
 X-1.1463 Y1.6371
 X-0.9993 Y1.7308
 X-0.8446 Y1.8113
 X-0.6835 Y1.8780
 X-0.5173 Y1.9305
 X-0.3470 Y1.9682
 X-0.1742 Y1.9910
 X0.0000 Y1.9986
 X0.1742 Y1.9910
G0 Z15.0000
 X-17.2842 Y-18.0623
G1 Z0.0000
 X-16.6868 Y-18.6162
 X-16.0520 Y-19.1663
 X-15.3990 Y-19.6947
 X-14.7287 Y-20.2009
 X-14.0418 Y-20.6843
 X-13.3390 Y-21.1443
 X-12.6212 Y-21.5805
 X-11.8891 Y-21.9923
 X-11.1436 Y-22.3793
 X-10.3855 Y-22.7410
 X-9.6157 Y-23.0771
 X-8.8350 Y-23.3871
 X-8.0443 Y-23.6707
 X-7.2447 Y-23.9275
 X-6.4367 Y-24.1574
 X-5.6216 Y-24.3600
 X-4.8000 Y-24.5351
 X-3.9731 Y-24.6825
 X-3.1417 Y-24.8020
 X-2.3067 Y-24.8936
 X-1.4692 Y-24.9570
 X-0.6299 Y-24.9923
 X0.2100 Y-24.9993
 X1.0497 Y-24.9782
 X1.8882 Y-24.9288
 X2.7246 Y-24.8513
 X3.5579 Y-24.7458
 X4.3872 Y-24.6123
 X5.2115 Y-24.4510
 X6.0300 Y-24.2621
 X6.8416 Y-24.0459
 X7.6456 Y-23.8024
 X8.4409 Y-23.5322
 X9.2266 Y-23.2353
 X10.0020 Y-22.9123
 X10.7660 Y-22.5633
 X11.5179 Y-22.1889
 X12.2568 Y-21.7895
 X12.9819 Y-21.3654
 X13.6923 Y-20.9173
 X14.3873 Y-20.4455
 X15.0660 Y-19.9506
 X15.7277 Y-19.4332
 X16.3717 Y-18.8939
 X16.9971 Y-18.3333
 X17.6034 Y-17.7519
 X18.1898 Y-17.1505
 X18.7557 Y-16.5298
 X19.3004 Y-15.8904
 X19.8233 Y-15.2331
 X20.3239 Y-14.5585
 X20.8015 Y-13.8676
 X21.2556 Y-13.1609
 X21.6858 Y-12.4394
 X22.0914 Y-11.7039
 X22.4721 Y-10.9552
 X22.8274 Y-10.1941
 X23.1570 Y-9.4215
 X23.4604 Y-8.6382
 X23.7374 Y-7.8452
 X23.9875 Y-7.0434
 X24.2106 Y-6.2336
 X24.4064 Y-5.4167
 X24.5746 Y-4.5938
 X24.7150 Y-3.7656
 X24.8276 Y-2.9332
 X24.9121 Y-2.0975
 X24.9685 Y-1.2595
 X24.9967 Y-0.4200
 Y0.4200
 X24.9685 Y1.2595
 X24.9121 Y2.0975
 X24.8276 Y2.9332
 X24.7150 Y3.7656
 X24.5746 Y4.5938
 X24.4064 Y5.4167
 X24.2106 Y6.2336
 X23.9875 Y7.0434
 X23.7374 Y7.8452
 X23.4604 Y8.6382
 X23.1570 Y9.4215
 X22.8274 Y10.1941
 X22.4721 Y10.9552
 X22.0914 Y11.7039
 X21.6858 Y12.4394
 X21.2556 Y13.1609
 X20.8015 Y13.8676
 X20.3239 Y14.5585
 X19.8233 Y15.2331
 X19.3004 Y15.8904
 X18.7557 Y16.5298
 X18.1898 Y17.1505
 X17.6034 Y17.7519
 X16.9971 Y18.3333
 X16.3717 Y18.8939
 X15.7277 Y19.4332
 X15.0660 Y19.9506
 X14.3873 Y20.4455
 X13.6923 Y20.9173
 X12.9819 Y21.3654
 X12.2568 Y21.7895
 X11.5179 Y22.1889
 X10.7660 Y22.5633
 X10.0020 Y22.9123
 X9.2266 Y23.2353
 X8.4409 Y23.5322
 X7.6456 Y23.8024
 X6.8416 Y24.0459
 X6.0300 Y24.2621
 X5.2115 Y24.4510
 X4.3872 Y24.6123
 X3.5579 Y24.7458
 X2.7246 Y24.8513
 X1.8882 Y24.9288
 X1.0497 Y24.9782
 X0.2100 Y24.9993
 X-0.6299 Y24.9923
 X-1.4692 Y24.9570
 X-2.3067 Y24.8936
 X-3.1417 Y24.8020
 X-3.9731 Y24.6825
 X-4.8000 Y24.5351
 X-5.6216 Y24.3600
 X-6.4367 Y24.1574
 X-7.2446 Y23.9275
 X-8.0443 Y23.6706
 X-8.8350 Y23.3871
 X-9.6157 Y23.0771
 X-10.3855 Y22.7410
 X-11.1436 Y22.3793
 X-11.8891 Y21.9923
 X-12.6212 Y21.5805
 X-13.3390 Y21.1443
 X-14.0418 Y20.6843
 X-14.7287 Y20.2009
 X-15.3990 Y19.6947
 X-16.0520 Y19.1663
 X-16.6868 Y18.6162
 X-17.3027 Y18.0451
 X-17.8992 Y17.4537
 X-18.4754 Y16.8425
 X-19.0308 Y16.2124
 X-19.5647 Y15.5639
 X-20.0765 Y14.8979
 X-20.5656 Y14.2150
 X-21.0315 Y13.5161
 X-21.4737 Y12.8020
 X-21.8917 Y12.0734
 X-22.2849 Y11.3311
 X-22.6530 Y10.5761
 X-22.9955 Y9.8092
 X-23.3120 Y9.0311
 X-23.6022 Y8.2429
 X-23.8658 Y7.4454
 X-24.1025 Y6.6394
 X-24.3119 Y5.8260
 X-24.4939 Y5.0060
 X-24.6483 Y4.1803
 X-24.7748 Y3.3499
 X-24.8733 Y2.5157
 X-24.9438 Y1.6788
 X-24.9861 Y0.8398
 X-25.0002 Y0.0000
 X-24.9861 Y-0.8398
 X-24.9438 Y-1.6788
 X-24.8733 Y-2.5157
 X-24.7748 Y-3.3499
 X-24.6483 Y-4.1803
 X-24.4939 Y-5.0060
 X-24.3119 Y-5.8260
 X-24.1025 Y-6.6394
 X-23.8658 Y-7.4454
 X-23.6022 Y-8.2429
 X-23.3120 Y-9.0311
 X-22.9955 Y-9.8092
 X-22.6530 Y-10.5761
 X-22.2849 Y-11.3311
 X-21.8917 Y-12.0734
 X-21.4737 Y-12.8020
 X-21.0315 Y-13.5161
 X-20.5656 Y-14.2150
 X-20.0765 Y-14.8979
 X-19.5647 Y-15.5639
 X-19.0308 Y-16.2124
 X-18.4921 Y-16.8236
 X-17.8813 Y-17.4714
 X-17.3206 Y-18.0274
G0 Z15.0000
M5 (stop spindle)
G04 P3 (wait for 3 seconds)
G0 Z15.0000
M2 (end program)
