;PYCAM-META-DATA: Filename: C:\Users\hanse\Desktop\Beep\Hardware\GetriebeB\backcncld.stl
;PYCAM-META-DATA: Timestamp: 2013-06-04 11:53:40.096000
;PYCAM-META-DATA: Version: 0.5.1
;Estimated machine time: 31 minutes
G40 (disable tool radius compensation)
G49 (disable tool length compensation)
G80 (cancel modal motion)
G54 (select coordinate system 1)
G90 (disable incremental moves)
G21 (metric)
G61 (exact path mode)
F200.00000
S1000.00000
;PYCAM_TOOLPATH_SETTINGS: START
;[Bounds]
;maxz = 0.0
;maxx = 55.5
;maxy = 38.5
;minx = 6.5
;miny = 6.5
;minz = -2.0
;
;[Tool]
;torus_radius = 0.25
;speed = 1000.0
;shape = CylindricalCutter
;tool_radius = 1.5
;feedrate = 200.0
;
;[Process]
;generator = PushCutter
;pocketing_type = none
;engrave_offset = 0.0
;milling_style = ignore
;path_direction = x
;step_down = 3.0
;postprocessor = SimpleCutter
;overlap_percent = 0
;material_allowance = 0.5
;
;PYCAM_TOOLPATH_SETTINGS: END
T1 M6
G0 Z5.0000
M3 (start spindle)
G04 P3 (wait for 3 seconds)
 X44.5998 Y15.2273
G1 Z0.0000
 X32.4232
G0 Z5.0000
 X30.0864 Y18.1364
G1 Z0.0000
 X46.9305
G0 Z5.0000
 X55.5000 Y21.0455
G1 Z0.0000
 X29.1270
 X29.1371 Y23.9545
 X48.8586
G0 Z5.0000
 X46.9116 Y26.8636
G1 Z0.0000
 X30.0697
G0 Z5.0000
 X32.3983 Y29.7727
G1 Z0.0000
 X44.5745
 Z-2.0000
 X32.3983
G0 Z5.0000
 X30.0697 Y26.8636
G1 Z-2.0000
 X46.9116
G0 Z5.0000
 X48.8586 Y23.9545
G1 Z-2.0000
 X29.1371
 X29.1270 Y21.0455
 X55.5000
G0 Z5.0000
 X46.9305 Y18.1364
G1 Z-2.0000
 X30.0864
G0 Z5.0000
 X32.4232 Y15.2273
G1 Z-2.0000
 X44.5998
G0 Z5.0000
M5 (stop spindle)
G04 P3 (wait for 3 seconds)
F200.00000
S1000.00000
;PYCAM_TOOLPATH_SETTINGS: START
;[Bounds]
;maxz = 0.0
;maxx = 55.5
;maxy = 38.5
;minx = 6.5
;miny = 6.5
;minz = -2.0
;
;[Tool]
;torus_radius = 0.25
;speed = 1000.0
;shape = CylindricalCutter
;tool_radius = 1.5
;feedrate = 200.0
;
;[Process]
;generator = ContourFollow
;pocketing_type = none
;engrave_offset = 0.0
;milling_style = conventional
;path_direction = x
;step_down = 5.0
;postprocessor = SimpleCutter
;material_allowance = 0.0
;
;PYCAM_TOOLPATH_SETTINGS: END
G0 Z5.0000
M3 (start spindle)
G04 P3 (wait for 3 seconds)
 X52.4404 Y35.3003
G1 Z0.0000
 X52.5094 Y35.1571
 X52.5330 Y35.0000
 X52.5094 Y34.8429
 X52.4404 Y34.6997
 X52.3323 Y34.5833
 X52.1947 Y34.5038
 X52.0398 Y34.4684
 X51.8814 Y34.4803
 X51.7335 Y34.5384
 X51.6092 Y34.6374
 X51.5197 Y34.7687
 X51.4729 Y34.9205
 Y35.0795
 X51.5197 Y35.2313
 X51.6092 Y35.3626
 X51.7335 Y35.4616
 X51.8814 Y35.5197
 X52.0398 Y35.5316
 X52.1947 Y35.4962
 X52.3323 Y35.4167
 X52.4404 Y35.3003
G0 Z5.0000
 X52.1947 Y10.4962
G1 Z0.0000
 X52.3323 Y10.4167
 X52.4404 Y10.3003
 X52.5094 Y10.1571
 X52.5330 Y10.0000
 X52.5094 Y9.8429
 X52.4404 Y9.6997
 X52.3323 Y9.5833
 X52.1947 Y9.5038
 X52.0398 Y9.4684
 X51.8814 Y9.4803
 X51.7335 Y9.5384
 X51.6092 Y9.6374
 X51.5197 Y9.7687
 X51.4729 Y9.9205
 Y10.0795
 X51.5197 Y10.2313
 X51.6092 Y10.3626
 X51.7335 Y10.4616
 X51.8814 Y10.5197
 X52.0398 Y10.5316
 X52.1947 Y10.4962
G0 Z5.0000
 X55.5000 Y20.1470
G1 Z0.0000
 X48.3488
 X47.3994 Y17.9463
 X46.7265 Y16.8203
 X45.9121 Y15.7921
 X44.9701 Y14.8794
 X43.9166 Y14.0979
 X42.7699 Y13.4610
 X41.5497 Y12.9798
 X40.2770 Y12.6625
 X38.9737 Y12.5145
 X37.6622 Y12.5384
 X36.3652 Y12.7338
 X35.1049 Y13.0974
 X33.9031 Y13.6229
 X32.7804 Y14.3011
 X31.7562 Y15.1206
 X30.8481 Y16.0670
 X30.0717 Y17.1243
 X29.4404 Y18.2740
 X28.9651 Y19.4966
 X28.6539 Y20.7708
 X28.5123 Y22.0748
 X28.5426 Y23.3861
 X28.7443 Y24.6822
 X29.1140 Y25.9407
 X29.6453 Y27.1400
 X30.3290 Y28.2594
 X31.1534 Y29.2796
 X32.1043 Y30.1831
 X33.1653 Y30.9543
 X34.3181 Y31.5800
 X35.5429 Y32.0494
 X36.8187 Y32.3543
 X38.1233 Y32.4896
 X39.4345 Y32.4530
 X40.7296 Y32.2449
 X41.9863 Y31.8691
 X43.1829 Y31.3320
 X44.2990 Y30.6429
 X45.3152 Y29.8135
 X46.2141 Y28.8583
 X46.9802 Y27.7936
 X47.6002 Y26.6377
 X48.4648 Y24.3483
 X55.5000
G0 Z5.0000
 X23.5268 Y22.5000
G1 Z0.0000
 X23.5252 Y22.4908
 X23.5206 Y22.4827
 X23.5134 Y22.4768
 X23.5047 Y22.4736
 X23.4953
 X23.4866 Y22.4768
 X23.4794 Y22.4827
 X23.4748 Y22.4908
 X23.4732 Y22.5000
 X23.4748 Y22.5092
 X23.4794 Y22.5173
 X23.4866 Y22.5232
 X23.4953 Y22.5264
 X23.5047
 X23.5134 Y22.5232
 X23.5206 Y22.5173
 X23.5252 Y22.5092
 X23.5268 Y22.5000
G0 Z5.0000
 X10.4404 Y35.3003
G1 Z0.0000
 X10.5094 Y35.1571
 X10.5330 Y35.0000
 X10.5094 Y34.8429
 X10.4404 Y34.6997
 X10.3323 Y34.5833
 X10.1947 Y34.5038
 X10.0398 Y34.4684
 X9.8814 Y34.4803
 X9.7335 Y34.5384
 X9.6092 Y34.6374
 X9.5197 Y34.7687
 X9.4729 Y34.9205
 Y35.0795
 X9.5197 Y35.2313
 X9.6092 Y35.3626
 X9.7335 Y35.4616
 X9.8814 Y35.5197
 X10.0398 Y35.5316
 X10.1947 Y35.4962
 X10.3323 Y35.4167
 X10.4404 Y35.3003
G0 Z5.0000
 X10.0398 Y10.5316
G1 Z0.0000
 X10.1947 Y10.4962
 X10.3323 Y10.4167
 X10.4404 Y10.3003
 X10.5094 Y10.1571
 X10.5330 Y10.0000
 X10.5094 Y9.8429
 X10.4404 Y9.6997
 X10.3323 Y9.5833
 X10.1947 Y9.5038
 X10.0398 Y9.4684
 X9.8814 Y9.4803
 X9.7335 Y9.5384
 X9.6092 Y9.6374
 X9.5197 Y9.7687
 X9.4729 Y9.9205
 Y10.0795
 X9.5197 Y10.2313
 X9.6092 Y10.3626
 X9.7335 Y10.4616
 X9.8814 Y10.5197
 X10.0398 Y10.5316
G0 Z5.0000
 X52.4404 Y35.3003
G1 Z-2.0000
 X52.5094 Y35.1571
 X52.5330 Y35.0000
 X52.5094 Y34.8429
 X52.4404 Y34.6997
 X52.3323 Y34.5833
 X52.1947 Y34.5038
 X52.0398 Y34.4684
 X51.8814 Y34.4803
 X51.7335 Y34.5384
 X51.6092 Y34.6374
 X51.5197 Y34.7687
 X51.4729 Y34.9205
 Y35.0795
 X51.5197 Y35.2313
 X51.6092 Y35.3626
 X51.7335 Y35.4616
 X51.8814 Y35.5197
 X52.0398 Y35.5316
 X52.1947 Y35.4962
 X52.3323 Y35.4167
 X52.4404 Y35.3003
G0 Z5.0000
 X52.1947 Y10.4962
G1 Z-2.0000
 X52.3323 Y10.4167
 X52.4404 Y10.3003
 X52.5094 Y10.1571
 X52.5330 Y10.0000
 X52.5094 Y9.8429
 X52.4404 Y9.6997
 X52.3323 Y9.5833
 X52.1947 Y9.5038
 X52.0398 Y9.4684
 X51.8814 Y9.4803
 X51.7335 Y9.5384
 X51.6092 Y9.6374
 X51.5197 Y9.7687
 X51.4729 Y9.9205
 Y10.0795
 X51.5197 Y10.2313
 X51.6092 Y10.3626
 X51.7335 Y10.4616
 X51.8814 Y10.5197
 X52.0398 Y10.5316
 X52.1947 Y10.4962
G0 Z5.0000
 X55.5000 Y20.1470
G1 Z-2.0000
 X48.3488
 X47.3994 Y17.9463
 X46.7265 Y16.8203
 X45.9121 Y15.7921
 X44.9701 Y14.8794
 X43.9166 Y14.0979
 X42.7699 Y13.4610
 X41.5497 Y12.9798
 X40.2770 Y12.6625
 X38.9737 Y12.5145
 X37.6622 Y12.5384
 X36.3652 Y12.7338
 X35.1049 Y13.0974
 X33.9031 Y13.6229
 X32.7804 Y14.3011
 X31.7562 Y15.1206
 X30.8481 Y16.0670
 X30.0717 Y17.1243
 X29.4404 Y18.2740
 X28.9651 Y19.4966
 X28.6539 Y20.7708
 X28.5123 Y22.0748
 X28.5426 Y23.3861
 X28.7443 Y24.6822
 X29.1140 Y25.9407
 X29.6453 Y27.1400
 X30.3290 Y28.2594
 X31.1534 Y29.2796
 X32.1043 Y30.1831
 X33.1653 Y30.9543
 X34.3181 Y31.5800
 X35.5429 Y32.0494
 X36.8187 Y32.3543
 X38.1233 Y32.4896
 X39.4345 Y32.4530
 X40.7296 Y32.2449
 X41.9863 Y31.8691
 X43.1829 Y31.3320
 X44.2990 Y30.6429
 X45.3152 Y29.8135
 X46.2141 Y28.8583
 X46.9802 Y27.7936
 X47.6002 Y26.6377
 X48.4648 Y24.3483
 X55.5000
G0 Z5.0000
 X23.5268 Y22.5000
G1 Z-2.0000
 X23.5252 Y22.4908
 X23.5206 Y22.4827
 X23.5134 Y22.4768
 X23.5047 Y22.4736
 X23.4953
 X23.4866 Y22.4768
 X23.4794 Y22.4827
 X23.4748 Y22.4908
 X23.4732 Y22.5000
 X23.4748 Y22.5092
 X23.4794 Y22.5173
 X23.4866 Y22.5232
 X23.4953 Y22.5264
 X23.5047
 X23.5134 Y22.5232
 X23.5206 Y22.5173
 X23.5252 Y22.5092
 X23.5268 Y22.5000
G0 Z5.0000
 X10.4404 Y35.3003
G1 Z-2.0000
 X10.5094 Y35.1571
 X10.5330 Y35.0000
 X10.5094 Y34.8429
 X10.4404 Y34.6997
 X10.3323 Y34.5833
 X10.1947 Y34.5038
 X10.0398 Y34.4684
 X9.8814 Y34.4803
 X9.7335 Y34.5384
 X9.6092 Y34.6374
 X9.5197 Y34.7687
 X9.4729 Y34.9205
 Y35.0795
 X9.5197 Y35.2313
 X9.6092 Y35.3626
 X9.7335 Y35.4616
 X9.8814 Y35.5197
 X10.0398 Y35.5316
 X10.1947 Y35.4962
 X10.3323 Y35.4167
 X10.4404 Y35.3003
G0 Z5.0000
 X10.0398 Y10.5316
G1 Z-2.0000
 X10.1947 Y10.4962
 X10.3323 Y10.4167
 X10.4404 Y10.3003
 X10.5094 Y10.1571
 X10.5330 Y10.0000
 X10.5094 Y9.8429
 X10.4404 Y9.6997
 X10.3323 Y9.5833
 X10.1947 Y9.5038
 X10.0398 Y9.4684
 X9.8814 Y9.4803
 X9.7335 Y9.5384
 X9.6092 Y9.6374
 X9.5197 Y9.7687
 X9.4729 Y9.9205
 Y10.0795
 X9.5197 Y10.2313
 X9.6092 Y10.3626
 X9.7335 Y10.4616
 X9.8814 Y10.5197
 X10.0398 Y10.5316
G0 Z5.0000
M5 (stop spindle)
G04 P3 (wait for 3 seconds)
F200.00000
S1000.00000
;PYCAM_TOOLPATH_SETTINGS: START
;[Bounds]
;maxz = 0.0
;maxx = 55.5
;maxy = 38.5
;minx = 6.5
;miny = 6.5
;minz = -2.0
;
;[Tool]
;torus_radius = 0.25
;speed = 1000.0
;shape = CylindricalCutter
;tool_radius = 1.5
;feedrate = 200.0
;
;[Process]
;generator = DropCutter
;pocketing_type = none
;engrave_offset = 0.0
;milling_style = ignore
;path_direction = x
;step_down = 3.0
;postprocessor = PathAccumulator
;material_allowance = 0.0
;
;PYCAM_TOOLPATH_SETTINGS: END
G0 Z5.0000
M3 (start spindle)
G04 P3 (wait for 3 seconds)
 X6.5000 Y6.5000
G1 Z0.0000
 X55.5000
 Y7.0926
 X6.5000
 Y7.6852
 X55.5000
 Y8.2778
 X6.5000
 Y8.8704
 X55.5000
 Y9.4630
 X6.5000
 Y10.0556
 X9.4719
 X9.4734 Z-2.0000
 X10.5239
 X10.5254 Z0.0000
 X51.4728
 X51.4730 Z-2.0000
 X52.5244
 X52.5248 Z0.0000
 X55.5000
 Y10.6481
 X6.5000
 Y11.2407
 X55.5000
 Y11.8333
 X6.5000
 Y12.4259
 X55.5000
 Y13.0185
 X41.6486
 X41.6457 Z-2.0000
 X35.3790
 X35.3782 Z0.0000
 X6.5000
 Y13.6111
 X33.9295
 X33.9303 Z-2.0000
 X43.0396
 X43.0411 Z0.0000
 X55.5000
 Y14.2037
 X44.0595
 X44.0580 Z-2.0000
 X32.9418
 X32.9411 Z0.0000
 X6.5000
 Y14.7963
 X32.1601
 X32.1616 Z-2.0000
 X44.8572
 X44.8587 Z0.0000
 X55.5000
 Y15.3889
 X45.4972
 X45.4957 Z-2.0000
 X31.4997
 X31.4982 Z0.0000
 X6.5000
 Y15.9815
 X30.9299
 X30.9313 Z-2.0000
 X46.0612
 X46.0626 Z0.0000
 X55.5000
 Y16.5741
 X46.5317
 X46.5302 Z-2.0000
 X30.4769
 X30.4755 Z0.0000
 X6.5000
 Y17.1667
 X30.0474
 X30.0488 Z-2.0000
 X46.9320
 X46.9349 Z0.0000
 X55.5000
 Y17.7593
 X47.2885
 X47.2871 Z-2.0000
 X29.7231
 X29.7230 Z0.0000
 X6.5000
 Y18.3519
 X29.4101
 X29.4102 Z-2.0000
 X47.5742
 X47.5745 Z0.0000
 X55.5000
 Y18.9444
 X47.8321
 X47.8291 Z-2.0000
 X29.1798
 X29.1796 Z0.0000
 X6.5000
 Y19.5370
 X28.9544
 X28.9574 Z-2.0000
 X48.1272
 X48.1287 Z0.0000
 X55.5000
 Y20.1296
 X49.1091
 X49.1076 Z-2.0000
 X28.8112
 X28.8098 Z0.0000
 X6.5000
 Y20.7222
 X28.6651
 X28.6666 Z-2.0000
 X55.5000
 Y21.3148
 X28.5950
 X28.5935 Z0.0000
 X6.5000
 Y21.9074
 X28.5303
 X28.5305 Z-2.0000
 X55.5000
 Y22.5000
 X28.5221
 X28.5220 Z0.0000
 X6.5000
 Y23.0926
 X28.5351
 X28.5358 Z-2.0000
 X55.5000
 Y23.6852
 X28.5892
 X28.5877 Z0.0000
 X6.5000
 Y24.2778
 X28.6812
 X28.6819 Z-2.0000
 X55.5000
G0 Z5.0000
 Y24.8704
G1 Z0.0000
 X48.3646
 X48.3643 Z-2.0000
 X28.8025
 X28.7996 Z0.0000
 X6.5000
 Y25.4630
 X28.9734
 X28.9742 Z-2.0000
 X48.0425
 X48.0454 Z0.0000
 X55.5000
 Y26.0556
 X47.8204
 X47.8189 Z-2.0000
 X29.1649
 Z0.0000
 X6.5000
 Y26.6481
 X29.4271
 X29.4275 Z-2.0000
 X47.5946
 X47.5950 Z0.0000
 X55.5000
 Y27.2407
 X47.2768
 X47.2754 Z-2.0000
 X29.7069
 X29.7062 Z0.0000
 X6.5000
 Y27.8333
 X30.0649
 X30.0707 Z-2.0000
 X46.9510
 X46.9517 Z0.0000
 X55.5000
 Y28.4259
 X46.5258
 X46.5244 Z-2.0000
 X30.4638
 X30.4630 Z0.0000
 X6.5000
 Y29.0185
 X30.9416
 X30.9445 Z-2.0000
 X46.0626
 X46.0634 Z0.0000
 X55.5000
 Y29.6111
 X45.5060
 X45.5030 Z-2.0000
 X31.5026
 X31.5012 Z0.0000
 X6.5000
 Y30.2037
 X32.1324
 X32.1331 Z-2.0000
 X44.8368
 X44.8382 Z0.0000
 X55.5000
 Y30.7963
 X44.0507
 X44.0492 Z-2.0000
 X32.9491
 X32.9477 Z0.0000
 X6.5000
 Y31.3889
 X33.9659
 X33.9660 Z-2.0000
 X43.0557
 X43.0564 Z0.0000
 X55.5000
 Y31.9815
 X41.6135
 X41.6106 Z-2.0000
 X35.3658
 X35.3644 Z0.0000
 X6.5000
 Y32.5741
 X55.5000
 Y33.1667
 X6.5000
 Y33.7593
 X55.5000
 Y34.3519
 X6.5000
 Y34.9444
 X9.4719
 X9.4734 Z-2.0000
 X10.5239
 X10.5254 Z0.0000
 X51.4728
 X51.4730 Z-2.0000
 X52.5244
 X52.5248 Z0.0000
 X55.5000
 Y35.5370
 X6.5000
 Y36.1296
 X55.5000
 Y36.7222
 X6.5000
 Y37.3148
 X55.5000
 Y37.9074
 X6.5000
 Y38.5000
 X55.5000
G0 Z5.0000
M5 (stop spindle)
G04 P3 (wait for 3 seconds)
F200.00000
S1000.00000
;PYCAM_TOOLPATH_SETTINGS: START
;[Bounds]
;maxz = 0.0
;maxx = 60.5
;maxy = 43.5
;minx = 1.5
;miny = 1.5
;minz = -2.0
;
;[Tool]
;torus_radius = 0.25
;speed = 1000.0
;shape = CylindricalCutter
;tool_radius = 1.5
;feedrate = 200.0
;
;[Process]
;generator = PushCutter
;pocketing_type = none
;engrave_offset = 0.0
;milling_style = ignore
;path_direction = x
;step_down = 3.0
;postprocessor = SimpleCutter
;overlap_percent = 0
;material_allowance = 0.5
;
;PYCAM_TOOLPATH_SETTINGS: END
G0 Z5.0000
M3 (start spindle)
G04 P3 (wait for 3 seconds)
 X1.5000 Y1.5000
G1 Z0.0000
 X60.5000
 Y4.5000
 X58.1167
G0 Z5.0000
 X3.8833
G1 Z0.0000
 X1.5000
 Y7.5000
 X3.0000
G0 Z5.0000
 X59.0000
G1 Z0.0000
 X60.5000
 Y10.5000
 X59.0000
G0 Z5.0000
 X3.0000
G1 Z0.0000
 X1.5000
 Y13.5000
 X3.0000
G0 Z5.0000
 X35.5133
G1 Z0.0000
 X41.5059
G0 Z5.0000
 X59.0000
G1 Z0.0000
 X60.5000
 Y16.5000
 X59.0000
G0 Z5.0000
 X45.8350
G1 Z0.0000
 X31.1504
G0 Z5.0000
 X3.0000
G1 Z0.0000
 X1.5000
 Y19.5000
 X3.0000
G0 Z5.0000
 X29.5002
G1 Z0.0000
 X47.5264
G0 Z5.0000
 X58.8090
G1 Z0.0000
 X60.5000
 Y22.5000
 X29.0222
G0 Z5.0000
 X3.0000
G1 Z0.0000
 X1.5000
 Y25.5000
 X3.0000
G0 Z5.0000
 X29.5057
G1 Z0.0000
 X47.4954
G0 Z5.0000
 X58.9694
G1 Z0.0000
 X60.5000
 Y28.5000
 X59.0000
G0 Z5.0000
 X45.8559
G1 Z0.0000
 X31.1663
G0 Z5.0000
 X3.0000
G1 Z0.0000
 X1.5000
 Y31.5000
 X3.0000
G0 Z5.0000
 X35.5066
G1 Z0.0000
 X41.4756
G0 Z5.0000
 X59.0000
G1 Z0.0000
 X60.5000
 Y34.5000
 X59.0000
G0 Z5.0000
 X3.0000
G1 Z0.0000
 X1.5000
 Y37.5000
 X3.0000
G0 Z5.0000
 X59.0000
G1 Z0.0000
 X60.5000
 Y40.5000
 X58.1167
G0 Z5.0000
 X3.8833
G1 Z0.0000
 X1.5000
 Y43.5000
 X60.5000
 Z-2.0000
 X1.5000
 Y40.5000
 X3.8833
G0 Z5.0000
 X58.1167
G1 Z-2.0000
 X60.5000
 Y37.5000
 X59.0000
G0 Z5.0000
 X3.0000
G1 Z-2.0000
 X1.5000
 Y34.5000
 X3.0000
G0 Z5.0000
 X59.0000
G1 Z-2.0000
 X60.5000
 Y31.5000
 X59.0000
G0 Z5.0000
 X41.4756
G1 Z-2.0000
 X35.5066
G0 Z5.0000
 X3.0000
G1 Z-2.0000
 X1.5000
 Y28.5000
 X3.0000
G0 Z5.0000
 X31.1663
G1 Z-2.0000
 X45.8559
G0 Z5.0000
 X59.0000
G1 Z-2.0000
 X60.5000
 Y25.5000
 X58.9694
G0 Z5.0000
 X47.4954
G1 Z-2.0000
 X29.5057
G0 Z5.0000
 X3.0000
G1 Z-2.0000
 X1.5000
 Y22.5000
 X3.0000
G0 Z5.0000
 X29.0222
G1 Z-2.0000
 X60.5000
 Y19.5000
 X58.8090
G0 Z5.0000
 X47.5264
G1 Z-2.0000
 X29.5002
G0 Z5.0000
 X3.0000
G1 Z-2.0000
 X1.5000
 Y16.5000
 X3.0000
G0 Z5.0000
 X31.1504
G1 Z-2.0000
 X45.8350
G0 Z5.0000
 X59.0000
G1 Z-2.0000
 X60.5000
 Y13.5000
 X59.0000
G0 Z5.0000
 X41.5059
G1 Z-2.0000
 X35.5133
G0 Z5.0000
 X3.0000
G1 Z-2.0000
 X1.5000
 Y10.5000
 X3.0000
G0 Z5.0000
 X59.0000
G1 Z-2.0000
 X60.5000
 Y7.5000
 X59.0000
G0 Z5.0000
 X3.0000
G1 Z-2.0000
 X1.5000
 Y4.5000
 X3.8833
G0 Z5.0000
 X58.1167
G1 Z-2.0000
 X60.5000
 Y1.5000
 X1.5000
G0 Z5.0000
M5 (stop spindle)
G04 P3 (wait for 3 seconds)
G0 Z5.0000
M2 (end program)
