;PYCAM-META-DATA: Filename: C:\Users\hanse\Desktop\Beep\Hardware\GetriebeB\backcncld.stl
;PYCAM-META-DATA: Timestamp: 2013-06-04 13:05:43.172000
;PYCAM-META-DATA: Version: 0.5.1
;Estimated machine time: 5 minutes
G40 (disable tool radius compensation)
G49 (disable tool length compensation)
G80 (cancel modal motion)
G54 (select coordinate system 1)
G90 (disable incremental moves)
G21 (metric)
G61 (exact path mode)
F200.00000
S1000.00000
;PYCAM_TOOLPATH_SETTINGS: START
;[Bounds]
;maxz = 0.0
;maxx = 60.5
;maxy = 43.5
;minx = 1.5
;miny = 1.5
;minz = -2.0
;
;[Tool]
;torus_radius = 0.25
;speed = 1000.0
;shape = CylindricalCutter
;tool_radius = 1.5
;feedrate = 200.0
;
;[Process]
;generator = ContourFollow
;pocketing_type = none
;engrave_offset = 0.0
;milling_style = conventional
;path_direction = x
;step_down = 5.0
;postprocessor = SimpleCutter
;material_allowance = 0.0
;
;PYCAM_TOOLPATH_SETTINGS: END
T1 M6
G0 Z5.0000
M3 (start spindle)
G04 P3 (wait for 3 seconds)
 X52.4404 Y35.3003
G1 Z0.0000
 X52.5094 Y35.1571
 X52.5330 Y35.0000
 X52.5094 Y34.8429
 X52.4404 Y34.6997
 X52.3323 Y34.5833
 X52.1947 Y34.5038
 X52.0398 Y34.4684
 X51.8814 Y34.4803
 X51.7335 Y34.5384
 X51.6092 Y34.6374
 X51.5197 Y34.7687
 X51.4729 Y34.9205
 Y35.0795
 X51.5197 Y35.2313
 X51.6092 Y35.3626
 X51.7335 Y35.4616
 X51.8814 Y35.5197
 X52.0398 Y35.5316
 X52.1947 Y35.4962
 X52.3323 Y35.4167
 X52.4404 Y35.3003
G0 Z5.0000
 X52.1947 Y10.4962
G1 Z0.0000
 X52.3323 Y10.4167
 X52.4404 Y10.3003
 X52.5094 Y10.1571
 X52.5330 Y10.0000
 X52.5094 Y9.8429
 X52.4404 Y9.6997
 X52.3323 Y9.5833
 X52.1947 Y9.5038
 X52.0398 Y9.4684
 X51.8814 Y9.4803
 X51.7335 Y9.5384
 X51.6092 Y9.6374
 X51.5197 Y9.7687
 X51.4729 Y9.9205
 Y10.0795
 X51.5197 Y10.2313
 X51.6092 Y10.3626
 X51.7335 Y10.4616
 X51.8814 Y10.5197
 X52.0398 Y10.5316
 X52.1947 Y10.4962
G0 Z5.0000
 X23.5268 Y22.5000
G1 Z0.0000
 X23.5252 Y22.4908
 X23.5206 Y22.4827
 X23.5134 Y22.4768
 X23.5047 Y22.4736
 X23.4953
 X23.4866 Y22.4768
 X23.4794 Y22.4827
 X23.4748 Y22.4908
 X23.4732 Y22.5000
 X23.4748 Y22.5092
 X23.4794 Y22.5173
 X23.4866 Y22.5232
 X23.4953 Y22.5264
 X23.5047
 X23.5134 Y22.5232
 X23.5206 Y22.5173
 X23.5252 Y22.5092
 X23.5268 Y22.5000
G0 Z5.0000
 X10.4404 Y35.3003
G1 Z0.0000
 X10.5094 Y35.1571
 X10.5330 Y35.0000
 X10.5094 Y34.8429
 X10.4404 Y34.6997
 X10.3323 Y34.5833
 X10.1947 Y34.5038
 X10.0398 Y34.4684
 X9.8814 Y34.4803
 X9.7335 Y34.5384
 X9.6092 Y34.6374
 X9.5197 Y34.7687
 X9.4729 Y34.9205
 Y35.0795
 X9.5197 Y35.2313
 X9.6092 Y35.3626
 X9.7335 Y35.4616
 X9.8814 Y35.5197
 X10.0398 Y35.5316
 X10.1947 Y35.4962
 X10.3323 Y35.4167
 X10.4404 Y35.3003
G0 Z5.0000
 X10.0398 Y10.5316
G1 Z0.0000
 X10.1947 Y10.4962
 X10.3323 Y10.4167
 X10.4404 Y10.3003
 X10.5094 Y10.1571
 X10.5330 Y10.0000
 X10.5094 Y9.8429
 X10.4404 Y9.6997
 X10.3323 Y9.5833
 X10.1947 Y9.5038
 X10.0398 Y9.4684
 X9.8814 Y9.4803
 X9.7335 Y9.5384
 X9.6092 Y9.6374
 X9.5197 Y9.7687
 X9.4729 Y9.9205
 Y10.0795
 X9.5197 Y10.2313
 X9.6092 Y10.3626
 X9.7335 Y10.4616
 X9.8814 Y10.5197
 X10.0398 Y10.5316
G0 Z5.0000
 X57.0682 Y40.8467
G1 Z0.0000
 X56.0873 Y41.3465
 X55.1181 Y41.5000
 X6.8819
 X5.9127 Y41.3465
 X4.9318 Y40.8467
 X4.1533 Y40.0682
 X3.6535 Y39.0873
 X3.5000 Y38.1181
 Y6.8819
 X3.6535 Y5.9127
 X4.1533 Y4.9318
 X4.9318 Y4.1533
 X5.9127 Y3.6535
 X6.8819 Y3.5000
 X55.1181
 X56.0873 Y3.6535
 X57.0682 Y4.1533
 X57.8467 Y4.9318
 X58.3465 Y5.9127
 X58.5000 Y6.8819
 Y20.1470
 X48.3488
 X47.3994 Y17.9463
 X46.7265 Y16.8203
 X45.9121 Y15.7921
 X44.9701 Y14.8794
 X43.9166 Y14.0979
 X42.7699 Y13.4610
 X41.5497 Y12.9798
 X40.2770 Y12.6625
 X38.9737 Y12.5145
 X37.6622 Y12.5384
 X36.3652 Y12.7338
 X35.1049 Y13.0974
 X33.9031 Y13.6229
 X32.7804 Y14.3011
 X31.7562 Y15.1206
 X30.8481 Y16.0670
 X30.0717 Y17.1243
 X29.4404 Y18.2740
 X28.9651 Y19.4966
 X28.6539 Y20.7708
 X28.5123 Y22.0748
 X28.5426 Y23.3861
 X28.7443 Y24.6822
 X29.1140 Y25.9407
 X29.6453 Y27.1400
 X30.3290 Y28.2594
 X31.1534 Y29.2796
 X32.1043 Y30.1831
 X33.1653 Y30.9543
 X34.3181 Y31.5800
 X35.5429 Y32.0494
 X36.8187 Y32.3543
 X38.1233 Y32.4896
 X39.4345 Y32.4530
 X40.7296 Y32.2449
 X41.9863 Y31.8691
 X43.1829 Y31.3320
 X44.2990 Y30.6429
 X45.3152 Y29.8135
 X46.2141 Y28.8583
 X46.9802 Y27.7936
 X47.6002 Y26.6377
 X48.4648 Y24.3483
 X58.5000
 Y38.1181
 X58.3465 Y39.0873
 X57.8467 Y40.0682
 X57.0682 Y40.8467
G0 Z5.0000
 X52.4404 Y35.3003
G1 Z-2.0000
 X52.5094 Y35.1571
 X52.5330 Y35.0000
 X52.5094 Y34.8429
 X52.4404 Y34.6997
 X52.3323 Y34.5833
 X52.1947 Y34.5038
 X52.0398 Y34.4684
 X51.8814 Y34.4803
 X51.7335 Y34.5384
 X51.6092 Y34.6374
 X51.5197 Y34.7687
 X51.4729 Y34.9205
 Y35.0795
 X51.5197 Y35.2313
 X51.6092 Y35.3626
 X51.7335 Y35.4616
 X51.8814 Y35.5197
 X52.0398 Y35.5316
 X52.1947 Y35.4962
 X52.3323 Y35.4167
 X52.4404 Y35.3003
G0 Z5.0000
 X52.1947 Y10.4962
G1 Z-2.0000
 X52.3323 Y10.4167
 X52.4404 Y10.3003
 X52.5094 Y10.1571
 X52.5330 Y10.0000
 X52.5094 Y9.8429
 X52.4404 Y9.6997
 X52.3323 Y9.5833
 X52.1947 Y9.5038
 X52.0398 Y9.4684
 X51.8814 Y9.4803
 X51.7335 Y9.5384
 X51.6092 Y9.6374
 X51.5197 Y9.7687
 X51.4729 Y9.9205
 Y10.0795
 X51.5197 Y10.2313
 X51.6092 Y10.3626
 X51.7335 Y10.4616
 X51.8814 Y10.5197
 X52.0398 Y10.5316
 X52.1947 Y10.4962
G0 Z5.0000
 X23.5268 Y22.5000
G1 Z-2.0000
 X23.5252 Y22.4908
 X23.5206 Y22.4827
 X23.5134 Y22.4768
 X23.5047 Y22.4736
 X23.4953
 X23.4866 Y22.4768
 X23.4794 Y22.4827
 X23.4748 Y22.4908
 X23.4732 Y22.5000
 X23.4748 Y22.5092
 X23.4794 Y22.5173
 X23.4866 Y22.5232
 X23.4953 Y22.5264
 X23.5047
 X23.5134 Y22.5232
 X23.5206 Y22.5173
 X23.5252 Y22.5092
 X23.5268 Y22.5000
G0 Z5.0000
 X10.4404 Y35.3003
G1 Z-2.0000
 X10.5094 Y35.1571
 X10.5330 Y35.0000
 X10.5094 Y34.8429
 X10.4404 Y34.6997
 X10.3323 Y34.5833
 X10.1947 Y34.5038
 X10.0398 Y34.4684
 X9.8814 Y34.4803
 X9.7335 Y34.5384
 X9.6092 Y34.6374
 X9.5197 Y34.7687
 X9.4729 Y34.9205
 Y35.0795
 X9.5197 Y35.2313
 X9.6092 Y35.3626
 X9.7335 Y35.4616
 X9.8814 Y35.5197
 X10.0398 Y35.5316
 X10.1947 Y35.4962
 X10.3323 Y35.4167
 X10.4404 Y35.3003
G0 Z5.0000
 X10.0398 Y10.5316
G1 Z-2.0000
 X10.1947 Y10.4962
 X10.3323 Y10.4167
 X10.4404 Y10.3003
 X10.5094 Y10.1571
 X10.5330 Y10.0000
 X10.5094 Y9.8429
 X10.4404 Y9.6997
 X10.3323 Y9.5833
 X10.1947 Y9.5038
 X10.0398 Y9.4684
 X9.8814 Y9.4803
 X9.7335 Y9.5384
 X9.6092 Y9.6374
 X9.5197 Y9.7687
 X9.4729 Y9.9205
 Y10.0795
 X9.5197 Y10.2313
 X9.6092 Y10.3626
 X9.7335 Y10.4616
 X9.8814 Y10.5197
 X10.0398 Y10.5316
G0 Z5.0000
 X57.0682 Y40.8467
G1 Z-2.0000
 X56.0873 Y41.3465
 X55.1181 Y41.5000
 X6.8819
 X5.9127 Y41.3465
 X4.9318 Y40.8467
 X4.1533 Y40.0682
 X3.6535 Y39.0873
 X3.5000 Y38.1181
 Y6.8819
 X3.6535 Y5.9127
 X4.1533 Y4.9318
 X4.9318 Y4.1533
 X5.9127 Y3.6535
 X6.8819 Y3.5000
 X55.1181
 X56.0873 Y3.6535
 X57.0682 Y4.1533
 X57.8467 Y4.9318
 X58.3465 Y5.9127
 X58.5000 Y6.8819
 Y20.1470
 X48.3488
 X47.3994 Y17.9463
 X46.7265 Y16.8203
 X45.9121 Y15.7921
 X44.9701 Y14.8794
 X43.9166 Y14.0979
 X42.7699 Y13.4610
 X41.5497 Y12.9798
 X40.2770 Y12.6625
 X38.9737 Y12.5145
 X37.6622 Y12.5384
 X36.3652 Y12.7338
 X35.1049 Y13.0974
 X33.9031 Y13.6229
 X32.7804 Y14.3011
 X31.7562 Y15.1206
 X30.8481 Y16.0670
 X30.0717 Y17.1243
 X29.4404 Y18.2740
 X28.9651 Y19.4966
 X28.6539 Y20.7708
 X28.5123 Y22.0748
 X28.5426 Y23.3861
 X28.7443 Y24.6822
 X29.1140 Y25.9407
 X29.6453 Y27.1400
 X30.3290 Y28.2594
 X31.1534 Y29.2796
 X32.1043 Y30.1831
 X33.1653 Y30.9543
 X34.3181 Y31.5800
 X35.5429 Y32.0494
 X36.8187 Y32.3543
 X38.1233 Y32.4896
 X39.4345 Y32.4530
 X40.7296 Y32.2449
 X41.9863 Y31.8691
 X43.1829 Y31.3320
 X44.2990 Y30.6429
 X45.3152 Y29.8135
 X46.2141 Y28.8583
 X46.9802 Y27.7936
 X47.6002 Y26.6377
 X48.4648 Y24.3483
 X58.5000
 Y38.1181
 X58.3465 Y39.0873
 X57.8467 Y40.0682
 X57.0682 Y40.8467
G0 Z5.0000
M5 (stop spindle)
G04 P3 (wait for 3 seconds)
G0 Z5.0000
M2 (end program)
