;PYCAM-META-DATA: Filename: C:\Users\Felix\Desktop\Beep\Hardware\GetriebeB\frontcncld.stl
;PYCAM-META-DATA: Timestamp: 2013-06-04 07:27:20.067000
;PYCAM-META-DATA: Version: 0.5.1
;Estimated machine time: 7 minutes
G40 (disable tool radius compensation)
G49 (disable tool length compensation)
G80 (cancel modal motion)
G54 (select coordinate system 1)
G90 (disable incremental moves)
G21 (metric)
G61 (exact path mode)
F200.00000
S1000.00000
;PYCAM_TOOLPATH_SETTINGS: START
;[Bounds]
;maxz = 0.0
;maxx = 50.5
;maxy = 33.5
;minx = 1.5
;miny = 1.5
;minz = -4.0
;
;[Tool]
;torus_radius = 0.25
;speed = 1000.0
;shape = CylindricalCutter
;tool_radius = 1.5
;feedrate = 200.0
;
;[Process]
;generator = DropCutter
;pocketing_type = none
;engrave_offset = 0.0
;milling_style = ignore
;path_direction = x
;step_down = 3.0
;postprocessor = PathAccumulator
;overlap_percent = 60
;material_allowance = 0.0
;
;PYCAM_TOOLPATH_SETTINGS: END
T1 M6
G0 Z3.0000
M3 (start spindle)
G04 P3 (wait for 3 seconds)
 X1.5000 Y1.5000
G1 Z-2.0000
 X50.5000
 Y2.6852
 X1.5000
 Y3.8704
 X50.5000
 Y5.0556
 X47.5376
 X47.5372 Z-4.0000
 X46.4629
 X46.4622 Z-2.0000
 X5.5385
 X5.5371 Z-4.0000
 X4.4631
 X4.4617 Z-2.0000
 X1.5000
 Y6.2407
 X50.5000
 Y7.4259
 X1.5000
 Y8.6111
 X50.5000
 Y9.7963
 X1.5000
 Y10.9815
 X17.2099
 X17.5840 Z-1.9982
 X17.9580 Z-1.9938
 X18.3321 Z-1.9926
 X18.7061 Z-1.9921
 X19.0802 Z-1.9947
 X19.4542 Z-1.9980
 X19.8282 Z-2.0000
 X50.5000
 Y12.1667
 X22.4466
 X22.0725 Z-1.9834
 X21.6985 Z-1.9588
 X21.3244 Z-1.9090
 X20.9504 Z-1.8541
 X20.5763 Z-1.7861
 X20.2023 Z-1.7235
 X19.8282 Z-1.6554
 X19.4542 Z-1.5985
 X19.0802 Z-1.5568
 X18.7061 Z-1.5403
 X18.3321 Z-1.5389
 X17.9580 Z-1.5539
 X17.5840 Z-1.5941
 X17.2099 Z-1.6482
 X16.8359 Z-1.7183
 X16.4618 Z-1.7795
 X16.0878 Z-1.8460
 X15.7137 Z-1.9042
 X15.3397 Z-1.9530
 X14.9656 Z-1.9812
 X14.5916 Z-2.0000
 X1.5000
 Y13.3519
 X13.0954
 X13.4695 Z-1.9926
 X13.6565 Z-1.9794
 X13.7500 Z-1.9728
 X13.8435 Z-1.9629
 X14.0305 Z-1.9253
 X14.2176 Z-1.8888
 X14.5916 Z-1.7734
 X14.6851 Z-1.7417
 X14.7786 Z-1.7075
 X14.9656 Z-1.6210
 X15.3397 Z-1.4232
 X15.4332 Z-1.3659
 X15.6202 Z-1.2596
 X15.7137 Z-1.2500
 X21.3244
 X21.6985 Z-1.4487
 X21.8855 Z-1.5530
 X22.0725 Z-1.6384
 X22.1660 Z-1.6813
 X22.2128 Z-1.7034
 X22.2595 Z-1.7234
 X22.4466 Z-1.7864
 X22.6336 Z-1.8500
 X22.8206 Z-1.8963
 X23.0076 Z-1.9328
 X23.1011 Z-1.9515
 X23.1479 Z-1.9611
 X23.1947 Z-1.9690
 X23.5687 Z-1.9946
 X23.9427 Z-2.0000
 X50.5000
 Y14.5370
 X24.6908
 X24.3168 Z-1.9931
 X24.1298 Z-1.9781
 X24.0363 Z-1.9706
 X23.9427 Z-1.9532
 X23.7557 Z-1.9073
 X23.6622 Z-1.8846
 X23.5687 Z-1.8545
 X23.3817 Z-1.7787
 X23.2414 Z-1.7221
 X23.1947 Z-1.6957
 X22.8907 Z-1.5108
 X22.8791 Z-1.5016
 X22.8206 Z-1.4496
 X22.7271 Z-1.3673
 X22.6803 Z-1.3279
 X22.6570 Z-1.3087
 X22.6453 Z-1.2992
 X22.6394 Z-1.2945
 X22.6365 Z-1.2921
 X22.6350 Z-1.2909
 X22.6343 Z-1.2904
 X22.6336 Z-1.2898
 X22.6102 Z-1.2712
 X22.5839 Z-1.2502
 X22.5810 Z-1.2500
 X14.4165
 X14.4163 Z-1.2501
 X14.4046 Z-1.2595
 X14.3111 Z-1.3350
 X14.2643 Z-1.3747
 X14.2176 Z-1.4157
 X14.1240 Z-1.4989
 X14.0773 Z-1.5303
 X13.8435 Z-1.6725
 X13.6565 Z-1.7633
 X13.5630 Z-1.8010
 X13.5162 Z-1.8199
 X13.4695 Z-1.8389
 X13.2824 Z-1.8980
 X13.1889 Z-1.9208
 X13.0954 Z-1.9438
 X12.9084 Z-1.9750
 X12.7214 Z-1.9897
 X12.3473 Z-2.0000
 X1.5000
 Y15.7222
 X11.9733
 X12.1603 Z-1.9980
 X12.2538 Z-1.9898
 X12.3473 Z-1.9817
 X12.4408 Z-1.9737
 X12.4876 Z-1.9697
 X12.5344 Z-1.9609
 X12.7214 Z-1.9110
 X12.8149 Z-1.8862
 X12.9084 Z-1.8527
 X13.0019 Z-1.8098
 X13.0487 Z-1.7884
 X13.0954 Z-1.7671
 X13.1422 Z-1.7459
 X13.1656 Z-1.7353
 X13.1772 Z-1.7300
 X13.1831 Z-1.7274
 X13.1889 Z-1.7247
 X13.2357 Z-1.6963
 X13.2824 Z-1.6646
 X13.4695 Z-1.5379
 X13.5630 Z-1.4605
 X13.6565 Z-1.3705
 X13.7032 Z-1.3259
 X13.7832 Z-1.2501
 X13.7834 Z-1.2500
 X23.1947
 X23.3817 Z-1.4081
 X23.4284 Z-1.4529
 X23.4518 Z-1.4752
 X23.4752 Z-1.4974
 X23.5687 Z-1.5638
 X23.7090 Z-1.6588
 X23.7323 Z-1.6746
 X23.7557 Z-1.6905
 X23.8492 Z-1.7420
 X23.9427 Z-1.7845
 X24.0363 Z-1.8273
 X24.0830 Z-1.8488
 X24.1064 Z-1.8596
 X24.1181 Z-1.8649
 X24.1298 Z-1.8703
 X24.2233 Z-1.8963
 X24.4804 Z-1.9648
 X24.5038 Z-1.9690
 X24.6908 Z-1.9852
 X25.0649 Z-2.0000
 X50.5000
 Y16.9074
 X25.1584
 X25.0649 Z-1.9987
 X24.8779 Z-1.9817
 X24.7844 Z-1.9732
 X24.7610 Z-1.9711
 X24.7493 Z-1.9701
 X24.7434 Z-1.9696
 X24.7376 Z-1.9690
 X24.6908 Z-1.9584
 X24.5038 Z-1.9070
 X24.4571 Z-1.8942
 X24.4337 Z-1.8877
 X24.4220 Z-1.8845
 X24.4103 Z-1.8813
 X24.3168 Z-1.8428
 X24.2233 Z-1.7980
 X24.1765 Z-1.7757
 X24.1298 Z-1.7534
 X24.0830 Z-1.7310
 X24.0713 Z-1.7254
 X24.0655 Z-1.7227
 X24.0596 Z-1.7199
 X24.0363 Z-1.7039
 X23.9427 Z-1.6366
 X23.8492 Z-1.5694
 X23.8025 Z-1.5358
 X23.7791 Z-1.5190
 X23.7557 Z-1.4995
 X23.6622 Z-1.4036
 X23.6155 Z-1.3563
 X23.5921 Z-1.3328
 X23.5103 Z-1.2505
 X23.5044 Z-1.2500
 X13.4928
 X13.4695 Z-1.2709
 X13.3760 Z-1.3650
 X13.3292 Z-1.4124
 X13.3058 Z-1.4362
 X13.2824 Z-1.4602
 X13.2591 Z-1.4842
 X13.2474 Z-1.4963
 X13.2415 Z-1.5024
 X13.2386 Z-1.5054
 X13.2371 Z-1.5069
 X13.2357 Z-1.5083
 X13.2123 Z-1.5251
 X13.1889 Z-1.5419
 X13.0954 Z-1.6092
 X13.0019 Z-1.6765
 X12.9785 Z-1.6933
 X12.9668 Z-1.7017
 X12.9610 Z-1.7059
 X12.9552 Z-1.7101
 X12.9084 Z-1.7351
 X12.8149 Z-1.7798
 X12.7681 Z-1.8022
 X12.7214 Z-1.8245
 X12.6746 Z-1.8469
 X12.6512 Z-1.8581
 X12.6396 Z-1.8637
 X12.6337 Z-1.8665
 X12.6279 Z-1.8692
 X12.5811 Z-1.8837
 X12.5344 Z-1.8965
 X12.4408 Z-1.9222
 X12.3941 Z-1.9350
 X12.3707 Z-1.9415
 X12.3473 Z-1.9479
 X12.1603 Z-1.9784
 X11.9733 Z-1.9954
 X11.5992 Z-2.0000
 X1.5000
 Y18.0926
 X11.8798
 X11.9733 Z-1.9954
 X12.2538 Z-1.9699
 X12.3473 Z-1.9479
 X12.4408 Z-1.9222
 X12.4876 Z-1.9094
 X12.5344 Z-1.8965
 X12.5811 Z-1.8837
 X12.6045 Z-1.8773
 X12.6147 Z-1.8745
 X12.6162 Z-1.8741
 X12.6279 Z-1.8692
 X12.7214 Z-1.8245
 X12.8149 Z-1.7798
 X12.8616 Z-1.7575
 X12.8850 Z-1.7463
 X12.9084 Z-1.7351
 X13.0019 Z-1.6765
 X13.0954 Z-1.6092
 X13.1889 Z-1.5419
 X13.2123 Z-1.5251
 X13.2240 Z-1.5167
 X13.2298 Z-1.5125
 X13.2357 Z-1.5083
 X13.2824 Z-1.4602
 X13.3760 Z-1.3650
 X13.4227 Z-1.3179
 X13.4695 Z-1.2709
 X13.8435 Z-1.2500
 X23.5095
 X23.5099 Z-1.2501
 X23.5687 Z-1.3093
 X23.6622 Z-1.4036
 X23.7090 Z-1.4514
 X23.7323 Z-1.4754
 X23.7440 Z-1.4874
 X23.7557 Z-1.4995
 X23.8492 Z-1.5694
 X23.8960 Z-1.6030
 X23.9427 Z-1.6366
 X23.9895 Z-1.6703
 X24.0129 Z-1.6871
 X24.0246 Z-1.6955
 X24.0363 Z-1.7039
 X24.0830 Z-1.7310
 X24.1298 Z-1.7534
 X24.2233 Z-1.7980
 X24.2700 Z-1.8204
 X24.2934 Z-1.8316
 X24.3168 Z-1.8428
 X24.5038 Z-1.9070
 X24.5973 Z-1.9327
 X24.6441 Z-1.9455
 X24.6675 Z-1.9520
 X24.6908 Z-1.9584
 X24.8779 Z-1.9817
 X25.0649 Z-1.9987
 X25.4389 Z-2.0000
 X50.5000
 Y19.2778
 X24.8779
 X24.6908 Z-1.9852
 X24.5038 Z-1.9690
 X24.4103 Z-1.9461
 X24.2233 Z-1.8963
 X24.1765 Z-1.8839
 X24.1531 Z-1.8777
 X24.1298 Z-1.8703
 X24.0363 Z-1.8273
 X23.9427 Z-1.7845
 X23.8492 Z-1.7420
 X23.7557 Z-1.6905
 X23.6622 Z-1.6271
 X23.5687 Z-1.5638
 X23.3817 Z-1.4072
 X23.3349 Z-1.3623
 X23.3115 Z-1.3399
 X23.2180 Z-1.2513
 X23.1947 Z-1.2500
 X13.7836
 X13.7829 Z-1.2505
 X13.5630 Z-1.4612
 X13.5396 Z-1.4834
 X13.5162 Z-1.5055
 X13.4695 Z-1.5379
 X13.3760 Z-1.6013
 X13.2824 Z-1.6646
 X13.2357 Z-1.6963
 X13.2240 Z-1.7043
 X13.2182 Z-1.7082
 X13.2123 Z-1.7122
 X13.1889 Z-1.7247
 X13.0954 Z-1.7671
 X13.0019 Z-1.8098
 X12.9552 Z-1.8312
 X12.9318 Z-1.8420
 X12.9084 Z-1.8527
 X12.8149 Z-1.8862
 X12.7214 Z-1.9110
 X12.5344 Z-1.9609
 X12.3473 Z-1.9817
 X11.9733 Z-2.0000
 X1.5000
 Y20.4630
 X12.5344
 X12.7214 Z-1.9897
 X12.9902 Z-1.9685
 X13.0019 Z-1.9668
 X13.0954 Z-1.9438
 X13.2824 Z-1.8980
 X13.3292 Z-1.8867
 X13.3526 Z-1.8811
 X13.3643 Z-1.8783
 X13.3760 Z-1.8755
 X13.4695 Z-1.8389
 X13.6565 Z-1.7633
 X13.7500 Z-1.7256
 X13.8435 Z-1.6725
 X14.1007 Z-1.5160
 X14.1240 Z-1.4989
 X14.2176 Z-1.4157
 X14.3111 Z-1.3350
 X14.3578 Z-1.2967
 X14.3812 Z-1.2780
 X14.4046 Z-1.2594
 X14.5916 Z-1.2500
 X22.5835
 X22.5839 Z-1.2502
 X22.5868 Z-1.2526
 X22.6336 Z-1.2898
 X22.7271 Z-1.3673
 X22.7739 Z-1.4081
 X22.7972 Z-1.4288
 X22.8206 Z-1.4496
 X23.0076 Z-1.5819
 X23.1947 Z-1.6957
 X23.3817 Z-1.7787
 X23.4752 Z-1.8164
 X23.5219 Z-1.8354
 X23.5687 Z-1.8545
 X23.7557 Z-1.9073
 X23.8492 Z-1.9302
 X23.9427 Z-1.9532
 X24.3168 Z-1.9931
 X24.6908 Z-2.0000
 X50.5000
 Y21.6481
 X23.9427
 X23.5687 Z-1.9946
 X23.3817 Z-1.9818
 X23.2882 Z-1.9754
 X23.2414 Z-1.9722
 X23.1947 Z-1.9690
 X23.0076 Z-1.9328
 X22.8206 Z-1.8963
 X22.6336 Z-1.8500
 X22.3531 Z-1.7546
 X22.3063 Z-1.7388
 X22.2595 Z-1.7234
 X22.0725 Z-1.6384
 X21.6985 Z-1.4487
 X21.6050 Z-1.3882
 X21.5582 Z-1.3610
 X21.3712 Z-1.2547
 X21.3244 Z-1.2500
 X15.7137
 X15.3397 Z-1.4232
 X15.2462 Z-1.4857
 X15.2228 Z-1.5014
 X15.1994 Z-1.5142
 X14.9656 Z-1.6210
 X14.5916 Z-1.7734
 X14.4046 Z-1.8370
 X14.2176 Z-1.8888
 X14.0305 Z-1.9253
 X13.9370 Z-1.9438
 X13.8903 Z-1.9533
 X13.8435 Z-1.9629
 X13.4695 Z-1.9926
 X13.0954 Z-2.0000
 X1.5000
 Y22.8333
 X14.5916
 X14.9656 Z-1.9812
 X15.3397 Z-1.9530
 X15.7137 Z-1.9042
 X16.0878 Z-1.8460
 X16.4618 Z-1.7795
 X16.8359 Z-1.7183
 X17.2099 Z-1.6482
 X17.5840 Z-1.5941
 X17.9580 Z-1.5539
 X18.3321 Z-1.5389
 X18.7061 Z-1.5403
 X19.0802 Z-1.5568
 X19.4542 Z-1.5985
 X19.8282 Z-1.6554
 X20.2023 Z-1.7235
 X20.5763 Z-1.7861
 X20.9504 Z-1.8541
 X21.3244 Z-1.9090
 X21.6985 Z-1.9588
 X22.0725 Z-1.9834
 X22.4466 Z-2.0000
 X50.5000
 Y24.0185
 X19.8282
 X19.4542 Z-1.9980
 X19.0802 Z-1.9947
 X18.7061 Z-1.9921
 X18.3321 Z-1.9926
 X17.9580 Z-1.9938
 X17.5840 Z-1.9982
 X17.2099 Z-2.0000
 X1.5000
 Y25.2037
 X50.5000
 Y26.3889
 X1.5000
 Y27.5741
 X50.5000
 Y28.7593
 X1.5000
 Y29.9444
 X4.4624
 X4.4628 Z-4.0000
 X5.5371
 X5.5378 Z-2.0000
 X46.4615
 X46.4629 Z-4.0000
 X47.5369
 X47.5383 Z-2.0000
 X50.5000
 Y31.1296
 X1.5000
 Y32.3148
 X50.5000
 Y33.5000
 X1.5000
G0 Z3.0000
M5 (stop spindle)
G04 P3 (wait for 3 seconds)
G0 Z3.0000
M2 (end program)
