;PYCAM-META-DATA: Filename: C:\Users\Felix\Desktop\Beep\Hardware\GetriebeB\frontcncld.stl
;PYCAM-META-DATA: Timestamp: 2013-06-04 07:26:37.940000
;PYCAM-META-DATA: Version: 0.5.1
;Estimated machine time: 3 minutes
G40 (disable tool radius compensation)
G49 (disable tool length compensation)
G80 (cancel modal motion)
G54 (select coordinate system 1)
G90 (disable incremental moves)
G21 (metric)
G61 (exact path mode)
F200.00000
S1000.00000
;PYCAM_TOOLPATH_SETTINGS: START
;[Bounds]
;maxz = 0.0
;maxx = 50.5
;maxy = 33.5
;minx = 1.5
;miny = 1.5
;minz = -4.0
;
;[Tool]
;torus_radius = 0.25
;speed = 1000.0
;shape = CylindricalCutter
;tool_radius = 1.5
;feedrate = 200.0
;
;[Process]
;generator = PushCutter
;pocketing_type = none
;engrave_offset = 0.0
;milling_style = ignore
;path_direction = x
;step_down = 3.0
;postprocessor = SimpleCutter
;overlap_percent = 0
;material_allowance = 0.5
;
;PYCAM_TOOLPATH_SETTINGS: END
T1 M6
G0 Z3.0000
M3 (start spindle)
G04 P3 (wait for 3 seconds)
 X1.5000 Y1.5000
G1 Z0.0000
 X50.5000
 Y4.4091
 X1.5000
 Y7.3182
 X50.5000
 Y10.2273
 X1.5000
 Y13.1364
 X50.5000
 Y16.0455
 X1.5000
 Y18.9545
 X50.5000
 Y21.8636
 X1.5000
 Y24.7727
 X50.5000
 Y27.6818
 X1.5000
 Y30.5909
 X50.5000
 Y33.5000
 X1.5000
G0 Z3.0000
M5 (stop spindle)
G04 P3 (wait for 3 seconds)
G0 Z3.0000
M2 (end program)
