;PYCAM-META-DATA: Filename: C:\Users\Felix\Desktop\Beep\Hardware\GetriebeB\frontcncld.stl
;PYCAM-META-DATA: Timestamp: 2013-06-04 07:28:03.223000
;PYCAM-META-DATA: Version: 0.5.1
;Estimated machine time: 23 minutes
G40 (disable tool radius compensation)
G49 (disable tool length compensation)
G80 (cancel modal motion)
G54 (select coordinate system 1)
G90 (disable incremental moves)
G21 (metric)
G61 (exact path mode)
F200.00000
S1000.00000
;PYCAM_TOOLPATH_SETTINGS: START
;[Bounds]
;maxz = 0.0
;maxx = 50.5
;maxy = 33.5
;minx = 1.5
;miny = 1.5
;minz = -4.0
;
;[Tool]
;torus_radius = 0.25
;speed = 1000.0
;shape = CylindricalCutter
;tool_radius = 1.5
;feedrate = 200.0
;
;[Process]
;generator = PushCutter
;pocketing_type = none
;engrave_offset = 0.0
;milling_style = ignore
;path_direction = x
;step_down = 3.0
;postprocessor = SimpleCutter
;overlap_percent = 0
;material_allowance = 0.5
;
;PYCAM_TOOLPATH_SETTINGS: END
T1 M6
G0 Z3.0000
M3 (start spindle)
G04 P3 (wait for 3 seconds)
 X1.5000 Y1.5000
G1 Z0.0000
 X50.5000
 Y4.4091
 X1.5000
 Y7.3182
 X50.5000
 Y10.2273
 X1.5000
 Y13.1364
 X50.5000
 Y16.0455
 X1.5000
 Y18.9545
 X50.5000
 Y21.8636
 X1.5000
 Y24.7727
 X50.5000
 Y27.6818
 X1.5000
 Y30.5909
 X50.5000
 Y33.5000
 X1.5000
G0 Z3.0000
M5 (stop spindle)
G04 P3 (wait for 3 seconds)
F200.00000
S1000.00000
;PYCAM_TOOLPATH_SETTINGS: START
;[Bounds]
;maxz = 0.0
;maxx = 50.5
;maxy = 33.5
;minx = 1.5
;miny = 1.5
;minz = -4.0
;
;[Tool]
;torus_radius = 0.25
;speed = 1000.0
;shape = CylindricalCutter
;tool_radius = 1.5
;feedrate = 200.0
;
;[Process]
;generator = ContourFollow
;pocketing_type = none
;engrave_offset = 0.0
;milling_style = conventional
;path_direction = x
;step_down = 1.5
;postprocessor = SimpleCutter
;overlap_percent = 0
;material_allowance = 0.0
;
;PYCAM_TOOLPATH_SETTINGS: END
G0 Z3.0000
M3 (start spindle)
G04 P3 (wait for 3 seconds)
 X18.5365 Y17.5176
G1 Z-1.3333
 X18.5395 Y17.5089
 X18.5405 Y17.5001
 X18.5395 Y17.4909
 X18.5175 Y17.5365
 X18.5253 Y17.5317
 X18.5317 Y17.5252
 X18.4999 Y17.5405
 X18.5091 Y17.5395
 X18.4824 Y17.5365
 X18.4911 Y17.5395
 X18.4635 Y17.5175
 X18.4683 Y17.5253
 X18.4748 Y17.5317
 X18.5365 Y17.4825
 X18.5317 Y17.4747
 X18.5252 Y17.4683
 X18.4635 Y17.4824
 X18.4605 Y17.4911
 X18.4595 Y17.4999
 X18.4605 Y17.5091
 X18.4825 Y17.4635
 X18.4747 Y17.4683
 X18.4683 Y17.4748
 X18.5091 Y17.4605
 X18.4999 Y17.4595
G0 Z3.0000
 X22.1234 Y21.1267
G1 Z-1.3333
 X21.8024 Y21.4245
 X21.6155 Y21.5759
 X21.2536 Y21.8226
 X21.0660 Y21.9445
 X20.8666 Y22.0461
 X20.4721 Y22.2360
 X20.2475 Y22.3223
 X19.8291 Y22.4513
 X19.6021 Y22.5121
 X19.3924 Y22.5454
 X18.9592 Y22.6107
 X18.7190 Y22.6232
 X18.2810
 X18.0352 Y22.6104
 X17.8362 Y22.5788
 X17.4033 Y22.5136
 X17.1709 Y22.4513
 X16.7525 Y22.3223
 X16.5279 Y22.2360
 X16.1334 Y22.0461
 X15.9340 Y21.9445
 X15.7464 Y21.8226
 X15.3845 Y21.5759
 X15.1976 Y21.4245
 X14.8766 Y21.1267
 X14.7104 Y20.9605
 X14.5768 Y20.7956
 X14.3036 Y20.4530
 X14.1726 Y20.2512
 X13.9537 Y19.8720
 X13.8419 Y19.6526
 X13.7698 Y19.4649
 X13.6097 Y19.0570
 X13.5475 Y18.8246
 X13.4500 Y18.3977
 X13.4124 Y18.1601
 X13.3797 Y17.7234
 X13.3680 Y17.5000
 X13.3797 Y17.2766
 X13.4124 Y16.8399
 X13.4500 Y16.6023
 X13.5475 Y16.1754
 X13.6083 Y15.9484
 X13.6845 Y15.7500
 X13.8444 Y15.3424
 X13.9537 Y15.1280
 X14.1726 Y14.7488
 X14.3067 Y14.5423
 X14.4333 Y14.3860
 X14.7065 Y14.0434
 X14.8766 Y13.8733
 X15.1976 Y13.5755
 X15.3845 Y13.4241
 X15.7464 Y13.1774
 X15.9340 Y13.0555
 X16.1334 Y12.9539
 X16.5279 Y12.7640
 X16.7525 Y12.6777
 X17.1709 Y12.5487
 X17.3979 Y12.4879
 X17.6076 Y12.4546
 X18.0408 Y12.3893
 X18.2810 Y12.3768
 X18.7190
 X18.9648 Y12.3896
 X19.1638 Y12.4212
 X19.5967 Y12.4864
 X19.8291 Y12.5487
 X20.2475 Y12.6777
 X20.4721 Y12.7640
 X20.8666 Y12.9539
 X21.0660 Y13.0555
 X21.2536 Y13.1774
 X21.6155 Y13.4241
 X21.8024 Y13.5755
 X22.1234 Y13.8733
 X22.2896 Y14.0395
 X22.4232 Y14.2044
 X22.6964 Y14.5470
 X22.8274 Y14.7488
 X23.0463 Y15.1280
 X23.1581 Y15.3474
 X23.2302 Y15.5351
 X23.3903 Y15.9430
 X23.4525 Y16.1754
 X23.5500 Y16.6023
 X23.5876 Y16.8399
 X23.6203 Y17.2766
 X23.6320 Y17.5000
 X23.6203 Y17.7234
 X23.5876 Y18.1601
 X23.5500 Y18.3977
 X23.4525 Y18.8246
 X23.3917 Y19.0516
 X23.3155 Y19.2500
 X23.1556 Y19.6576
 X23.0463 Y19.8720
 X22.8274 Y20.2512
 X22.6933 Y20.4577
 X22.5667 Y20.6140
 X22.2935 Y20.9566
 X22.1234 Y21.1267
G0 Z3.0000
 X47.3837 Y30.3838
G1 Z-2.6667
 X47.4513 Y30.3015
 X47.5014 Y30.2077
 X47.5323 Y30.1059
 X47.5427 Y30.0000
 X47.5323 Y29.8940
 Y29.8942
 X47.5014 Y29.7922
 X47.1058 Y30.5323
 X47.2077 Y30.5014
 X47.3015 Y30.4513
 X47.3838 Y30.3837
 X46.7922 Y30.5014
 X46.8941 Y30.5323
 X47.0000 Y30.5427
 X47.1060 Y30.5323
 X46.6162 Y30.3837
 X46.6985 Y30.4513
 X46.7924 Y30.5014
 X46.4985 Y30.2076
 X46.5487 Y30.3015
 X46.6163 Y30.3838
 X46.4677 Y30.1058
 X46.4986 Y30.2078
 Y29.7922
 X46.4677 Y29.8941
 X46.4573 Y30.0000
 X46.4677 Y30.1060
 X47.5015 Y29.7924
 X47.4512 Y29.6984
 X47.4513 Y29.6985
 X47.3837 Y29.6162
 X47.3838 Y29.6163
 X47.3015 Y29.5487
 X47.2076 Y29.4986
 X47.2078
 X47.1059 Y29.4677
 X46.9999 Y29.4573
 X47.0001
 X46.8941 Y29.4677
 X46.7923 Y29.4986
 X46.6985 Y29.5487
 X46.6162 Y29.6163
 X46.6163 Y29.6162
 X46.5487 Y29.6985
 X46.4985 Y29.7924
G0 Z3.0000
 X33.4909 Y17.5395
G1 Z-2.6667
 X33.5000 Y17.5405
 X33.5091 Y17.5395
 X33.5089
 X33.5176 Y17.5365
 X33.5253 Y17.5316
 X33.4747
 X33.4824 Y17.5365
 X33.4911 Y17.5395
G0 Z3.0000
 X46.9999 Y5.5427
G1 Z-2.6667
 X47.1059 Y5.5323
 X47.2078 Y5.5014
 X46.7922
 X46.8941 Y5.5323
 X47.0001 Y5.5427
 X47.2076 Y5.5015
 X47.3015 Y5.4513
 X47.3838 Y5.3838
 X47.4513 Y5.3015
 X47.5014 Y5.2077
 X47.5323 Y5.1059
 X47.5427 Y5.0000
 X47.5323 Y4.8940
 Y4.8942
 X47.5014 Y4.7923
 X47.4512 Y4.6984
 X47.4513 Y4.6985
 X47.3837 Y4.6162
 X47.3838 Y4.6163
 X47.3015 Y4.5487
 X47.3016 Y4.5488
 X47.2076 Y4.4985
 X47.2078 Y4.4986
 X47.1059 Y4.4677
 X46.9999 Y4.4573
 X47.0001
 X46.8941 Y4.4677
 X46.7922 Y4.4986
G0 Z3.0000
 X33.5252 Y17.5317
G1 Z-2.6667
 X33.5317 Y17.5253
 X33.5365 Y17.5175
 Y17.5176
 X33.5395 Y17.5090
 X33.5405 Y17.4999
 Y17.5001
 X33.5395 Y17.4910
 X33.5365 Y17.4824
 X33.5317 Y17.4747
 X33.5252 Y17.4683
 X33.4635 Y17.5175
 X33.4683 Y17.5253
 X33.4748 Y17.5317
 X33.4605 Y17.5089
 X33.4635 Y17.5176
 X33.4605 Y17.4909
 X33.4595 Y17.5000
 X33.4605 Y17.5091
 X33.4635 Y17.4824
 X33.4605 Y17.4911
 X33.5253 Y17.4684
 X33.5176 Y17.4635
 X33.5090 Y17.4605
 X33.5000 Y17.4595
 X33.4910 Y17.4605
 X33.4824 Y17.4635
 X33.4748 Y17.4683
 X33.4683 Y17.4747
 X33.4635 Y17.4825
 X33.4825 Y17.4635
 X33.4747 Y17.4684
G0 Z3.0000
 X46.6984 Y5.4512
G1 Z-2.6667
 X46.7924 Y5.5015
 X46.6162 Y5.3837
 X46.6985 Y5.4513
 X46.4985 Y5.2076
 X46.5487 Y5.3015
 X46.6163 Y5.3838
 X46.4677 Y5.1058
 X46.4986 Y5.2078
 X46.7924 Y4.4985
 X46.6985 Y4.5487
 X46.6162 Y4.6162
 X46.5487 Y4.6985
 X46.4985 Y4.7924
 X46.4986 Y4.7922
 X46.4677 Y4.8941
 X46.4573 Y5.0000
 X46.4677 Y5.1060
G0 Z3.0000
 X18.5395 Y17.5091
G1 Z-2.6667
 X18.5405 Y17.4999
 X18.5395 Y17.4911
 X18.5365 Y17.4824
G0 Z3.0000
 X5.5427 Y30.0001
G1 Z-2.6667
 X5.5323 Y29.8941
 X5.5014 Y29.7922
 X5.3837 Y30.3838
 X5.4513 Y30.3015
 X5.5014 Y30.2077
 X5.5323 Y30.1059
 X5.5427 Y29.9999
 X5.5015 Y29.7924
 X5.4512 Y29.6984
 X5.2076 Y30.5015
 X5.3015 Y30.4513
 X5.3838 Y30.3837
 X5.4513 Y29.6985
 X5.3837 Y29.6162
 X5.3838 Y29.6163
 X5.3015 Y29.5487
 X5.2076 Y29.4985
 X5.1058 Y30.5323
 X5.2078 Y30.5014
 X4.7922
 X4.8941 Y30.5323
 X5.0000 Y30.5427
 X5.1060 Y30.5323
 X4.6162 Y30.3837
 X4.6985 Y30.4513
 X4.7924 Y30.5015
 X4.5487 Y30.3015
 X4.6163 Y30.3838
 X4.4985 Y30.2076
 X4.5488 Y30.3016
 X5.2078 Y29.4986
 X5.1059 Y29.4677
 X5.0000 Y29.4573
 X4.8941 Y29.4677
 X4.7922 Y29.4986
 X4.4677 Y30.1058
 X4.4986 Y30.2078
 X4.7924 Y29.4985
 X4.6985 Y29.5487
 X4.6162 Y29.6163
 X4.6163 Y29.6162
 X4.5487 Y29.6985
 X4.4986 Y29.7923
 X4.4677 Y29.8941
 X4.4573 Y30.0000
 X4.4677 Y30.1060
G0 Z3.0000
 X18.5252 Y17.5317
G1 Z-2.6667
 X18.5317 Y17.5253
 X18.5365 Y17.5175
 X18.5089 Y17.5395
 X18.5176 Y17.5365
 X18.4909 Y17.5395
 X18.5001 Y17.5405
 X18.4683 Y17.5252
 X18.4747 Y17.5317
 X18.4825 Y17.5365
 X18.4605 Y17.5089
 X18.4635 Y17.5176
 X18.4748 Y17.4683
 X18.4683 Y17.4747
 X18.4635 Y17.4825
 X18.4605 Y17.4909
 X18.4595 Y17.5001
 X18.5317 Y17.4748
 X18.5253 Y17.4683
 X18.5175 Y17.4635
 X18.5091 Y17.4605
 X18.4999 Y17.4595
G0 Z3.0000
 X5.3015 Y5.4513
G1 Z-2.6667
 X5.3838 Y5.3837
 X5.2076 Y5.5015
 X5.3016 Y5.4512
 X4.9999 Y5.5427
 X5.1059 Y5.5323
 X5.2078 Y5.5014
 X4.6984 Y5.4512
 X4.7923 Y5.5014
 X4.8941 Y5.5323
 X5.0001 Y5.5427
 X4.5487 Y5.3015
 X4.6162 Y5.3838
 X4.6985 Y5.4513
 X5.3837 Y5.3838
 X5.4513 Y5.3015
 X5.5014 Y5.2077
 X5.5323 Y5.1059
 X5.5427 Y4.9999
 Y5.0001
 X5.5323 Y4.8941
 X5.5014 Y4.7922
 X5.5015 Y4.7924
 X5.4512 Y4.6984
 X5.4513 Y4.6985
 X5.3837 Y4.6162
 X4.8942 Y4.4677
 X4.7922 Y4.4986
 X5.3838 Y4.6163
 X5.3015 Y4.5487
 X5.2077 Y4.4986
 X5.1059 Y4.4677
 X5.0000 Y4.4573
 X4.8940 Y4.4677
 X4.7924 Y4.4985
 X4.6985 Y4.5487
 X4.6162 Y4.6162
 X4.5487 Y4.6985
 X4.4677 Y5.1058
 X4.4986 Y5.2077
 X4.5488 Y5.3016
 X4.4677 Y4.8941
 X4.4573 Y5.0000
 X4.4677 Y5.1060
 X4.4986 Y4.7922
 X4.4677 Y4.8942
G0 Z3.0000
 X47.5323 Y30.1059
G1 Z-4.0000
 X47.5427 Y30.0000
 X47.5323 Y29.8941
 X47.5014 Y29.7923
 X47.4513 Y29.6985
 X47.3838 Y29.6162
 X47.3015 Y29.5487
 X47.2077 Y29.4986
 X47.1059 Y29.4677
 X47.0000 Y29.4573
 X46.8941 Y29.4677
 X46.7923 Y29.4986
 X46.6985 Y29.5487
 X46.6162 Y29.6162
 X46.5487 Y29.6985
 X46.4986 Y29.7923
 X46.4677 Y29.8941
 X46.4573 Y30.0000
 X46.4677 Y30.1059
 X46.4986 Y30.2077
 X46.5487 Y30.3015
 X46.6162 Y30.3838
 X46.6985 Y30.4513
 X46.7923 Y30.5014
 X46.8941 Y30.5323
 X47.0000 Y30.5427
 X47.1059 Y30.5323
 X47.2077 Y30.5014
 X47.3015 Y30.4513
 X47.3838 Y30.3838
 X47.4513 Y30.3015
 X47.5014 Y30.2077
 X47.5323 Y30.1059
G0 Z3.0000
 X33.5176 Y17.5365
G1 Z-4.0000
 X33.5253 Y17.5317
 X33.5317 Y17.5253
 X33.5365 Y17.5176
 X33.5395 Y17.5090
 X33.5405 Y17.5000
 X33.5395 Y17.4910
 X33.5365 Y17.4824
 X33.5317 Y17.4747
 X33.5253 Y17.4683
 X33.5176 Y17.4635
 X33.5090 Y17.4605
 X33.5000 Y17.4595
 X33.4910 Y17.4605
 X33.4824 Y17.4635
 X33.4747 Y17.4683
 X33.4683 Y17.4747
 X33.4635 Y17.4824
 X33.4605 Y17.4910
 X33.4595 Y17.5000
 X33.4605 Y17.5090
 X33.4635 Y17.5176
 X33.4683 Y17.5253
 X33.4747 Y17.5317
 X33.4824 Y17.5365
 X33.4910 Y17.5395
 X33.5000 Y17.5405
 X33.5090 Y17.5395
 X33.5176 Y17.5365
G0 Z3.0000
 X47.3838 Y5.3838
G1 Z-4.0000
 X47.4513 Y5.3015
 X47.5014 Y5.2077
 X47.5323 Y5.1059
 X47.5427 Y5.0000
 X47.5323 Y4.8941
 X47.5014 Y4.7923
 X47.4513 Y4.6985
 X47.3838 Y4.6162
 X47.3015 Y4.5487
 X47.2077 Y4.4986
 X47.1059 Y4.4677
 X47.0000 Y4.4573
 X46.8941 Y4.4677
 X46.7923 Y4.4986
 X46.6985 Y4.5487
 X46.6162 Y4.6162
 X46.5487 Y4.6985
 X46.4986 Y4.7923
 X46.4677 Y4.8941
 X46.4573 Y5.0000
 X46.4677 Y5.1059
 X46.4986 Y5.2077
 X46.5487 Y5.3015
 X46.6162 Y5.3838
 X46.6985 Y5.4513
 X46.7923 Y5.5014
 X46.8941 Y5.5323
 X47.0000 Y5.5427
 X47.1059 Y5.5323
 X47.2077 Y5.5014
 X47.3015 Y5.4513
 X47.3838 Y5.3838
G0 Z3.0000
 X5.5323 Y30.1059
G1 Z-4.0000
 X5.5427 Y30.0000
 X5.5323 Y29.8941
 X5.5014 Y29.7923
 X5.4513 Y29.6985
 X5.3838 Y29.6162
 X5.3015 Y29.5487
 X5.2077 Y29.4986
 X5.1059 Y29.4677
 X5.0000 Y29.4573
 X4.8941 Y29.4677
 X4.7923 Y29.4986
 X4.6985 Y29.5487
 X4.6162 Y29.6162
 X4.5487 Y29.6985
 X4.4986 Y29.7923
 X4.4677 Y29.8941
 X4.4573 Y30.0000
 X4.4677 Y30.1059
 X4.4986 Y30.2077
 X4.5487 Y30.3015
 X4.6162 Y30.3838
 X4.6985 Y30.4513
 X4.7923 Y30.5014
 X4.8941 Y30.5323
 X5.0000 Y30.5427
 X5.1059 Y30.5323
 X5.2077 Y30.5014
 X5.3015 Y30.4513
 X5.3838 Y30.3838
 X5.4513 Y30.3015
 X5.5014 Y30.2077
 X5.5323 Y30.1059
G0 Z3.0000
 X18.5405 Y17.5000
G1 Z-4.0000
 X18.5395 Y17.4910
 X18.5365 Y17.4824
 X18.5317 Y17.4747
 X18.5253 Y17.4683
 X18.5176 Y17.4635
 X18.5090 Y17.4605
 X18.5000 Y17.4595
 X18.4910 Y17.4605
 X18.4824 Y17.4635
 X18.4747 Y17.4683
 X18.4683 Y17.4747
 X18.4635 Y17.4824
 X18.4605 Y17.4910
 X18.4595 Y17.5000
 X18.4605 Y17.5090
 X18.4635 Y17.5176
 X18.4683 Y17.5253
 X18.4747 Y17.5317
 X18.4824 Y17.5365
 X18.4910 Y17.5395
 X18.5000 Y17.5405
 X18.5090 Y17.5395
 X18.5176 Y17.5365
 X18.5253 Y17.5317
 X18.5317 Y17.5253
 X18.5365 Y17.5176
 X18.5395 Y17.5090
 X18.5405 Y17.5000
G0 Z3.0000
 X5.5014 Y5.2077
G1 Z-4.0000
 X5.5323 Y5.1059
 X5.5427 Y5.0000
 X5.5323 Y4.8941
 X5.5014 Y4.7923
 X5.4513 Y4.6985
 X5.3838 Y4.6162
 X5.3015 Y4.5487
 X5.2077 Y4.4986
 X5.1059 Y4.4677
 X5.0000 Y4.4573
 X4.8941 Y4.4677
 X4.7923 Y4.4986
 X4.6985 Y4.5487
 X4.6162 Y4.6162
 X4.5487 Y4.6985
 X4.4986 Y4.7923
 X4.4677 Y4.8941
 X4.4573 Y5.0000
 X4.4677 Y5.1059
 X4.4986 Y5.2077
 X4.5487 Y5.3015
 X4.6162 Y5.3838
 X4.6985 Y5.4513
 X4.7923 Y5.5014
 X4.8941 Y5.5323
 X5.0000 Y5.5427
 X5.1059 Y5.5323
 X5.2077 Y5.5014
 X5.3015 Y5.4513
 X5.3838 Y5.3838
 X5.4513 Y5.3015
 X5.5014 Y5.2077
G0 Z3.0000
M5 (stop spindle)
G04 P3 (wait for 3 seconds)
F200.00000
S1000.00000
;PYCAM_TOOLPATH_SETTINGS: START
;[Bounds]
;maxz = 0.0
;maxx = 50.5
;maxy = 33.5
;minx = 1.5
;miny = 1.5
;minz = -4.0
;
;[Tool]
;torus_radius = 0.25
;speed = 1000.0
;shape = CylindricalCutter
;tool_radius = 1.5
;feedrate = 200.0
;
;[Process]
;generator = DropCutter
;pocketing_type = none
;engrave_offset = 0.0
;milling_style = ignore
;path_direction = x
;step_down = 3.0
;postprocessor = PathAccumulator
;overlap_percent = 60
;material_allowance = 0.0
;
;PYCAM_TOOLPATH_SETTINGS: END
G0 Z3.0000
M3 (start spindle)
G04 P3 (wait for 3 seconds)
 X1.5000 Y1.5000
G1 Z-2.0000
 X50.5000
 Y2.6852
 X1.5000
 Y3.8704
 X50.5000
 Y5.0556
 X47.5376
 X47.5372 Z-4.0000
 X46.4629
 X46.4622 Z-2.0000
 X5.5385
 X5.5371 Z-4.0000
 X4.4631
 X4.4617 Z-2.0000
 X1.5000
 Y6.2407
 X50.5000
 Y7.4259
 X1.5000
 Y8.6111
 X50.5000
 Y9.7963
 X1.5000
 Y10.9815
 X17.2099
 X17.5840 Z-1.9982
 X17.9580 Z-1.9938
 X18.3321 Z-1.9926
 X18.7061 Z-1.9921
 X19.0802 Z-1.9947
 X19.4542 Z-1.9980
 X19.8282 Z-2.0000
 X50.5000
 Y12.1667
 X22.4466
 X22.0725 Z-1.9834
 X21.6985 Z-1.9588
 X21.3244 Z-1.9090
 X20.9504 Z-1.8541
 X20.5763 Z-1.7861
 X20.2023 Z-1.7235
 X19.8282 Z-1.6554
 X19.4542 Z-1.5985
 X19.0802 Z-1.5568
 X18.7061 Z-1.5403
 X18.3321 Z-1.5389
 X17.9580 Z-1.5539
 X17.5840 Z-1.5941
 X17.2099 Z-1.6482
 X16.8359 Z-1.7183
 X16.4618 Z-1.7795
 X16.0878 Z-1.8460
 X15.7137 Z-1.9042
 X15.3397 Z-1.9530
 X14.9656 Z-1.9812
 X14.5916 Z-2.0000
 X1.5000
 Y13.3519
 X13.0954
 X13.4695 Z-1.9926
 X13.6565 Z-1.9794
 X13.7500 Z-1.9728
 X13.8435 Z-1.9629
 X14.0305 Z-1.9253
 X14.2176 Z-1.8888
 X14.5916 Z-1.7734
 X14.6851 Z-1.7417
 X14.7786 Z-1.7075
 X14.9656 Z-1.6210
 X15.3397 Z-1.4232
 X15.4332 Z-1.3659
 X15.6202 Z-1.2596
 X15.7137 Z-1.2500
 X21.3244
 X21.6985 Z-1.4487
 X21.8855 Z-1.5530
 X22.0725 Z-1.6384
 X22.1660 Z-1.6813
 X22.2128 Z-1.7034
 X22.2595 Z-1.7234
 X22.4466 Z-1.7864
 X22.6336 Z-1.8500
 X22.8206 Z-1.8963
 X23.0076 Z-1.9328
 X23.1011 Z-1.9515
 X23.1479 Z-1.9611
 X23.1947 Z-1.9690
 X23.5687 Z-1.9946
 X23.9427 Z-2.0000
 X50.5000
 Y14.5370
 X24.6908
 X24.3168 Z-1.9931
 X24.1298 Z-1.9781
 X24.0363 Z-1.9706
 X23.9427 Z-1.9532
 X23.7557 Z-1.9073
 X23.6622 Z-1.8846
 X23.5687 Z-1.8545
 X23.3817 Z-1.7787
 X23.2414 Z-1.7221
 X23.1947 Z-1.6957
 X22.8907 Z-1.5108
 X22.8791 Z-1.5016
 X22.8206 Z-1.4496
 X22.7271 Z-1.3673
 X22.6803 Z-1.3279
 X22.6570 Z-1.3087
 X22.6453 Z-1.2992
 X22.6394 Z-1.2945
 X22.6365 Z-1.2921
 X22.6350 Z-1.2909
 X22.6343 Z-1.2904
 X22.6336 Z-1.2898
 X22.6102 Z-1.2712
 X22.5839 Z-1.2502
 X22.5810 Z-1.2500
 X14.4165
 X14.4163 Z-1.2501
 X14.4046 Z-1.2595
 X14.3111 Z-1.3350
 X14.2643 Z-1.3747
 X14.2176 Z-1.4157
 X14.1240 Z-1.4989
 X14.0773 Z-1.5303
 X13.8435 Z-1.6725
 X13.6565 Z-1.7633
 X13.5630 Z-1.8010
 X13.5162 Z-1.8199
 X13.4695 Z-1.8389
 X13.2824 Z-1.8980
 X13.1889 Z-1.9208
 X13.0954 Z-1.9438
 X12.9084 Z-1.9750
 X12.7214 Z-1.9897
 X12.3473 Z-2.0000
 X1.5000
 Y15.7222
 X11.9733
 X12.1603 Z-1.9980
 X12.2538 Z-1.9898
 X12.3473 Z-1.9817
 X12.4408 Z-1.9737
 X12.4876 Z-1.9697
 X12.5344 Z-1.9609
 X12.7214 Z-1.9110
 X12.8149 Z-1.8862
 X12.9084 Z-1.8527
 X13.0019 Z-1.8098
 X13.0487 Z-1.7884
 X13.0954 Z-1.7671
 X13.1422 Z-1.7459
 X13.1656 Z-1.7353
 X13.1772 Z-1.7300
 X13.1831 Z-1.7274
 X13.1889 Z-1.7247
 X13.2357 Z-1.6963
 X13.2824 Z-1.6646
 X13.4695 Z-1.5379
 X13.5630 Z-1.4605
 X13.6565 Z-1.3705
 X13.7032 Z-1.3259
 X13.7832 Z-1.2501
 X13.7834 Z-1.2500
 X23.1947
 X23.3817 Z-1.4081
 X23.4284 Z-1.4529
 X23.4518 Z-1.4752
 X23.4752 Z-1.4974
 X23.5687 Z-1.5638
 X23.7090 Z-1.6588
 X23.7323 Z-1.6746
 X23.7557 Z-1.6905
 X23.8492 Z-1.7420
 X23.9427 Z-1.7845
 X24.0363 Z-1.8273
 X24.0830 Z-1.8488
 X24.1064 Z-1.8596
 X24.1181 Z-1.8649
 X24.1298 Z-1.8703
 X24.2233 Z-1.8963
 X24.4804 Z-1.9648
 X24.5038 Z-1.9690
 X24.6908 Z-1.9852
 X25.0649 Z-2.0000
 X50.5000
 Y16.9074
 X25.1584
 X25.0649 Z-1.9987
 X24.8779 Z-1.9817
 X24.7844 Z-1.9732
 X24.7610 Z-1.9711
 X24.7493 Z-1.9701
 X24.7434 Z-1.9696
 X24.7376 Z-1.9690
 X24.6908 Z-1.9584
 X24.5038 Z-1.9070
 X24.4571 Z-1.8942
 X24.4337 Z-1.8877
 X24.4220 Z-1.8845
 X24.4103 Z-1.8813
 X24.3168 Z-1.8428
 X24.2233 Z-1.7980
 X24.1765 Z-1.7757
 X24.1298 Z-1.7534
 X24.0830 Z-1.7310
 X24.0713 Z-1.7254
 X24.0655 Z-1.7227
 X24.0596 Z-1.7199
 X24.0363 Z-1.7039
 X23.9427 Z-1.6366
 X23.8492 Z-1.5694
 X23.8025 Z-1.5358
 X23.7791 Z-1.5190
 X23.7557 Z-1.4995
 X23.6622 Z-1.4036
 X23.6155 Z-1.3563
 X23.5921 Z-1.3328
 X23.5103 Z-1.2505
 X23.5044 Z-1.2500
 X13.4928
 X13.4695 Z-1.2709
 X13.3760 Z-1.3650
 X13.3292 Z-1.4124
 X13.3058 Z-1.4362
 X13.2824 Z-1.4602
 X13.2591 Z-1.4842
 X13.2474 Z-1.4963
 X13.2415 Z-1.5024
 X13.2386 Z-1.5054
 X13.2371 Z-1.5069
 X13.2357 Z-1.5083
 X13.2123 Z-1.5251
 X13.1889 Z-1.5419
 X13.0954 Z-1.6092
 X13.0019 Z-1.6765
 X12.9785 Z-1.6933
 X12.9668 Z-1.7017
 X12.9610 Z-1.7059
 X12.9552 Z-1.7101
 X12.9084 Z-1.7351
 X12.8149 Z-1.7798
 X12.7681 Z-1.8022
 X12.7214 Z-1.8245
 X12.6746 Z-1.8469
 X12.6512 Z-1.8581
 X12.6396 Z-1.8637
 X12.6337 Z-1.8665
 X12.6279 Z-1.8692
 X12.5811 Z-1.8837
 X12.5344 Z-1.8965
 X12.4408 Z-1.9222
 X12.3941 Z-1.9350
 X12.3707 Z-1.9415
 X12.3473 Z-1.9479
 X12.1603 Z-1.9784
 X11.9733 Z-1.9954
 X11.5992 Z-2.0000
 X1.5000
 Y18.0926
 X11.8798
 X11.9733 Z-1.9954
 X12.2538 Z-1.9699
 X12.3473 Z-1.9479
 X12.4408 Z-1.9222
 X12.4876 Z-1.9094
 X12.5344 Z-1.8965
 X12.5811 Z-1.8837
 X12.6045 Z-1.8773
 X12.6147 Z-1.8745
 X12.6162 Z-1.8741
 X12.6279 Z-1.8692
 X12.7214 Z-1.8245
 X12.8149 Z-1.7798
 X12.8616 Z-1.7575
 X12.8850 Z-1.7463
 X12.9084 Z-1.7351
 X13.0019 Z-1.6765
 X13.0954 Z-1.6092
 X13.1889 Z-1.5419
 X13.2123 Z-1.5251
 X13.2240 Z-1.5167
 X13.2298 Z-1.5125
 X13.2357 Z-1.5083
 X13.2824 Z-1.4602
 X13.3760 Z-1.3650
 X13.4227 Z-1.3179
 X13.4695 Z-1.2709
 X13.8435 Z-1.2500
 X23.5095
 X23.5099 Z-1.2501
 X23.5687 Z-1.3093
 X23.6622 Z-1.4036
 X23.7090 Z-1.4514
 X23.7323 Z-1.4754
 X23.7440 Z-1.4874
 X23.7557 Z-1.4995
 X23.8492 Z-1.5694
 X23.8960 Z-1.6030
 X23.9427 Z-1.6366
 X23.9895 Z-1.6703
 X24.0129 Z-1.6871
 X24.0246 Z-1.6955
 X24.0363 Z-1.7039
 X24.0830 Z-1.7310
 X24.1298 Z-1.7534
 X24.2233 Z-1.7980
 X24.2700 Z-1.8204
 X24.2934 Z-1.8316
 X24.3168 Z-1.8428
 X24.5038 Z-1.9070
 X24.5973 Z-1.9327
 X24.6441 Z-1.9455
 X24.6675 Z-1.9520
 X24.6908 Z-1.9584
 X24.8779 Z-1.9817
 X25.0649 Z-1.9987
 X25.4389 Z-2.0000
 X50.5000
 Y19.2778
 X24.8779
 X24.6908 Z-1.9852
 X24.5038 Z-1.9690
 X24.4103 Z-1.9461
 X24.2233 Z-1.8963
 X24.1765 Z-1.8839
 X24.1531 Z-1.8777
 X24.1298 Z-1.8703
 X24.0363 Z-1.8273
 X23.9427 Z-1.7845
 X23.8492 Z-1.7420
 X23.7557 Z-1.6905
 X23.6622 Z-1.6271
 X23.5687 Z-1.5638
 X23.3817 Z-1.4072
 X23.3349 Z-1.3623
 X23.3115 Z-1.3399
 X23.2180 Z-1.2513
 X23.1947 Z-1.2500
 X13.7836
 X13.7829 Z-1.2505
 X13.5630 Z-1.4612
 X13.5396 Z-1.4834
 X13.5162 Z-1.5055
 X13.4695 Z-1.5379
 X13.3760 Z-1.6013
 X13.2824 Z-1.6646
 X13.2357 Z-1.6963
 X13.2240 Z-1.7043
 X13.2182 Z-1.7082
 X13.2123 Z-1.7122
 X13.1889 Z-1.7247
 X13.0954 Z-1.7671
 X13.0019 Z-1.8098
 X12.9552 Z-1.8312
 X12.9318 Z-1.8420
 X12.9084 Z-1.8527
 X12.8149 Z-1.8862
 X12.7214 Z-1.9110
 X12.5344 Z-1.9609
 X12.3473 Z-1.9817
 X11.9733 Z-2.0000
 X1.5000
 Y20.4630
 X12.5344
 X12.7214 Z-1.9897
 X12.9902 Z-1.9685
 X13.0019 Z-1.9668
 X13.0954 Z-1.9438
 X13.2824 Z-1.8980
 X13.3292 Z-1.8867
 X13.3526 Z-1.8811
 X13.3643 Z-1.8783
 X13.3760 Z-1.8755
 X13.4695 Z-1.8389
 X13.6565 Z-1.7633
 X13.7500 Z-1.7256
 X13.8435 Z-1.6725
 X14.1007 Z-1.5160
 X14.1240 Z-1.4989
 X14.2176 Z-1.4157
 X14.3111 Z-1.3350
 X14.3578 Z-1.2967
 X14.3812 Z-1.2780
 X14.4046 Z-1.2594
 X14.5916 Z-1.2500
 X22.5835
 X22.5839 Z-1.2502
 X22.5868 Z-1.2526
 X22.6336 Z-1.2898
 X22.7271 Z-1.3673
 X22.7739 Z-1.4081
 X22.7972 Z-1.4288
 X22.8206 Z-1.4496
 X23.0076 Z-1.5819
 X23.1947 Z-1.6957
 X23.3817 Z-1.7787
 X23.4752 Z-1.8164
 X23.5219 Z-1.8354
 X23.5687 Z-1.8545
 X23.7557 Z-1.9073
 X23.8492 Z-1.9302
 X23.9427 Z-1.9532
 X24.3168 Z-1.9931
 X24.6908 Z-2.0000
 X50.5000
 Y21.6481
 X23.9427
 X23.5687 Z-1.9946
 X23.3817 Z-1.9818
 X23.2882 Z-1.9754
 X23.2414 Z-1.9722
 X23.1947 Z-1.9690
 X23.0076 Z-1.9328
 X22.8206 Z-1.8963
 X22.6336 Z-1.8500
 X22.3531 Z-1.7546
 X22.3063 Z-1.7388
 X22.2595 Z-1.7234
 X22.0725 Z-1.6384
 X21.6985 Z-1.4487
 X21.6050 Z-1.3882
 X21.5582 Z-1.3610
 X21.3712 Z-1.2547
 X21.3244 Z-1.2500
 X15.7137
 X15.3397 Z-1.4232
 X15.2462 Z-1.4857
 X15.2228 Z-1.5014
 X15.1994 Z-1.5142
 X14.9656 Z-1.6210
 X14.5916 Z-1.7734
 X14.4046 Z-1.8370
 X14.2176 Z-1.8888
 X14.0305 Z-1.9253
 X13.9370 Z-1.9438
 X13.8903 Z-1.9533
 X13.8435 Z-1.9629
 X13.4695 Z-1.9926
 X13.0954 Z-2.0000
 X1.5000
 Y22.8333
 X14.5916
 X14.9656 Z-1.9812
 X15.3397 Z-1.9530
 X15.7137 Z-1.9042
 X16.0878 Z-1.8460
 X16.4618 Z-1.7795
 X16.8359 Z-1.7183
 X17.2099 Z-1.6482
 X17.5840 Z-1.5941
 X17.9580 Z-1.5539
 X18.3321 Z-1.5389
 X18.7061 Z-1.5403
 X19.0802 Z-1.5568
 X19.4542 Z-1.5985
 X19.8282 Z-1.6554
 X20.2023 Z-1.7235
 X20.5763 Z-1.7861
 X20.9504 Z-1.8541
 X21.3244 Z-1.9090
 X21.6985 Z-1.9588
 X22.0725 Z-1.9834
 X22.4466 Z-2.0000
 X50.5000
 Y24.0185
 X19.8282
 X19.4542 Z-1.9980
 X19.0802 Z-1.9947
 X18.7061 Z-1.9921
 X18.3321 Z-1.9926
 X17.9580 Z-1.9938
 X17.5840 Z-1.9982
 X17.2099 Z-2.0000
 X1.5000
 Y25.2037
 X50.5000
 Y26.3889
 X1.5000
 Y27.5741
 X50.5000
 Y28.7593
 X1.5000
 Y29.9444
 X4.4624
 X4.4628 Z-4.0000
 X5.5371
 X5.5378 Z-2.0000
 X46.4615
 X46.4629 Z-4.0000
 X47.5369
 X47.5383 Z-2.0000
 X50.5000
 Y31.1296
 X1.5000
 Y32.3148
 X50.5000
 Y33.5000
 X1.5000
G0 Z3.0000
M5 (stop spindle)
G04 P3 (wait for 3 seconds)
F200.00000
S1000.00000
;PYCAM_TOOLPATH_SETTINGS: START
;[Bounds]
;maxz = -2.0
;maxx = 55.7
;maxy = 37.0
;minx = -3.7
;miny = -2.0
;minz = -4.0
;
;[Tool]
;torus_radius = 0.25
;speed = 1000.0
;shape = CylindricalCutter
;tool_radius = 1.5
;feedrate = 200.0
;
;[Process]
;generator = ContourFollow
;pocketing_type = none
;engrave_offset = 0.0
;milling_style = conventional
;path_direction = x
;step_down = 1.5
;postprocessor = SimpleCutter
;overlap_percent = 0
;material_allowance = 0.0
;
;PYCAM_TOOLPATH_SETTINGS: END
G0 Z3.0000
M3 (start spindle)
G04 P3 (wait for 3 seconds)
 X47.5323 Y30.1059
G1 Z-2.0000
 X47.5427 Y30.0000
 X47.5323 Y29.8941
 X47.5014 Y29.7923
 X47.4513 Y29.6985
 X47.3838 Y29.6162
 X47.3015 Y29.5487
 X47.2077 Y29.4986
 X47.1059 Y29.4677
 X47.0000 Y29.4573
 X46.8941 Y29.4677
 X46.7923 Y29.4986
 X46.6985 Y29.5487
 X46.6162 Y29.6162
 X46.5487 Y29.6985
 X46.4986 Y29.7923
 X46.4677 Y29.8941
 X46.4573 Y30.0000
 X46.4677 Y30.1059
 X46.4986 Y30.2077
 X46.5487 Y30.3015
 X46.6162 Y30.3838
 X46.6985 Y30.4513
 X46.7923 Y30.5014
 X46.8941 Y30.5323
 X47.0000 Y30.5427
 X47.1059 Y30.5323
 X47.2077 Y30.5014
 X47.3015 Y30.4513
 X47.3838 Y30.3838
 X47.4513 Y30.3015
 X47.5014 Y30.2077
 X47.5323 Y30.1059
G0 Z3.0000
 X33.5176 Y17.5365
G1 Z-2.0000
 X33.5253 Y17.5317
 X33.5317 Y17.5253
 X33.5365 Y17.5176
 X33.5395 Y17.5090
 X33.5405 Y17.5000
 X33.5395 Y17.4910
 X33.5365 Y17.4824
 X33.5317 Y17.4747
 X33.5253 Y17.4683
 X33.5176 Y17.4635
 X33.5090 Y17.4605
 X33.5000 Y17.4595
 X33.4910 Y17.4605
 X33.4824 Y17.4635
 X33.4747 Y17.4683
 X33.4683 Y17.4747
 X33.4635 Y17.4824
 X33.4605 Y17.4910
 X33.4595 Y17.5000
 X33.4605 Y17.5090
 X33.4635 Y17.5176
 X33.4683 Y17.5253
 X33.4747 Y17.5317
 X33.4824 Y17.5365
 X33.4910 Y17.5395
 X33.5000 Y17.5405
 X33.5090 Y17.5395
 X33.5176 Y17.5365
G0 Z3.0000
 X47.4513 Y5.3015
G1 Z-2.0000
 X47.5014 Y5.2077
 X47.5323 Y5.1059
 X47.5427 Y5.0000
 X47.5323 Y4.8941
 X47.5014 Y4.7923
 X47.4513 Y4.6985
 X47.3838 Y4.6162
 X47.3015 Y4.5487
 X47.2077 Y4.4986
 X47.1059 Y4.4677
 X47.0000 Y4.4573
 X46.8941 Y4.4677
 X46.7923 Y4.4986
 X46.6985 Y4.5487
 X46.6162 Y4.6162
 X46.5487 Y4.6985
 X46.4986 Y4.7923
 X46.4677 Y4.8941
 X46.4573 Y5.0000
 X46.4677 Y5.1059
 X46.4986 Y5.2077
 X46.5487 Y5.3015
 X46.6162 Y5.3838
 X46.6985 Y5.4513
 X46.7923 Y5.5014
 X46.8941 Y5.5323
 X47.0000 Y5.5427
 X47.1059 Y5.5323
 X47.2077 Y5.5014
 X47.3015 Y5.4513
 X47.3838 Y5.3838
 X47.4513 Y5.3015
G0 Z3.0000
 X5.5323 Y30.1059
G1 Z-2.0000
 X5.5427 Y30.0000
 X5.5323 Y29.8941
 X5.5014 Y29.7923
 X5.4513 Y29.6985
 X5.3838 Y29.6162
 X5.3015 Y29.5487
 X5.2077 Y29.4986
 X5.1059 Y29.4677
 X5.0000 Y29.4573
 X4.8941 Y29.4677
 X4.7923 Y29.4986
 X4.6985 Y29.5487
 X4.6162 Y29.6162
 X4.5487 Y29.6985
 X4.4986 Y29.7923
 X4.4677 Y29.8941
 X4.4573 Y30.0000
 X4.4677 Y30.1059
 X4.4986 Y30.2077
 X4.5487 Y30.3015
 X4.6162 Y30.3838
 X4.6985 Y30.4513
 X4.7923 Y30.5014
 X4.8941 Y30.5323
 X5.0000 Y30.5427
 X5.1059 Y30.5323
 X5.2077 Y30.5014
 X5.3015 Y30.4513
 X5.3838 Y30.3838
 X5.4513 Y30.3015
 X5.5014 Y30.2077
 X5.5323 Y30.1059
G0 Z3.0000
 X18.4999 Y17.5405
G1 Z-2.0000
 X18.5090 Y17.5395
 X18.5176 Y17.5365
 X18.5253 Y17.5317
 X18.5317 Y17.5252
 X18.4635 Y17.5175
 X18.4683 Y17.5253
 X18.4748 Y17.5317
 X18.5405 Y17.5001
 X18.5395 Y17.4910
 X18.5365 Y17.4824
 X18.5317 Y17.4747
 X18.5252 Y17.4683
 X18.4635 Y17.4824
 X18.4605 Y17.4911
 X18.4595 Y17.4999
 X18.4605 Y17.5091
 X18.4911 Y17.4605
 X18.4824 Y17.4635
 X18.4747 Y17.4683
 X18.4683 Y17.4748
 X18.5176 Y17.4635
 X18.5090 Y17.4605
 X18.4999 Y17.4595
G0 Z3.0000
 X5.5323 Y5.1059
G1 Z-2.0000
 X5.5427 Y5.0000
 X5.5323 Y4.8941
 X5.5014 Y4.7923
 X5.4513 Y4.6985
 X5.3838 Y4.6162
 X5.3015 Y4.5487
 X5.2077 Y4.4986
 X5.1059 Y4.4677
 X5.0000 Y4.4573
 X4.8941 Y4.4677
 X4.7923 Y4.4986
 X4.6985 Y4.5487
 X4.6162 Y4.6162
 X4.5487 Y4.6985
 X4.4986 Y4.7923
 X4.4677 Y4.8941
 X4.4573 Y5.0000
 X4.4677 Y5.1059
 X4.4986 Y5.2077
 X4.5487 Y5.3015
 X4.6162 Y5.3838
 X4.6985 Y5.4513
 X4.7923 Y5.5014
 X4.8941 Y5.5323
 X5.0000 Y5.5427
 X5.1059 Y5.5323
 X5.2077 Y5.5014
 X5.3015 Y5.4513
 X5.3838 Y5.3838
 X5.4513 Y5.3015
 X5.5014 Y5.2077
 X5.5323 Y5.1059
G0 Z3.0000
 X52.4800 Y35.4800
G1 Z-2.0000
 X51.9485 Y35.9162
 X51.3422 Y36.2403
 X50.6842 Y36.4399
 X50.0737 Y36.5000
 X1.9263
 X1.3158 Y36.4399
 X0.6578 Y36.2403
 X0.0515 Y35.9162
 X-0.4800 Y35.4800
 X-0.9162 Y34.9485
 X-1.2403 Y34.3422
 X-1.4399 Y33.6842
 X-1.5000 Y33.0737
 Y1.9263
 X-1.4399 Y1.3158
 X-1.2403 Y0.6578
 X-0.9162 Y0.0515
 X-0.4800 Y-0.4800
 X0.0515 Y-0.9162
 X0.6578 Y-1.2403
 X1.3158 Y-1.4399
 X1.9263 Y-1.5000
 X50.0737
 X50.6842 Y-1.4399
 X51.3422 Y-1.2403
 X51.9485 Y-0.9162
 X52.4800 Y-0.4800
 X52.9162 Y0.0515
 X53.2403 Y0.6578
 X53.4399 Y1.3158
 X53.5000 Y1.9263
 Y33.0737
 X53.4399 Y33.6842
 X53.2403 Y34.3422
 X52.9162 Y34.9485
 X52.4800 Y35.4800
G0 Z3.0000
 X52.2143 Y35.6981
G1 Z-3.0000
 X52.0627 Y35.8225
 X51.0132 Y36.3401
 X50.8256 Y36.3970
 X53.0782 Y34.6454
 X52.9858 Y34.8182
G0 Z3.0000
 X47.4763 Y30.2546
G1 Z-3.0000
 X47.5015 Y30.2076
 X47.5375 Y30.0529
 X47.5427 Y29.9999
 X47.5375 Y29.9471
 X47.5323 Y29.8940
 X47.4175 Y30.3426
 X47.4513 Y30.3015
 X47.3427 Y30.4175
 X47.3838 Y30.3837
 X47.1568 Y30.5169
 X47.2078 Y30.5014
 X47.0529 Y30.5375
 X47.1060 Y30.5323
 X46.9471 Y30.5375
 X47.0001 Y30.5427
 X46.8432 Y30.5169
 X46.8942 Y30.5323
 X46.6573 Y30.4175
 X46.6985 Y30.4513
 X46.5237 Y30.2546
 X46.5488 Y30.3016
 X46.4831 Y30.1568
 X46.4986 Y30.2078
 X46.4625 Y30.0529
 X46.4677 Y30.1060
 X46.4625 Y29.9471
 X46.4573 Y30.0001
 X46.4831 Y29.8432
 X46.4677 Y29.8942
 X47.4763 Y29.7454
 X47.4512 Y29.6984
 X47.3427 Y29.5825
 X47.3015 Y29.5487
 X47.1568 Y29.4831
 X47.1058 Y29.4677
 X46.8432 Y29.4831
 X46.7922 Y29.4986
 X46.6573 Y29.5825
 X46.6162 Y29.6163
 X46.5825 Y29.6574
 X46.5487 Y29.6985
 X46.5237 Y29.7454
 X46.4986 Y29.7923
 X46.4677 Y29.8941
 X46.4573 Y30.0000
 X46.4677 Y30.1059
 X46.4986 Y30.2077
 X46.5487 Y30.3015
 X46.5825 Y30.3426
 X46.6162 Y30.3838
 X46.6985 Y30.4513
 X46.7454 Y30.4763
 X46.7923 Y30.5014
 X46.8941 Y30.5323
 X47.0000 Y30.5427
 X47.1059 Y30.5323
 X47.2077 Y30.5014
 X47.2546 Y30.4763
 X47.3015 Y30.4513
 X47.3838 Y30.3838
 X47.4513 Y30.3015
 X47.5014 Y30.2077
 X47.5169 Y30.1568
 X47.5323 Y30.1059
 X47.5427 Y30.0000
 X47.5323 Y29.8941
 X47.5169 Y29.8432
 X47.5014 Y29.7923
 X47.4513 Y29.6985
 X47.4175 Y29.6574
 X47.3838 Y29.6162
 X47.3015 Y29.5487
 X47.2546 Y29.5237
 X47.2077 Y29.4986
 X47.1059 Y29.4677
 X47.0529 Y29.4625
 X47.0000 Y29.4573
 X46.9471 Y29.4625
 X46.8941 Y29.4677
 X46.7923 Y29.4986
 X46.7454 Y29.5237
 X46.6985 Y29.5487
 X46.6162 Y29.6162
 X46.5487 Y29.6985
 X46.4985 Y29.7924
G0 Z3.0000
 X33.4955 Y17.5400
G1 Z-3.0000
 X33.5001 Y17.5405
 X33.5045 Y17.5400
 X33.5091 Y17.5395
G0 Z3.0000
 X53.5000 Y2.0000
G1 Z-3.0000
 Y17.5000
G0 Z3.0000
 X33.5285 Y17.5285
G1 Z-3.0000
 X33.5317 Y17.5252
 X33.4867 Y17.5380
 X33.4911 Y17.5395
 X33.4715 Y17.5285
 X33.4748 Y17.5317
G0 Z3.0000
 X47.0529 Y5.5375
G1 Z-3.0000
 X47.1060 Y5.5323
 X46.9471 Y5.5375
 X47.0001 Y5.5427
 X46.8432 Y5.5169
 X46.8942 Y5.5323
 X47.4175 Y5.3426
 X47.4513 Y5.3015
 X47.4763 Y5.2546
 X47.5015 Y5.2076
 X47.4763 Y4.7454
 X47.4512 Y4.6984
 X47.3426 Y4.5825
 X47.3015 Y4.5487
G0 Z3.0000
 X52.6981 Y-0.2143
G1 Z-3.0000
 X52.8225 Y-0.0627
 X52.2143 Y-0.6981
 X52.3658 Y-0.5737
 X50.3421 Y-1.4736
 X50.5372 Y-1.4544
G0 Z3.0000
 X47.1568 Y4.4831
G1 Z-3.0000
 X47.1058 Y4.4677
 X47.0529 Y4.4625
 X46.9999 Y4.4573
 X46.9471 Y4.4625
 X46.8940 Y4.4677
G0 Z3.0000
 X33.5400 Y17.5045
G1 Z-3.0000
 X33.5405 Y17.4999
 X33.5400 Y17.4955
 X33.5395 Y17.4909
 X33.5341 Y17.5214
 X33.5365 Y17.5175
 X33.5380 Y17.5133
 X33.5395 Y17.5089
 X33.5341 Y17.4786
 X33.5316 Y17.4747
 X33.5285 Y17.4715
 X33.5252 Y17.4683
 X33.4659 Y17.5214
 X33.4684 Y17.5253
 X33.4600 Y17.5045
 X33.4605 Y17.5091
 X33.4600 Y17.4955
 X33.4595 Y17.5001
 X33.4659 Y17.4786
 X33.4635 Y17.4825
 X33.5045 Y17.4600
 X33.4999 Y17.4595
 X33.4715 Y17.4715
 X33.4683 Y17.4748
 X33.4955 Y17.4600
 X33.4910 Y17.4605
 X33.4867 Y17.4620
 X33.4824 Y17.4635
 X33.4786 Y17.4659
 X33.4747 Y17.4683
 X33.4683 Y17.4747
 X33.4635 Y17.4824
 X33.4620 Y17.4867
 X33.4605 Y17.4910
 X33.4595 Y17.5000
 X33.4605 Y17.5090
 X33.4620 Y17.5133
 X33.4635 Y17.5176
 X33.4683 Y17.5253
 X33.4747 Y17.5317
 X33.4786 Y17.5341
 X33.4824 Y17.5365
 X33.4910 Y17.5395
 X33.5000 Y17.5405
 X33.5090 Y17.5395
 X33.5133 Y17.5380
 X33.5176 Y17.5365
 X33.5214 Y17.5341
 X33.5253 Y17.5317
 X33.5317 Y17.5253
 X33.5365 Y17.5176
 X33.5395 Y17.5090
 X33.5405 Y17.5000
 X33.5395 Y17.4910
 X33.5380 Y17.4867
 X33.5365 Y17.4824
 X33.5317 Y17.4747
 X33.5253 Y17.4683
 X33.5214 Y17.4659
 X33.5176 Y17.4635
 X33.5133 Y17.4620
 X33.5090 Y17.4605
 X33.5000 Y17.4595
 X33.4909 Y17.4605
G0 Z3.0000
 X46.6574 Y5.4175
G1 Z-3.0000
 X46.6985 Y5.4513
 X46.5237 Y5.2546
 X46.5488 Y5.3016
 X46.4831 Y5.1568
 X46.4986 Y5.2078
 X46.5825 Y4.6574
 X46.5487 Y4.6985
 X46.4831 Y4.8432
 X46.4677 Y4.8942
 X46.5237 Y4.7454
 X46.4986 Y4.7923
 X46.4677 Y4.8941
 X46.4625 Y4.9471
 X46.4573 Y5.0000
 X46.4625 Y5.0529
 X46.4677 Y5.1059
 X46.4986 Y5.2077
 X46.5487 Y5.3015
 X46.5825 Y5.3426
 X46.6162 Y5.3838
 X46.6985 Y5.4513
 X46.7454 Y5.4763
 X46.7923 Y5.5014
 X46.8941 Y5.5323
 X47.0000 Y5.5427
 X47.1059 Y5.5323
 X47.1568 Y5.5169
 X47.2077 Y5.5014
 X47.2546 Y5.4763
 X47.3015 Y5.4513
 X47.3426 Y5.4175
 X47.3838 Y5.3838
 X47.4513 Y5.3015
 X47.5014 Y5.2077
 X47.5169 Y5.1568
 X47.5323 Y5.1059
 X47.5375 Y5.0529
 X47.5427 Y5.0000
 X47.5375 Y4.9471
 X47.5323 Y4.8941
 X47.5169 Y4.8432
 X47.5014 Y4.7923
 X47.4513 Y4.6985
 X47.4175 Y4.6574
 X47.3838 Y4.6162
 X47.3015 Y4.5487
 X47.2546 Y4.5237
 X47.2077 Y4.4986
 X47.1059 Y4.4677
 X47.0000 Y4.4573
 X46.8941 Y4.4677
 X46.8432 Y4.4831
 X46.7923 Y4.4986
 X46.7454 Y4.5237
 X46.6985 Y4.5487
 X46.6574 Y4.5825
 X46.6162 Y4.6162
 X46.5487 Y4.6985
 X46.4985 Y4.7924
G0 Z3.0000
 X5.5169 Y30.1568
G1 Z-3.0000
 X5.5323 Y30.1058
 X5.5375 Y30.0529
 X5.5427 Y29.9999
 X5.5375 Y29.9471
 X5.5323 Y29.8940
 X5.5169 Y29.8432
 X5.5014 Y29.7922
 X5.4175 Y30.3427
 X5.4513 Y30.3015
 X5.4763 Y30.2546
 X5.5015 Y30.2076
 X5.3427 Y30.4175
 X5.3838 Y30.3837
 X5.4763 Y29.7454
 X5.4512 Y29.6984
 X5.2546 Y30.4763
 X5.3016 Y30.4512
 X5.4175 Y29.6573
 X5.3837 Y29.6162
 X5.3427 Y29.5825
 X5.3015 Y29.5487
 X5.2546 Y29.5237
 X5.2076 Y29.4985
 X5.1568 Y30.5169
 X5.2078 Y30.5014
 X5.0529 Y30.5375
 X5.1060 Y30.5323
 X4.8432 Y30.5169
 X4.8942 Y30.5323
 X4.9471 Y30.5375
 X5.0001 Y30.5427
G0 Z3.0000
 X50.3421 Y36.4736
G1 Z-3.0000
 X50.0737 Y36.5000
 X1.9263
 X1.4628 Y36.4544
 X1.6579 Y36.4736
 X1.3158 Y36.4399
 X0.7992 Y36.2832
G0 Z3.0000
 X4.7454 Y30.4763
G1 Z-3.0000
 X4.7924 Y30.5015
G0 Z3.0000
 X0.9868 Y36.3401
G1 Z-3.0000
 X0.6578 Y36.2403
 X0.1818 Y35.9858
 X0.3546 Y36.0782
 X0.0515 Y35.9162
 X-0.3658 Y35.5737
G0 Z3.0000
 X4.6573 Y30.4175
G1 Z-3.0000
 X4.6985 Y30.4513
 X4.5825 Y30.3427
 X4.6163 Y30.3838
 X4.5237 Y30.2546
 X4.5488 Y30.3016
 X4.4831 Y30.1568
 X4.4986 Y30.2078
 X5.1568 Y29.4831
 X5.1058 Y29.4677
 X4.9471 Y29.4625
 X4.8940 Y29.4677
 X4.8432 Y29.4831
 X4.7922 Y29.4986
 X4.7454 Y29.5237
 X4.6984 Y29.5488
 X4.4625 Y30.0529
 X4.4677 Y30.1060
 X4.4625 Y29.9471
 X4.4573 Y30.0001
 X4.4831 Y29.8432
 X4.4677 Y29.8942
 X4.5237 Y29.7454
 X4.4985 Y29.7924
 X4.5825 Y29.6573
 X4.5487 Y29.6985
 X4.6573 Y29.5825
 X4.6162 Y29.6162
 X4.5487 Y29.6985
 X4.4986 Y29.7923
 X4.4677 Y29.8941
 X4.4573 Y30.0000
 X4.4677 Y30.1059
 X4.4986 Y30.2077
 X4.5487 Y30.3015
 X4.6162 Y30.3838
 X4.6985 Y30.4513
 X4.7923 Y30.5014
 X4.8941 Y30.5323
 X5.0000 Y30.5427
 X5.1059 Y30.5323
 X5.2077 Y30.5014
 X5.3015 Y30.4513
 X5.3838 Y30.3838
 X5.4513 Y30.3015
 X5.5014 Y30.2077
 X5.5323 Y30.1059
 X5.5427 Y30.0000
 X5.5323 Y29.8941
 X5.5014 Y29.7923
 X5.4513 Y29.6985
 X5.3838 Y29.6162
 X5.3015 Y29.5487
 X5.2077 Y29.4986
 X5.1059 Y29.4677
 X5.0529 Y29.4625
 X5.0000 Y29.4573
 X4.8941 Y29.4677
 X4.7923 Y29.4986
 X4.6985 Y29.5487
 X4.6162 Y29.6163
G0 Z3.0000
 X18.5089 Y17.5395
G1 Z-3.0000
 X18.5176 Y17.5365
 X18.5253 Y17.5317
 X18.5317 Y17.5253
 X18.5365 Y17.5176
 X18.5395 Y17.5090
 X18.5405 Y17.4999
 X18.4909 Y17.5395
 X18.5001 Y17.5405
 X18.4605 Y17.5089
 X18.4635 Y17.5176
 X18.4683 Y17.5252
 X18.4748 Y17.5317
G0 Z3.0000
 X-0.2143 Y35.6981
G1 Z-3.0000
 X-0.4800 Y35.4800
 X-0.6981 Y35.2143
 X-0.9162 Y34.9485
 X-1.0782 Y34.6454
 X-1.2403 Y34.3422
 X-1.3401 Y34.0132
 X-1.4399 Y33.6842
 X-1.5000 Y33.0737
 Y17.5000
G0 Z3.0000
 X18.5317 Y17.4748
G1 Z-3.0000
 X18.5252 Y17.4683
 X18.4605 Y17.4909
 X18.4595 Y17.5001
 X18.5176 Y17.4635
 X18.5089 Y17.4605
 X18.5001 Y17.4595
 X18.4910 Y17.4605
 X18.4824 Y17.4635
 X18.4747 Y17.4683
 X18.4683 Y17.4747
 X18.4635 Y17.4825
G0 Z3.0000
 X5.4763 Y5.2546
G1 Z-3.0000
 X5.5014 Y5.2076
 X5.4175 Y5.3427
 X5.4513 Y5.3015
 X5.3426 Y5.4175
 X5.3838 Y5.3837
 X5.2546 Y5.4763
 X5.3016 Y5.4512
 X5.1568 Y5.5169
 X5.2078 Y5.5014
 X5.0529 Y5.5375
 X5.1060 Y5.5323
 X4.8432 Y5.5169
 X4.8942 Y5.5323
 X4.6574 Y5.4175
 X4.6985 Y5.4513
 X4.7454 Y5.4763
 X4.7924 Y5.5015
 X4.5237 Y5.2546
 X4.5488 Y5.3016
 X5.5169 Y5.1568
 X5.5323 Y5.1058
 X5.4763 Y4.7454
 X5.4512 Y4.6984
 X5.4175 Y4.6573
 X5.3837 Y4.6162
 X5.3426 Y4.5825
 X5.3015 Y4.5487
 X5.2546 Y4.5237
 X5.2076 Y4.4985
 X5.1568 Y4.4831
 X5.1058 Y4.4677
 X5.0529 Y4.4625
 X4.9999 Y4.4573
 X4.9471 Y4.4625
 X4.8940 Y4.4677
 X4.7454 Y4.5237
 X4.6984 Y4.5488
 X4.6574 Y4.5825
 X4.6162 Y4.6163
 X4.5237 Y4.7454
 X4.4986 Y4.7924
 X4.4831 Y4.8432
 X4.4677 Y4.8941
 X4.4625 Y4.9471
 X4.4573 Y5.0000
 X4.4625 Y5.0529
 X4.4677 Y5.1059
 X4.4831 Y5.1568
 X4.4986 Y5.2077
 X4.5487 Y5.3015
 X4.5825 Y5.3427
 X4.6162 Y5.3838
 X4.6985 Y5.4513
 X4.7923 Y5.5014
 X4.8941 Y5.5323
 X4.9471 Y5.5375
 X5.0000 Y5.5427
 X5.1059 Y5.5323
 X5.2077 Y5.5014
 X5.3015 Y5.4513
 X5.3838 Y5.3838
 X5.4513 Y5.3015
 X5.5014 Y5.2077
 X5.5323 Y5.1059
 X5.5375 Y5.0529
 X5.5427 Y5.0000
 X5.5375 Y4.9471
 X5.5323 Y4.8941
 X5.5169 Y4.8432
 X5.5014 Y4.7923
 X5.4513 Y4.6985
 X5.3838 Y4.6162
 X5.3015 Y4.5487
 X5.2077 Y4.4986
 X5.1059 Y4.4677
 X5.0000 Y4.4573
 X4.8941 Y4.4677
 X4.8432 Y4.4831
 X4.7923 Y4.4986
 X4.6985 Y4.5487
 X4.6162 Y4.6162
 X4.5825 Y4.6573
 X4.5487 Y4.6985
 X4.4986 Y4.7923
 X4.4677 Y4.8942
G0 Z3.0000
 X1.6579 Y-1.4736
G1 Z-3.0000
 X1.9263 Y-1.5000
 X26.0000
G0 Z3.0000
 X0.3546 Y-1.0782
G1 Z-3.0000
 X0.5275 Y-1.1707
 X-0.2143 Y-0.6981
 X-0.0627 Y-0.8225
 X-0.6981 Y-0.2143
 X-0.5737 Y-0.3658
 X-1.0782 Y0.3546
 X-0.9162 Y0.0515
 X-0.4800 Y-0.4800
 X0.0515 Y-0.9162
 X0.6578 Y-1.2403
 X0.9868 Y-1.3401
 X1.3158 Y-1.4399
 X1.9263 Y-1.5000
 X50.0737
 X50.6842 Y-1.4399
 X51.0132 Y-1.3401
 X51.3422 Y-1.2403
 X51.6454 Y-1.0782
 X51.9485 Y-0.9162
 X52.4800 Y-0.4800
 X52.9162 Y0.0515
 X53.0782 Y0.3546
 X53.2403 Y0.6578
 X53.3401 Y0.9868
 X53.4399 Y1.3158
 X53.4736 Y1.6579
 X53.5000 Y1.9263
 Y33.0737
 X53.4736 Y33.3421
 X53.4399 Y33.6842
 X53.3401 Y34.0132
 X53.2403 Y34.3422
 X52.9162 Y34.9485
 X52.6981 Y35.2143
 X52.4800 Y35.4800
 X51.9485 Y35.9162
 X51.6454 Y36.0782
 X51.3422 Y36.2403
 X50.6842 Y36.4399
 X50.0737 Y36.5000
 X26.0000
G0 Z3.0000
 X-1.4736 Y33.3421
G1 Z-3.0000
 X-1.5000 Y33.0737
 Y1.9263
 X-1.4736 Y1.6579
 X-1.4399 Y1.3158
 X-1.2832 Y0.7992
 X-1.3401 Y0.9868
 X-1.2832 Y0.7992
G0 Z3.0000
 X47.5323 Y30.1059
G1 Z-4.0000
 X47.5427 Y30.0000
 X47.5323 Y29.8941
 X47.5014 Y29.7923
 X47.4513 Y29.6985
 X47.3838 Y29.6162
 X47.3015 Y29.5487
 X47.2077 Y29.4986
 X47.1059 Y29.4677
 X47.0000 Y29.4573
 X46.8941 Y29.4677
 X46.7923 Y29.4986
 X46.6985 Y29.5487
 X46.6162 Y29.6162
 X46.5487 Y29.6985
 X46.4986 Y29.7923
 X46.4677 Y29.8941
 X46.4573 Y30.0000
 X46.4677 Y30.1059
 X46.4986 Y30.2077
 X46.5487 Y30.3015
 X46.6162 Y30.3838
 X46.6985 Y30.4513
 X46.7923 Y30.5014
 X46.8941 Y30.5323
 X47.0000 Y30.5427
 X47.1059 Y30.5323
 X47.2077 Y30.5014
 X47.3015 Y30.4513
 X47.3838 Y30.3838
 X47.4513 Y30.3015
 X47.5014 Y30.2077
 X47.5323 Y30.1059
G0 Z3.0000
 X33.5176 Y17.5365
G1 Z-4.0000
 X33.5253 Y17.5317
 X33.5317 Y17.5253
 X33.5365 Y17.5176
 X33.5395 Y17.5090
 X33.5405 Y17.5000
 X33.5395 Y17.4910
 X33.5365 Y17.4824
 X33.5317 Y17.4747
 X33.5253 Y17.4683
 X33.5176 Y17.4635
 X33.5090 Y17.4605
 X33.5000 Y17.4595
 X33.4910 Y17.4605
 X33.4824 Y17.4635
 X33.4747 Y17.4683
 X33.4683 Y17.4747
 X33.4635 Y17.4824
 X33.4605 Y17.4910
 X33.4595 Y17.5000
 X33.4605 Y17.5090
 X33.4635 Y17.5176
 X33.4683 Y17.5253
 X33.4747 Y17.5317
 X33.4824 Y17.5365
 X33.4910 Y17.5395
 X33.5000 Y17.5405
 X33.5090 Y17.5395
 X33.5176 Y17.5365
G0 Z3.0000
 X47.3838 Y5.3838
G1 Z-4.0000
 X47.4513 Y5.3015
 X47.5014 Y5.2077
 X47.5323 Y5.1059
 X47.5427 Y5.0000
 X47.5323 Y4.8941
 X47.5014 Y4.7923
 X47.4513 Y4.6985
 X47.3838 Y4.6162
 X47.3015 Y4.5487
 X47.2077 Y4.4986
 X47.1059 Y4.4677
 X47.0000 Y4.4573
 X46.8941 Y4.4677
 X46.7923 Y4.4986
 X46.6985 Y4.5487
 X46.6162 Y4.6162
 X46.5487 Y4.6985
 X46.4986 Y4.7923
 X46.4677 Y4.8941
 X46.4573 Y5.0000
 X46.4677 Y5.1059
 X46.4986 Y5.2077
 X46.5487 Y5.3015
 X46.6162 Y5.3838
 X46.6985 Y5.4513
 X46.7923 Y5.5014
 X46.8941 Y5.5323
 X47.0000 Y5.5427
 X47.1059 Y5.5323
 X47.2077 Y5.5014
 X47.3015 Y5.4513
 X47.3838 Y5.3838
G0 Z3.0000
 X5.5323 Y30.1059
G1 Z-4.0000
 X5.5427 Y30.0000
 X5.5323 Y29.8941
 X5.5014 Y29.7923
 X5.4513 Y29.6985
 X5.3838 Y29.6162
 X5.3015 Y29.5487
 X5.2077 Y29.4986
 X5.1059 Y29.4677
 X5.0000 Y29.4573
 X4.8941 Y29.4677
 X4.7923 Y29.4986
 X4.6985 Y29.5487
 X4.6162 Y29.6162
 X4.5487 Y29.6985
 X4.4986 Y29.7923
 X4.4677 Y29.8941
 X4.4573 Y30.0000
 X4.4677 Y30.1059
 X4.4986 Y30.2077
 X4.5487 Y30.3015
 X4.6162 Y30.3838
 X4.6985 Y30.4513
 X4.7923 Y30.5014
 X4.8941 Y30.5323
 X5.0000 Y30.5427
 X5.1059 Y30.5323
 X5.2077 Y30.5014
 X5.3015 Y30.4513
 X5.3838 Y30.3838
 X5.4513 Y30.3015
 X5.5014 Y30.2077
 X5.5323 Y30.1059
G0 Z3.0000
 X18.5405 Y17.5000
G1 Z-4.0000
 X18.5395 Y17.4910
 X18.5365 Y17.4824
 X18.5317 Y17.4747
 X18.5253 Y17.4683
 X18.5176 Y17.4635
 X18.5090 Y17.4605
 X18.5000 Y17.4595
 X18.4910 Y17.4605
 X18.4824 Y17.4635
 X18.4747 Y17.4683
 X18.4683 Y17.4747
 X18.4635 Y17.4824
 X18.4605 Y17.4910
 X18.4595 Y17.5000
 X18.4605 Y17.5090
 X18.4635 Y17.5176
 X18.4683 Y17.5253
 X18.4747 Y17.5317
 X18.4824 Y17.5365
 X18.4910 Y17.5395
 X18.5000 Y17.5405
 X18.5090 Y17.5395
 X18.5176 Y17.5365
 X18.5253 Y17.5317
 X18.5317 Y17.5253
 X18.5365 Y17.5176
 X18.5395 Y17.5090
 X18.5405 Y17.5000
G0 Z3.0000
 X5.5014 Y5.2077
G1 Z-4.0000
 X5.5323 Y5.1059
 X5.5427 Y5.0000
 X5.5323 Y4.8941
 X5.5014 Y4.7923
 X5.4513 Y4.6985
 X5.3838 Y4.6162
 X5.3015 Y4.5487
 X5.2077 Y4.4986
 X5.1059 Y4.4677
 X5.0000 Y4.4573
 X4.8941 Y4.4677
 X4.7923 Y4.4986
 X4.6985 Y4.5487
 X4.6162 Y4.6162
 X4.5487 Y4.6985
 X4.4986 Y4.7923
 X4.4677 Y4.8941
 X4.4573 Y5.0000
 X4.4677 Y5.1059
 X4.4986 Y5.2077
 X4.5487 Y5.3015
 X4.6162 Y5.3838
 X4.6985 Y5.4513
 X4.7923 Y5.5014
 X4.8941 Y5.5323
 X5.0000 Y5.5427
 X5.1059 Y5.5323
 X5.2077 Y5.5014
 X5.3015 Y5.4513
 X5.3838 Y5.3838
 X5.4513 Y5.3015
 X5.5014 Y5.2077
G0 Z3.0000
 X51.9485 Y35.9162
G1 Z-4.0000
 X51.3422 Y36.2403
 X50.6842 Y36.4399
 X50.0737 Y36.5000
 X1.9263
 X1.3158 Y36.4399
 X0.6578 Y36.2403
 X0.0515 Y35.9162
 X-0.4800 Y35.4800
 X-0.9162 Y34.9485
 X-1.2403 Y34.3422
 X-1.4399 Y33.6842
 X-1.5000 Y33.0737
 Y1.9263
 X-1.4399 Y1.3158
 X-1.2403 Y0.6578
 X-0.9162 Y0.0515
 X-0.4800 Y-0.4800
 X0.0515 Y-0.9162
 X0.6578 Y-1.2403
 X1.3158 Y-1.4399
 X1.9263 Y-1.5000
 X50.0737
 X50.6842 Y-1.4399
 X51.3422 Y-1.2403
 X51.9485 Y-0.9162
 X52.4800 Y-0.4800
 X52.9162 Y0.0515
 X53.2403 Y0.6578
 X53.4399 Y1.3158
 X53.5000 Y1.9263
 Y33.0737
 X53.4399 Y33.6842
 X53.2403 Y34.3422
 X52.9162 Y34.9485
 X52.4800 Y35.4800
 X51.9485 Y35.9162
G0 Z3.0000
M5 (stop spindle)
G04 P3 (wait for 3 seconds)
G0 Z3.0000
M2 (end program)
