;PYCAM-META-DATA: Filename: C:\Users\Felix\Desktop\Beep\Hardware\GetriebeB\frontcncld.stl
;PYCAM-META-DATA: Timestamp: 2013-06-04 07:27:12.506000
;PYCAM-META-DATA: Version: 0.5.1
;Estimated machine time: 3 minutes
G40 (disable tool radius compensation)
G49 (disable tool length compensation)
G80 (cancel modal motion)
G54 (select coordinate system 1)
G90 (disable incremental moves)
G21 (metric)
G61 (exact path mode)
F200.00000
S1000.00000
;PYCAM_TOOLPATH_SETTINGS: START
;[Bounds]
;maxz = 0.0
;maxx = 50.5
;maxy = 33.5
;minx = 1.5
;miny = 1.5
;minz = -4.0
;
;[Tool]
;torus_radius = 0.25
;speed = 1000.0
;shape = CylindricalCutter
;tool_radius = 1.5
;feedrate = 200.0
;
;[Process]
;generator = ContourFollow
;pocketing_type = none
;engrave_offset = 0.0
;milling_style = conventional
;path_direction = x
;step_down = 1.5
;postprocessor = SimpleCutter
;overlap_percent = 0
;material_allowance = 0.0
;
;PYCAM_TOOLPATH_SETTINGS: END
T1 M6
G0 Z3.0000
M3 (start spindle)
G04 P3 (wait for 3 seconds)
 X18.5365 Y17.5176
G1 Z-1.3333
 X18.5395 Y17.5089
 X18.5405 Y17.5001
 X18.5395 Y17.4909
 X18.5175 Y17.5365
 X18.5253 Y17.5317
 X18.5317 Y17.5252
 X18.4999 Y17.5405
 X18.5091 Y17.5395
 X18.4824 Y17.5365
 X18.4911 Y17.5395
 X18.4635 Y17.5175
 X18.4683 Y17.5253
 X18.4748 Y17.5317
 X18.5365 Y17.4825
 X18.5317 Y17.4747
 X18.5252 Y17.4683
 X18.4635 Y17.4824
 X18.4605 Y17.4911
 X18.4595 Y17.4999
 X18.4605 Y17.5091
 X18.4825 Y17.4635
 X18.4747 Y17.4683
 X18.4683 Y17.4748
 X18.5091 Y17.4605
 X18.4999 Y17.4595
G0 Z3.0000
 X22.1234 Y21.1267
G1 Z-1.3333
 X21.8024 Y21.4245
 X21.6155 Y21.5759
 X21.2536 Y21.8226
 X21.0660 Y21.9445
 X20.8666 Y22.0461
 X20.4721 Y22.2360
 X20.2475 Y22.3223
 X19.8291 Y22.4513
 X19.6021 Y22.5121
 X19.3924 Y22.5454
 X18.9592 Y22.6107
 X18.7190 Y22.6232
 X18.2810
 X18.0352 Y22.6104
 X17.8362 Y22.5788
 X17.4033 Y22.5136
 X17.1709 Y22.4513
 X16.7525 Y22.3223
 X16.5279 Y22.2360
 X16.1334 Y22.0461
 X15.9340 Y21.9445
 X15.7464 Y21.8226
 X15.3845 Y21.5759
 X15.1976 Y21.4245
 X14.8766 Y21.1267
 X14.7104 Y20.9605
 X14.5768 Y20.7956
 X14.3036 Y20.4530
 X14.1726 Y20.2512
 X13.9537 Y19.8720
 X13.8419 Y19.6526
 X13.7698 Y19.4649
 X13.6097 Y19.0570
 X13.5475 Y18.8246
 X13.4500 Y18.3977
 X13.4124 Y18.1601
 X13.3797 Y17.7234
 X13.3680 Y17.5000
 X13.3797 Y17.2766
 X13.4124 Y16.8399
 X13.4500 Y16.6023
 X13.5475 Y16.1754
 X13.6083 Y15.9484
 X13.6845 Y15.7500
 X13.8444 Y15.3424
 X13.9537 Y15.1280
 X14.1726 Y14.7488
 X14.3067 Y14.5423
 X14.4333 Y14.3860
 X14.7065 Y14.0434
 X14.8766 Y13.8733
 X15.1976 Y13.5755
 X15.3845 Y13.4241
 X15.7464 Y13.1774
 X15.9340 Y13.0555
 X16.1334 Y12.9539
 X16.5279 Y12.7640
 X16.7525 Y12.6777
 X17.1709 Y12.5487
 X17.3979 Y12.4879
 X17.6076 Y12.4546
 X18.0408 Y12.3893
 X18.2810 Y12.3768
 X18.7190
 X18.9648 Y12.3896
 X19.1638 Y12.4212
 X19.5967 Y12.4864
 X19.8291 Y12.5487
 X20.2475 Y12.6777
 X20.4721 Y12.7640
 X20.8666 Y12.9539
 X21.0660 Y13.0555
 X21.2536 Y13.1774
 X21.6155 Y13.4241
 X21.8024 Y13.5755
 X22.1234 Y13.8733
 X22.2896 Y14.0395
 X22.4232 Y14.2044
 X22.6964 Y14.5470
 X22.8274 Y14.7488
 X23.0463 Y15.1280
 X23.1581 Y15.3474
 X23.2302 Y15.5351
 X23.3903 Y15.9430
 X23.4525 Y16.1754
 X23.5500 Y16.6023
 X23.5876 Y16.8399
 X23.6203 Y17.2766
 X23.6320 Y17.5000
 X23.6203 Y17.7234
 X23.5876 Y18.1601
 X23.5500 Y18.3977
 X23.4525 Y18.8246
 X23.3917 Y19.0516
 X23.3155 Y19.2500
 X23.1556 Y19.6576
 X23.0463 Y19.8720
 X22.8274 Y20.2512
 X22.6933 Y20.4577
 X22.5667 Y20.6140
 X22.2935 Y20.9566
 X22.1234 Y21.1267
G0 Z3.0000
 X47.3837 Y30.3838
G1 Z-2.6667
 X47.4513 Y30.3015
 X47.5014 Y30.2077
 X47.5323 Y30.1059
 X47.5427 Y30.0000
 X47.5323 Y29.8940
 Y29.8942
 X47.5014 Y29.7922
 X47.1058 Y30.5323
 X47.2077 Y30.5014
 X47.3015 Y30.4513
 X47.3838 Y30.3837
 X46.7922 Y30.5014
 X46.8941 Y30.5323
 X47.0000 Y30.5427
 X47.1060 Y30.5323
 X46.6162 Y30.3837
 X46.6985 Y30.4513
 X46.7924 Y30.5014
 X46.4985 Y30.2076
 X46.5487 Y30.3015
 X46.6163 Y30.3838
 X46.4677 Y30.1058
 X46.4986 Y30.2078
 Y29.7922
 X46.4677 Y29.8941
 X46.4573 Y30.0000
 X46.4677 Y30.1060
 X47.5015 Y29.7924
 X47.4512 Y29.6984
 X47.4513 Y29.6985
 X47.3837 Y29.6162
 X47.3838 Y29.6163
 X47.3015 Y29.5487
 X47.2076 Y29.4986
 X47.2078
 X47.1059 Y29.4677
 X46.9999 Y29.4573
 X47.0001
 X46.8941 Y29.4677
 X46.7923 Y29.4986
 X46.6985 Y29.5487
 X46.6162 Y29.6163
 X46.6163 Y29.6162
 X46.5487 Y29.6985
 X46.4985 Y29.7924
G0 Z3.0000
 X33.4909 Y17.5395
G1 Z-2.6667
 X33.5000 Y17.5405
 X33.5091 Y17.5395
 X33.5089
 X33.5176 Y17.5365
 X33.5253 Y17.5316
 X33.4747
 X33.4824 Y17.5365
 X33.4911 Y17.5395
G0 Z3.0000
 X46.9999 Y5.5427
G1 Z-2.6667
 X47.1059 Y5.5323
 X47.2078 Y5.5014
 X46.7922
 X46.8941 Y5.5323
 X47.0001 Y5.5427
 X47.2076 Y5.5015
 X47.3015 Y5.4513
 X47.3838 Y5.3838
 X47.4513 Y5.3015
 X47.5014 Y5.2077
 X47.5323 Y5.1059
 X47.5427 Y5.0000
 X47.5323 Y4.8940
 Y4.8942
 X47.5014 Y4.7923
 X47.4512 Y4.6984
 X47.4513 Y4.6985
 X47.3837 Y4.6162
 X47.3838 Y4.6163
 X47.3015 Y4.5487
 X47.3016 Y4.5488
 X47.2076 Y4.4985
 X47.2078 Y4.4986
 X47.1059 Y4.4677
 X46.9999 Y4.4573
 X47.0001
 X46.8941 Y4.4677
 X46.7922 Y4.4986
G0 Z3.0000
 X33.5252 Y17.5317
G1 Z-2.6667
 X33.5317 Y17.5253
 X33.5365 Y17.5175
 Y17.5176
 X33.5395 Y17.5090
 X33.5405 Y17.4999
 Y17.5001
 X33.5395 Y17.4910
 X33.5365 Y17.4824
 X33.5317 Y17.4747
 X33.5252 Y17.4683
 X33.4635 Y17.5175
 X33.4683 Y17.5253
 X33.4748 Y17.5317
 X33.4605 Y17.5089
 X33.4635 Y17.5176
 X33.4605 Y17.4909
 X33.4595 Y17.5000
 X33.4605 Y17.5091
 X33.4635 Y17.4824
 X33.4605 Y17.4911
 X33.5253 Y17.4684
 X33.5176 Y17.4635
 X33.5090 Y17.4605
 X33.5000 Y17.4595
 X33.4910 Y17.4605
 X33.4824 Y17.4635
 X33.4748 Y17.4683
 X33.4683 Y17.4747
 X33.4635 Y17.4825
 X33.4825 Y17.4635
 X33.4747 Y17.4684
G0 Z3.0000
 X46.6984 Y5.4512
G1 Z-2.6667
 X46.7924 Y5.5015
 X46.6162 Y5.3837
 X46.6985 Y5.4513
 X46.4985 Y5.2076
 X46.5487 Y5.3015
 X46.6163 Y5.3838
 X46.4677 Y5.1058
 X46.4986 Y5.2078
 X46.7924 Y4.4985
 X46.6985 Y4.5487
 X46.6162 Y4.6162
 X46.5487 Y4.6985
 X46.4985 Y4.7924
 X46.4986 Y4.7922
 X46.4677 Y4.8941
 X46.4573 Y5.0000
 X46.4677 Y5.1060
G0 Z3.0000
 X18.5395 Y17.5091
G1 Z-2.6667
 X18.5405 Y17.4999
 X18.5395 Y17.4911
 X18.5365 Y17.4824
G0 Z3.0000
 X5.5427 Y30.0001
G1 Z-2.6667
 X5.5323 Y29.8941
 X5.5014 Y29.7922
 X5.3837 Y30.3838
 X5.4513 Y30.3015
 X5.5014 Y30.2077
 X5.5323 Y30.1059
 X5.5427 Y29.9999
 X5.5015 Y29.7924
 X5.4512 Y29.6984
 X5.2076 Y30.5015
 X5.3015 Y30.4513
 X5.3838 Y30.3837
 X5.4513 Y29.6985
 X5.3837 Y29.6162
 X5.3838 Y29.6163
 X5.3015 Y29.5487
 X5.2076 Y29.4985
 X5.1058 Y30.5323
 X5.2078 Y30.5014
 X4.7922
 X4.8941 Y30.5323
 X5.0000 Y30.5427
 X5.1060 Y30.5323
 X4.6162 Y30.3837
 X4.6985 Y30.4513
 X4.7924 Y30.5015
 X4.5487 Y30.3015
 X4.6163 Y30.3838
 X4.4985 Y30.2076
 X4.5488 Y30.3016
 X5.2078 Y29.4986
 X5.1059 Y29.4677
 X5.0000 Y29.4573
 X4.8941 Y29.4677
 X4.7922 Y29.4986
 X4.4677 Y30.1058
 X4.4986 Y30.2078
 X4.7924 Y29.4985
 X4.6985 Y29.5487
 X4.6162 Y29.6163
 X4.6163 Y29.6162
 X4.5487 Y29.6985
 X4.4986 Y29.7923
 X4.4677 Y29.8941
 X4.4573 Y30.0000
 X4.4677 Y30.1060
G0 Z3.0000
 X18.5252 Y17.5317
G1 Z-2.6667
 X18.5317 Y17.5253
 X18.5365 Y17.5175
 X18.5089 Y17.5395
 X18.5176 Y17.5365
 X18.4909 Y17.5395
 X18.5001 Y17.5405
 X18.4683 Y17.5252
 X18.4747 Y17.5317
 X18.4825 Y17.5365
 X18.4605 Y17.5089
 X18.4635 Y17.5176
 X18.4748 Y17.4683
 X18.4683 Y17.4747
 X18.4635 Y17.4825
 X18.4605 Y17.4909
 X18.4595 Y17.5001
 X18.5317 Y17.4748
 X18.5253 Y17.4683
 X18.5175 Y17.4635
 X18.5091 Y17.4605
 X18.4999 Y17.4595
G0 Z3.0000
 X5.3015 Y5.4513
G1 Z-2.6667
 X5.3838 Y5.3837
 X5.2076 Y5.5015
 X5.3016 Y5.4512
 X4.9999 Y5.5427
 X5.1059 Y5.5323
 X5.2078 Y5.5014
 X4.6984 Y5.4512
 X4.7923 Y5.5014
 X4.8941 Y5.5323
 X5.0001 Y5.5427
 X4.5487 Y5.3015
 X4.6162 Y5.3838
 X4.6985 Y5.4513
 X5.3837 Y5.3838
 X5.4513 Y5.3015
 X5.5014 Y5.2077
 X5.5323 Y5.1059
 X5.5427 Y4.9999
 Y5.0001
 X5.5323 Y4.8941
 X5.5014 Y4.7922
 X5.5015 Y4.7924
 X5.4512 Y4.6984
 X5.4513 Y4.6985
 X5.3837 Y4.6162
 X4.8942 Y4.4677
 X4.7922 Y4.4986
 X5.3838 Y4.6163
 X5.3015 Y4.5487
 X5.2077 Y4.4986
 X5.1059 Y4.4677
 X5.0000 Y4.4573
 X4.8940 Y4.4677
 X4.7924 Y4.4985
 X4.6985 Y4.5487
 X4.6162 Y4.6162
 X4.5487 Y4.6985
 X4.4677 Y5.1058
 X4.4986 Y5.2077
 X4.5488 Y5.3016
 X4.4677 Y4.8941
 X4.4573 Y5.0000
 X4.4677 Y5.1060
 X4.4986 Y4.7922
 X4.4677 Y4.8942
G0 Z3.0000
 X47.5323 Y30.1059
G1 Z-4.0000
 X47.5427 Y30.0000
 X47.5323 Y29.8941
 X47.5014 Y29.7923
 X47.4513 Y29.6985
 X47.3838 Y29.6162
 X47.3015 Y29.5487
 X47.2077 Y29.4986
 X47.1059 Y29.4677
 X47.0000 Y29.4573
 X46.8941 Y29.4677
 X46.7923 Y29.4986
 X46.6985 Y29.5487
 X46.6162 Y29.6162
 X46.5487 Y29.6985
 X46.4986 Y29.7923
 X46.4677 Y29.8941
 X46.4573 Y30.0000
 X46.4677 Y30.1059
 X46.4986 Y30.2077
 X46.5487 Y30.3015
 X46.6162 Y30.3838
 X46.6985 Y30.4513
 X46.7923 Y30.5014
 X46.8941 Y30.5323
 X47.0000 Y30.5427
 X47.1059 Y30.5323
 X47.2077 Y30.5014
 X47.3015 Y30.4513
 X47.3838 Y30.3838
 X47.4513 Y30.3015
 X47.5014 Y30.2077
 X47.5323 Y30.1059
G0 Z3.0000
 X33.5176 Y17.5365
G1 Z-4.0000
 X33.5253 Y17.5317
 X33.5317 Y17.5253
 X33.5365 Y17.5176
 X33.5395 Y17.5090
 X33.5405 Y17.5000
 X33.5395 Y17.4910
 X33.5365 Y17.4824
 X33.5317 Y17.4747
 X33.5253 Y17.4683
 X33.5176 Y17.4635
 X33.5090 Y17.4605
 X33.5000 Y17.4595
 X33.4910 Y17.4605
 X33.4824 Y17.4635
 X33.4747 Y17.4683
 X33.4683 Y17.4747
 X33.4635 Y17.4824
 X33.4605 Y17.4910
 X33.4595 Y17.5000
 X33.4605 Y17.5090
 X33.4635 Y17.5176
 X33.4683 Y17.5253
 X33.4747 Y17.5317
 X33.4824 Y17.5365
 X33.4910 Y17.5395
 X33.5000 Y17.5405
 X33.5090 Y17.5395
 X33.5176 Y17.5365
G0 Z3.0000
 X47.3838 Y5.3838
G1 Z-4.0000
 X47.4513 Y5.3015
 X47.5014 Y5.2077
 X47.5323 Y5.1059
 X47.5427 Y5.0000
 X47.5323 Y4.8941
 X47.5014 Y4.7923
 X47.4513 Y4.6985
 X47.3838 Y4.6162
 X47.3015 Y4.5487
 X47.2077 Y4.4986
 X47.1059 Y4.4677
 X47.0000 Y4.4573
 X46.8941 Y4.4677
 X46.7923 Y4.4986
 X46.6985 Y4.5487
 X46.6162 Y4.6162
 X46.5487 Y4.6985
 X46.4986 Y4.7923
 X46.4677 Y4.8941
 X46.4573 Y5.0000
 X46.4677 Y5.1059
 X46.4986 Y5.2077
 X46.5487 Y5.3015
 X46.6162 Y5.3838
 X46.6985 Y5.4513
 X46.7923 Y5.5014
 X46.8941 Y5.5323
 X47.0000 Y5.5427
 X47.1059 Y5.5323
 X47.2077 Y5.5014
 X47.3015 Y5.4513
 X47.3838 Y5.3838
G0 Z3.0000
 X5.5323 Y30.1059
G1 Z-4.0000
 X5.5427 Y30.0000
 X5.5323 Y29.8941
 X5.5014 Y29.7923
 X5.4513 Y29.6985
 X5.3838 Y29.6162
 X5.3015 Y29.5487
 X5.2077 Y29.4986
 X5.1059 Y29.4677
 X5.0000 Y29.4573
 X4.8941 Y29.4677
 X4.7923 Y29.4986
 X4.6985 Y29.5487
 X4.6162 Y29.6162
 X4.5487 Y29.6985
 X4.4986 Y29.7923
 X4.4677 Y29.8941
 X4.4573 Y30.0000
 X4.4677 Y30.1059
 X4.4986 Y30.2077
 X4.5487 Y30.3015
 X4.6162 Y30.3838
 X4.6985 Y30.4513
 X4.7923 Y30.5014
 X4.8941 Y30.5323
 X5.0000 Y30.5427
 X5.1059 Y30.5323
 X5.2077 Y30.5014
 X5.3015 Y30.4513
 X5.3838 Y30.3838
 X5.4513 Y30.3015
 X5.5014 Y30.2077
 X5.5323 Y30.1059
G0 Z3.0000
 X18.5405 Y17.5000
G1 Z-4.0000
 X18.5395 Y17.4910
 X18.5365 Y17.4824
 X18.5317 Y17.4747
 X18.5253 Y17.4683
 X18.5176 Y17.4635
 X18.5090 Y17.4605
 X18.5000 Y17.4595
 X18.4910 Y17.4605
 X18.4824 Y17.4635
 X18.4747 Y17.4683
 X18.4683 Y17.4747
 X18.4635 Y17.4824
 X18.4605 Y17.4910
 X18.4595 Y17.5000
 X18.4605 Y17.5090
 X18.4635 Y17.5176
 X18.4683 Y17.5253
 X18.4747 Y17.5317
 X18.4824 Y17.5365
 X18.4910 Y17.5395
 X18.5000 Y17.5405
 X18.5090 Y17.5395
 X18.5176 Y17.5365
 X18.5253 Y17.5317
 X18.5317 Y17.5253
 X18.5365 Y17.5176
 X18.5395 Y17.5090
 X18.5405 Y17.5000
G0 Z3.0000
 X5.5014 Y5.2077
G1 Z-4.0000
 X5.5323 Y5.1059
 X5.5427 Y5.0000
 X5.5323 Y4.8941
 X5.5014 Y4.7923
 X5.4513 Y4.6985
 X5.3838 Y4.6162
 X5.3015 Y4.5487
 X5.2077 Y4.4986
 X5.1059 Y4.4677
 X5.0000 Y4.4573
 X4.8941 Y4.4677
 X4.7923 Y4.4986
 X4.6985 Y4.5487
 X4.6162 Y4.6162
 X4.5487 Y4.6985
 X4.4986 Y4.7923
 X4.4677 Y4.8941
 X4.4573 Y5.0000
 X4.4677 Y5.1059
 X4.4986 Y5.2077
 X4.5487 Y5.3015
 X4.6162 Y5.3838
 X4.6985 Y5.4513
 X4.7923 Y5.5014
 X4.8941 Y5.5323
 X5.0000 Y5.5427
 X5.1059 Y5.5323
 X5.2077 Y5.5014
 X5.3015 Y5.4513
 X5.3838 Y5.3838
 X5.4513 Y5.3015
 X5.5014 Y5.2077
G0 Z3.0000
M5 (stop spindle)
G04 P3 (wait for 3 seconds)
G0 Z3.0000
M2 (end program)
