;PYCAM-META-DATA: Filename: C:\Users\Felix\Desktop\Beep\Hardware\GetriebeB\frontcncld.stl
;PYCAM-META-DATA: Timestamp: 2013-06-04 07:27:49.497000
;PYCAM-META-DATA: Version: 0.5.1
;Estimated machine time: 10 minutes
G40 (disable tool radius compensation)
G49 (disable tool length compensation)
G80 (cancel modal motion)
G54 (select coordinate system 1)
G90 (disable incremental moves)
G21 (metric)
G61 (exact path mode)
F200.00000
S1000.00000
;PYCAM_TOOLPATH_SETTINGS: START
;[Bounds]
;maxz = -2.0
;maxx = 55.7
;maxy = 37.0
;minx = -3.7
;miny = -2.0
;minz = -4.0
;
;[Tool]
;torus_radius = 0.25
;speed = 1000.0
;shape = CylindricalCutter
;tool_radius = 1.5
;feedrate = 200.0
;
;[Process]
;generator = ContourFollow
;pocketing_type = none
;engrave_offset = 0.0
;milling_style = conventional
;path_direction = x
;step_down = 1.5
;postprocessor = SimpleCutter
;overlap_percent = 0
;material_allowance = 0.0
;
;PYCAM_TOOLPATH_SETTINGS: END
T1 M6
G0 Z3.0000
M3 (start spindle)
G04 P3 (wait for 3 seconds)
 X47.5323 Y30.1059
G1 Z-2.0000
 X47.5427 Y30.0000
 X47.5323 Y29.8941
 X47.5014 Y29.7923
 X47.4513 Y29.6985
 X47.3838 Y29.6162
 X47.3015 Y29.5487
 X47.2077 Y29.4986
 X47.1059 Y29.4677
 X47.0000 Y29.4573
 X46.8941 Y29.4677
 X46.7923 Y29.4986
 X46.6985 Y29.5487
 X46.6162 Y29.6162
 X46.5487 Y29.6985
 X46.4986 Y29.7923
 X46.4677 Y29.8941
 X46.4573 Y30.0000
 X46.4677 Y30.1059
 X46.4986 Y30.2077
 X46.5487 Y30.3015
 X46.6162 Y30.3838
 X46.6985 Y30.4513
 X46.7923 Y30.5014
 X46.8941 Y30.5323
 X47.0000 Y30.5427
 X47.1059 Y30.5323
 X47.2077 Y30.5014
 X47.3015 Y30.4513
 X47.3838 Y30.3838
 X47.4513 Y30.3015
 X47.5014 Y30.2077
 X47.5323 Y30.1059
G0 Z3.0000
 X33.5176 Y17.5365
G1 Z-2.0000
 X33.5253 Y17.5317
 X33.5317 Y17.5253
 X33.5365 Y17.5176
 X33.5395 Y17.5090
 X33.5405 Y17.5000
 X33.5395 Y17.4910
 X33.5365 Y17.4824
 X33.5317 Y17.4747
 X33.5253 Y17.4683
 X33.5176 Y17.4635
 X33.5090 Y17.4605
 X33.5000 Y17.4595
 X33.4910 Y17.4605
 X33.4824 Y17.4635
 X33.4747 Y17.4683
 X33.4683 Y17.4747
 X33.4635 Y17.4824
 X33.4605 Y17.4910
 X33.4595 Y17.5000
 X33.4605 Y17.5090
 X33.4635 Y17.5176
 X33.4683 Y17.5253
 X33.4747 Y17.5317
 X33.4824 Y17.5365
 X33.4910 Y17.5395
 X33.5000 Y17.5405
 X33.5090 Y17.5395
 X33.5176 Y17.5365
G0 Z3.0000
 X47.4513 Y5.3015
G1 Z-2.0000
 X47.5014 Y5.2077
 X47.5323 Y5.1059
 X47.5427 Y5.0000
 X47.5323 Y4.8941
 X47.5014 Y4.7923
 X47.4513 Y4.6985
 X47.3838 Y4.6162
 X47.3015 Y4.5487
 X47.2077 Y4.4986
 X47.1059 Y4.4677
 X47.0000 Y4.4573
 X46.8941 Y4.4677
 X46.7923 Y4.4986
 X46.6985 Y4.5487
 X46.6162 Y4.6162
 X46.5487 Y4.6985
 X46.4986 Y4.7923
 X46.4677 Y4.8941
 X46.4573 Y5.0000
 X46.4677 Y5.1059
 X46.4986 Y5.2077
 X46.5487 Y5.3015
 X46.6162 Y5.3838
 X46.6985 Y5.4513
 X46.7923 Y5.5014
 X46.8941 Y5.5323
 X47.0000 Y5.5427
 X47.1059 Y5.5323
 X47.2077 Y5.5014
 X47.3015 Y5.4513
 X47.3838 Y5.3838
 X47.4513 Y5.3015
G0 Z3.0000
 X5.5323 Y30.1059
G1 Z-2.0000
 X5.5427 Y30.0000
 X5.5323 Y29.8941
 X5.5014 Y29.7923
 X5.4513 Y29.6985
 X5.3838 Y29.6162
 X5.3015 Y29.5487
 X5.2077 Y29.4986
 X5.1059 Y29.4677
 X5.0000 Y29.4573
 X4.8941 Y29.4677
 X4.7923 Y29.4986
 X4.6985 Y29.5487
 X4.6162 Y29.6162
 X4.5487 Y29.6985
 X4.4986 Y29.7923
 X4.4677 Y29.8941
 X4.4573 Y30.0000
 X4.4677 Y30.1059
 X4.4986 Y30.2077
 X4.5487 Y30.3015
 X4.6162 Y30.3838
 X4.6985 Y30.4513
 X4.7923 Y30.5014
 X4.8941 Y30.5323
 X5.0000 Y30.5427
 X5.1059 Y30.5323
 X5.2077 Y30.5014
 X5.3015 Y30.4513
 X5.3838 Y30.3838
 X5.4513 Y30.3015
 X5.5014 Y30.2077
 X5.5323 Y30.1059
G0 Z3.0000
 X18.4999 Y17.5405
G1 Z-2.0000
 X18.5090 Y17.5395
 X18.5176 Y17.5365
 X18.5253 Y17.5317
 X18.5317 Y17.5252
 X18.4635 Y17.5175
 X18.4683 Y17.5253
 X18.4748 Y17.5317
 X18.5405 Y17.5001
 X18.5395 Y17.4910
 X18.5365 Y17.4824
 X18.5317 Y17.4747
 X18.5252 Y17.4683
 X18.4635 Y17.4824
 X18.4605 Y17.4911
 X18.4595 Y17.4999
 X18.4605 Y17.5091
 X18.4911 Y17.4605
 X18.4824 Y17.4635
 X18.4747 Y17.4683
 X18.4683 Y17.4748
 X18.5176 Y17.4635
 X18.5090 Y17.4605
 X18.4999 Y17.4595
G0 Z3.0000
 X5.5323 Y5.1059
G1 Z-2.0000
 X5.5427 Y5.0000
 X5.5323 Y4.8941
 X5.5014 Y4.7923
 X5.4513 Y4.6985
 X5.3838 Y4.6162
 X5.3015 Y4.5487
 X5.2077 Y4.4986
 X5.1059 Y4.4677
 X5.0000 Y4.4573
 X4.8941 Y4.4677
 X4.7923 Y4.4986
 X4.6985 Y4.5487
 X4.6162 Y4.6162
 X4.5487 Y4.6985
 X4.4986 Y4.7923
 X4.4677 Y4.8941
 X4.4573 Y5.0000
 X4.4677 Y5.1059
 X4.4986 Y5.2077
 X4.5487 Y5.3015
 X4.6162 Y5.3838
 X4.6985 Y5.4513
 X4.7923 Y5.5014
 X4.8941 Y5.5323
 X5.0000 Y5.5427
 X5.1059 Y5.5323
 X5.2077 Y5.5014
 X5.3015 Y5.4513
 X5.3838 Y5.3838
 X5.4513 Y5.3015
 X5.5014 Y5.2077
 X5.5323 Y5.1059
G0 Z3.0000
 X52.4800 Y35.4800
G1 Z-2.0000
 X51.9485 Y35.9162
 X51.3422 Y36.2403
 X50.6842 Y36.4399
 X50.0737 Y36.5000
 X1.9263
 X1.3158 Y36.4399
 X0.6578 Y36.2403
 X0.0515 Y35.9162
 X-0.4800 Y35.4800
 X-0.9162 Y34.9485
 X-1.2403 Y34.3422
 X-1.4399 Y33.6842
 X-1.5000 Y33.0737
 Y1.9263
 X-1.4399 Y1.3158
 X-1.2403 Y0.6578
 X-0.9162 Y0.0515
 X-0.4800 Y-0.4800
 X0.0515 Y-0.9162
 X0.6578 Y-1.2403
 X1.3158 Y-1.4399
 X1.9263 Y-1.5000
 X50.0737
 X50.6842 Y-1.4399
 X51.3422 Y-1.2403
 X51.9485 Y-0.9162
 X52.4800 Y-0.4800
 X52.9162 Y0.0515
 X53.2403 Y0.6578
 X53.4399 Y1.3158
 X53.5000 Y1.9263
 Y33.0737
 X53.4399 Y33.6842
 X53.2403 Y34.3422
 X52.9162 Y34.9485
 X52.4800 Y35.4800
G0 Z3.0000
 X52.2143 Y35.6981
G1 Z-3.0000
 X52.0627 Y35.8225
 X51.0132 Y36.3401
 X50.8256 Y36.3970
 X53.0782 Y34.6454
 X52.9858 Y34.8182
G0 Z3.0000
 X47.4763 Y30.2546
G1 Z-3.0000
 X47.5015 Y30.2076
 X47.5375 Y30.0529
 X47.5427 Y29.9999
 X47.5375 Y29.9471
 X47.5323 Y29.8940
 X47.4175 Y30.3426
 X47.4513 Y30.3015
 X47.3427 Y30.4175
 X47.3838 Y30.3837
 X47.1568 Y30.5169
 X47.2078 Y30.5014
 X47.0529 Y30.5375
 X47.1060 Y30.5323
 X46.9471 Y30.5375
 X47.0001 Y30.5427
 X46.8432 Y30.5169
 X46.8942 Y30.5323
 X46.6573 Y30.4175
 X46.6985 Y30.4513
 X46.5237 Y30.2546
 X46.5488 Y30.3016
 X46.4831 Y30.1568
 X46.4986 Y30.2078
 X46.4625 Y30.0529
 X46.4677 Y30.1060
 X46.4625 Y29.9471
 X46.4573 Y30.0001
 X46.4831 Y29.8432
 X46.4677 Y29.8942
 X47.4763 Y29.7454
 X47.4512 Y29.6984
 X47.3427 Y29.5825
 X47.3015 Y29.5487
 X47.1568 Y29.4831
 X47.1058 Y29.4677
 X46.8432 Y29.4831
 X46.7922 Y29.4986
 X46.6573 Y29.5825
 X46.6162 Y29.6163
 X46.5825 Y29.6574
 X46.5487 Y29.6985
 X46.5237 Y29.7454
 X46.4986 Y29.7923
 X46.4677 Y29.8941
 X46.4573 Y30.0000
 X46.4677 Y30.1059
 X46.4986 Y30.2077
 X46.5487 Y30.3015
 X46.5825 Y30.3426
 X46.6162 Y30.3838
 X46.6985 Y30.4513
 X46.7454 Y30.4763
 X46.7923 Y30.5014
 X46.8941 Y30.5323
 X47.0000 Y30.5427
 X47.1059 Y30.5323
 X47.2077 Y30.5014
 X47.2546 Y30.4763
 X47.3015 Y30.4513
 X47.3838 Y30.3838
 X47.4513 Y30.3015
 X47.5014 Y30.2077
 X47.5169 Y30.1568
 X47.5323 Y30.1059
 X47.5427 Y30.0000
 X47.5323 Y29.8941
 X47.5169 Y29.8432
 X47.5014 Y29.7923
 X47.4513 Y29.6985
 X47.4175 Y29.6574
 X47.3838 Y29.6162
 X47.3015 Y29.5487
 X47.2546 Y29.5237
 X47.2077 Y29.4986
 X47.1059 Y29.4677
 X47.0529 Y29.4625
 X47.0000 Y29.4573
 X46.9471 Y29.4625
 X46.8941 Y29.4677
 X46.7923 Y29.4986
 X46.7454 Y29.5237
 X46.6985 Y29.5487
 X46.6162 Y29.6162
 X46.5487 Y29.6985
 X46.4985 Y29.7924
G0 Z3.0000
 X33.4955 Y17.5400
G1 Z-3.0000
 X33.5001 Y17.5405
 X33.5045 Y17.5400
 X33.5091 Y17.5395
G0 Z3.0000
 X53.5000 Y2.0000
G1 Z-3.0000
 Y17.5000
G0 Z3.0000
 X33.5285 Y17.5285
G1 Z-3.0000
 X33.5317 Y17.5252
 X33.4867 Y17.5380
 X33.4911 Y17.5395
 X33.4715 Y17.5285
 X33.4748 Y17.5317
G0 Z3.0000
 X47.0529 Y5.5375
G1 Z-3.0000
 X47.1060 Y5.5323
 X46.9471 Y5.5375
 X47.0001 Y5.5427
 X46.8432 Y5.5169
 X46.8942 Y5.5323
 X47.4175 Y5.3426
 X47.4513 Y5.3015
 X47.4763 Y5.2546
 X47.5015 Y5.2076
 X47.4763 Y4.7454
 X47.4512 Y4.6984
 X47.3426 Y4.5825
 X47.3015 Y4.5487
G0 Z3.0000
 X52.6981 Y-0.2143
G1 Z-3.0000
 X52.8225 Y-0.0627
 X52.2143 Y-0.6981
 X52.3658 Y-0.5737
 X50.3421 Y-1.4736
 X50.5372 Y-1.4544
G0 Z3.0000
 X47.1568 Y4.4831
G1 Z-3.0000
 X47.1058 Y4.4677
 X47.0529 Y4.4625
 X46.9999 Y4.4573
 X46.9471 Y4.4625
 X46.8940 Y4.4677
G0 Z3.0000
 X33.5400 Y17.5045
G1 Z-3.0000
 X33.5405 Y17.4999
 X33.5400 Y17.4955
 X33.5395 Y17.4909
 X33.5341 Y17.5214
 X33.5365 Y17.5175
 X33.5380 Y17.5133
 X33.5395 Y17.5089
 X33.5341 Y17.4786
 X33.5316 Y17.4747
 X33.5285 Y17.4715
 X33.5252 Y17.4683
 X33.4659 Y17.5214
 X33.4684 Y17.5253
 X33.4600 Y17.5045
 X33.4605 Y17.5091
 X33.4600 Y17.4955
 X33.4595 Y17.5001
 X33.4659 Y17.4786
 X33.4635 Y17.4825
 X33.5045 Y17.4600
 X33.4999 Y17.4595
 X33.4715 Y17.4715
 X33.4683 Y17.4748
 X33.4955 Y17.4600
 X33.4910 Y17.4605
 X33.4867 Y17.4620
 X33.4824 Y17.4635
 X33.4786 Y17.4659
 X33.4747 Y17.4683
 X33.4683 Y17.4747
 X33.4635 Y17.4824
 X33.4620 Y17.4867
 X33.4605 Y17.4910
 X33.4595 Y17.5000
 X33.4605 Y17.5090
 X33.4620 Y17.5133
 X33.4635 Y17.5176
 X33.4683 Y17.5253
 X33.4747 Y17.5317
 X33.4786 Y17.5341
 X33.4824 Y17.5365
 X33.4910 Y17.5395
 X33.5000 Y17.5405
 X33.5090 Y17.5395
 X33.5133 Y17.5380
 X33.5176 Y17.5365
 X33.5214 Y17.5341
 X33.5253 Y17.5317
 X33.5317 Y17.5253
 X33.5365 Y17.5176
 X33.5395 Y17.5090
 X33.5405 Y17.5000
 X33.5395 Y17.4910
 X33.5380 Y17.4867
 X33.5365 Y17.4824
 X33.5317 Y17.4747
 X33.5253 Y17.4683
 X33.5214 Y17.4659
 X33.5176 Y17.4635
 X33.5133 Y17.4620
 X33.5090 Y17.4605
 X33.5000 Y17.4595
 X33.4909 Y17.4605
G0 Z3.0000
 X46.6574 Y5.4175
G1 Z-3.0000
 X46.6985 Y5.4513
 X46.5237 Y5.2546
 X46.5488 Y5.3016
 X46.4831 Y5.1568
 X46.4986 Y5.2078
 X46.5825 Y4.6574
 X46.5487 Y4.6985
 X46.4831 Y4.8432
 X46.4677 Y4.8942
 X46.5237 Y4.7454
 X46.4986 Y4.7923
 X46.4677 Y4.8941
 X46.4625 Y4.9471
 X46.4573 Y5.0000
 X46.4625 Y5.0529
 X46.4677 Y5.1059
 X46.4986 Y5.2077
 X46.5487 Y5.3015
 X46.5825 Y5.3426
 X46.6162 Y5.3838
 X46.6985 Y5.4513
 X46.7454 Y5.4763
 X46.7923 Y5.5014
 X46.8941 Y5.5323
 X47.0000 Y5.5427
 X47.1059 Y5.5323
 X47.1568 Y5.5169
 X47.2077 Y5.5014
 X47.2546 Y5.4763
 X47.3015 Y5.4513
 X47.3426 Y5.4175
 X47.3838 Y5.3838
 X47.4513 Y5.3015
 X47.5014 Y5.2077
 X47.5169 Y5.1568
 X47.5323 Y5.1059
 X47.5375 Y5.0529
 X47.5427 Y5.0000
 X47.5375 Y4.9471
 X47.5323 Y4.8941
 X47.5169 Y4.8432
 X47.5014 Y4.7923
 X47.4513 Y4.6985
 X47.4175 Y4.6574
 X47.3838 Y4.6162
 X47.3015 Y4.5487
 X47.2546 Y4.5237
 X47.2077 Y4.4986
 X47.1059 Y4.4677
 X47.0000 Y4.4573
 X46.8941 Y4.4677
 X46.8432 Y4.4831
 X46.7923 Y4.4986
 X46.7454 Y4.5237
 X46.6985 Y4.5487
 X46.6574 Y4.5825
 X46.6162 Y4.6162
 X46.5487 Y4.6985
 X46.4985 Y4.7924
G0 Z3.0000
 X5.5169 Y30.1568
G1 Z-3.0000
 X5.5323 Y30.1058
 X5.5375 Y30.0529
 X5.5427 Y29.9999
 X5.5375 Y29.9471
 X5.5323 Y29.8940
 X5.5169 Y29.8432
 X5.5014 Y29.7922
 X5.4175 Y30.3427
 X5.4513 Y30.3015
 X5.4763 Y30.2546
 X5.5015 Y30.2076
 X5.3427 Y30.4175
 X5.3838 Y30.3837
 X5.4763 Y29.7454
 X5.4512 Y29.6984
 X5.2546 Y30.4763
 X5.3016 Y30.4512
 X5.4175 Y29.6573
 X5.3837 Y29.6162
 X5.3427 Y29.5825
 X5.3015 Y29.5487
 X5.2546 Y29.5237
 X5.2076 Y29.4985
 X5.1568 Y30.5169
 X5.2078 Y30.5014
 X5.0529 Y30.5375
 X5.1060 Y30.5323
 X4.8432 Y30.5169
 X4.8942 Y30.5323
 X4.9471 Y30.5375
 X5.0001 Y30.5427
G0 Z3.0000
 X50.3421 Y36.4736
G1 Z-3.0000
 X50.0737 Y36.5000
 X1.9263
 X1.4628 Y36.4544
 X1.6579 Y36.4736
 X1.3158 Y36.4399
 X0.7992 Y36.2832
G0 Z3.0000
 X4.7454 Y30.4763
G1 Z-3.0000
 X4.7924 Y30.5015
G0 Z3.0000
 X0.9868 Y36.3401
G1 Z-3.0000
 X0.6578 Y36.2403
 X0.1818 Y35.9858
 X0.3546 Y36.0782
 X0.0515 Y35.9162
 X-0.3658 Y35.5737
G0 Z3.0000
 X4.6573 Y30.4175
G1 Z-3.0000
 X4.6985 Y30.4513
 X4.5825 Y30.3427
 X4.6163 Y30.3838
 X4.5237 Y30.2546
 X4.5488 Y30.3016
 X4.4831 Y30.1568
 X4.4986 Y30.2078
 X5.1568 Y29.4831
 X5.1058 Y29.4677
 X4.9471 Y29.4625
 X4.8940 Y29.4677
 X4.8432 Y29.4831
 X4.7922 Y29.4986
 X4.7454 Y29.5237
 X4.6984 Y29.5488
 X4.4625 Y30.0529
 X4.4677 Y30.1060
 X4.4625 Y29.9471
 X4.4573 Y30.0001
 X4.4831 Y29.8432
 X4.4677 Y29.8942
 X4.5237 Y29.7454
 X4.4985 Y29.7924
 X4.5825 Y29.6573
 X4.5487 Y29.6985
 X4.6573 Y29.5825
 X4.6162 Y29.6162
 X4.5487 Y29.6985
 X4.4986 Y29.7923
 X4.4677 Y29.8941
 X4.4573 Y30.0000
 X4.4677 Y30.1059
 X4.4986 Y30.2077
 X4.5487 Y30.3015
 X4.6162 Y30.3838
 X4.6985 Y30.4513
 X4.7923 Y30.5014
 X4.8941 Y30.5323
 X5.0000 Y30.5427
 X5.1059 Y30.5323
 X5.2077 Y30.5014
 X5.3015 Y30.4513
 X5.3838 Y30.3838
 X5.4513 Y30.3015
 X5.5014 Y30.2077
 X5.5323 Y30.1059
 X5.5427 Y30.0000
 X5.5323 Y29.8941
 X5.5014 Y29.7923
 X5.4513 Y29.6985
 X5.3838 Y29.6162
 X5.3015 Y29.5487
 X5.2077 Y29.4986
 X5.1059 Y29.4677
 X5.0529 Y29.4625
 X5.0000 Y29.4573
 X4.8941 Y29.4677
 X4.7923 Y29.4986
 X4.6985 Y29.5487
 X4.6162 Y29.6163
G0 Z3.0000
 X18.5089 Y17.5395
G1 Z-3.0000
 X18.5176 Y17.5365
 X18.5253 Y17.5317
 X18.5317 Y17.5253
 X18.5365 Y17.5176
 X18.5395 Y17.5090
 X18.5405 Y17.4999
 X18.4909 Y17.5395
 X18.5001 Y17.5405
 X18.4605 Y17.5089
 X18.4635 Y17.5176
 X18.4683 Y17.5252
 X18.4748 Y17.5317
G0 Z3.0000
 X-0.2143 Y35.6981
G1 Z-3.0000
 X-0.4800 Y35.4800
 X-0.6981 Y35.2143
 X-0.9162 Y34.9485
 X-1.0782 Y34.6454
 X-1.2403 Y34.3422
 X-1.3401 Y34.0132
 X-1.4399 Y33.6842
 X-1.5000 Y33.0737
 Y17.5000
G0 Z3.0000
 X18.5317 Y17.4748
G1 Z-3.0000
 X18.5252 Y17.4683
 X18.4605 Y17.4909
 X18.4595 Y17.5001
 X18.5176 Y17.4635
 X18.5089 Y17.4605
 X18.5001 Y17.4595
 X18.4910 Y17.4605
 X18.4824 Y17.4635
 X18.4747 Y17.4683
 X18.4683 Y17.4747
 X18.4635 Y17.4825
G0 Z3.0000
 X5.4763 Y5.2546
G1 Z-3.0000
 X5.5014 Y5.2076
 X5.4175 Y5.3427
 X5.4513 Y5.3015
 X5.3426 Y5.4175
 X5.3838 Y5.3837
 X5.2546 Y5.4763
 X5.3016 Y5.4512
 X5.1568 Y5.5169
 X5.2078 Y5.5014
 X5.0529 Y5.5375
 X5.1060 Y5.5323
 X4.8432 Y5.5169
 X4.8942 Y5.5323
 X4.6574 Y5.4175
 X4.6985 Y5.4513
 X4.7454 Y5.4763
 X4.7924 Y5.5015
 X4.5237 Y5.2546
 X4.5488 Y5.3016
 X5.5169 Y5.1568
 X5.5323 Y5.1058
 X5.4763 Y4.7454
 X5.4512 Y4.6984
 X5.4175 Y4.6573
 X5.3837 Y4.6162
 X5.3426 Y4.5825
 X5.3015 Y4.5487
 X5.2546 Y4.5237
 X5.2076 Y4.4985
 X5.1568 Y4.4831
 X5.1058 Y4.4677
 X5.0529 Y4.4625
 X4.9999 Y4.4573
 X4.9471 Y4.4625
 X4.8940 Y4.4677
 X4.7454 Y4.5237
 X4.6984 Y4.5488
 X4.6574 Y4.5825
 X4.6162 Y4.6163
 X4.5237 Y4.7454
 X4.4986 Y4.7924
 X4.4831 Y4.8432
 X4.4677 Y4.8941
 X4.4625 Y4.9471
 X4.4573 Y5.0000
 X4.4625 Y5.0529
 X4.4677 Y5.1059
 X4.4831 Y5.1568
 X4.4986 Y5.2077
 X4.5487 Y5.3015
 X4.5825 Y5.3427
 X4.6162 Y5.3838
 X4.6985 Y5.4513
 X4.7923 Y5.5014
 X4.8941 Y5.5323
 X4.9471 Y5.5375
 X5.0000 Y5.5427
 X5.1059 Y5.5323
 X5.2077 Y5.5014
 X5.3015 Y5.4513
 X5.3838 Y5.3838
 X5.4513 Y5.3015
 X5.5014 Y5.2077
 X5.5323 Y5.1059
 X5.5375 Y5.0529
 X5.5427 Y5.0000
 X5.5375 Y4.9471
 X5.5323 Y4.8941
 X5.5169 Y4.8432
 X5.5014 Y4.7923
 X5.4513 Y4.6985
 X5.3838 Y4.6162
 X5.3015 Y4.5487
 X5.2077 Y4.4986
 X5.1059 Y4.4677
 X5.0000 Y4.4573
 X4.8941 Y4.4677
 X4.8432 Y4.4831
 X4.7923 Y4.4986
 X4.6985 Y4.5487
 X4.6162 Y4.6162
 X4.5825 Y4.6573
 X4.5487 Y4.6985
 X4.4986 Y4.7923
 X4.4677 Y4.8942
G0 Z3.0000
 X1.6579 Y-1.4736
G1 Z-3.0000
 X1.9263 Y-1.5000
 X26.0000
G0 Z3.0000
 X0.3546 Y-1.0782
G1 Z-3.0000
 X0.5275 Y-1.1707
 X-0.2143 Y-0.6981
 X-0.0627 Y-0.8225
 X-0.6981 Y-0.2143
 X-0.5737 Y-0.3658
 X-1.0782 Y0.3546
 X-0.9162 Y0.0515
 X-0.4800 Y-0.4800
 X0.0515 Y-0.9162
 X0.6578 Y-1.2403
 X0.9868 Y-1.3401
 X1.3158 Y-1.4399
 X1.9263 Y-1.5000
 X50.0737
 X50.6842 Y-1.4399
 X51.0132 Y-1.3401
 X51.3422 Y-1.2403
 X51.6454 Y-1.0782
 X51.9485 Y-0.9162
 X52.4800 Y-0.4800
 X52.9162 Y0.0515
 X53.0782 Y0.3546
 X53.2403 Y0.6578
 X53.3401 Y0.9868
 X53.4399 Y1.3158
 X53.4736 Y1.6579
 X53.5000 Y1.9263
 Y33.0737
 X53.4736 Y33.3421
 X53.4399 Y33.6842
 X53.3401 Y34.0132
 X53.2403 Y34.3422
 X52.9162 Y34.9485
 X52.6981 Y35.2143
 X52.4800 Y35.4800
 X51.9485 Y35.9162
 X51.6454 Y36.0782
 X51.3422 Y36.2403
 X50.6842 Y36.4399
 X50.0737 Y36.5000
 X26.0000
G0 Z3.0000
 X-1.4736 Y33.3421
G1 Z-3.0000
 X-1.5000 Y33.0737
 Y1.9263
 X-1.4736 Y1.6579
 X-1.4399 Y1.3158
 X-1.2832 Y0.7992
 X-1.3401 Y0.9868
 X-1.2832 Y0.7992
G0 Z3.0000
 X47.5323 Y30.1059
G1 Z-4.0000
 X47.5427 Y30.0000
 X47.5323 Y29.8941
 X47.5014 Y29.7923
 X47.4513 Y29.6985
 X47.3838 Y29.6162
 X47.3015 Y29.5487
 X47.2077 Y29.4986
 X47.1059 Y29.4677
 X47.0000 Y29.4573
 X46.8941 Y29.4677
 X46.7923 Y29.4986
 X46.6985 Y29.5487
 X46.6162 Y29.6162
 X46.5487 Y29.6985
 X46.4986 Y29.7923
 X46.4677 Y29.8941
 X46.4573 Y30.0000
 X46.4677 Y30.1059
 X46.4986 Y30.2077
 X46.5487 Y30.3015
 X46.6162 Y30.3838
 X46.6985 Y30.4513
 X46.7923 Y30.5014
 X46.8941 Y30.5323
 X47.0000 Y30.5427
 X47.1059 Y30.5323
 X47.2077 Y30.5014
 X47.3015 Y30.4513
 X47.3838 Y30.3838
 X47.4513 Y30.3015
 X47.5014 Y30.2077
 X47.5323 Y30.1059
G0 Z3.0000
 X33.5176 Y17.5365
G1 Z-4.0000
 X33.5253 Y17.5317
 X33.5317 Y17.5253
 X33.5365 Y17.5176
 X33.5395 Y17.5090
 X33.5405 Y17.5000
 X33.5395 Y17.4910
 X33.5365 Y17.4824
 X33.5317 Y17.4747
 X33.5253 Y17.4683
 X33.5176 Y17.4635
 X33.5090 Y17.4605
 X33.5000 Y17.4595
 X33.4910 Y17.4605
 X33.4824 Y17.4635
 X33.4747 Y17.4683
 X33.4683 Y17.4747
 X33.4635 Y17.4824
 X33.4605 Y17.4910
 X33.4595 Y17.5000
 X33.4605 Y17.5090
 X33.4635 Y17.5176
 X33.4683 Y17.5253
 X33.4747 Y17.5317
 X33.4824 Y17.5365
 X33.4910 Y17.5395
 X33.5000 Y17.5405
 X33.5090 Y17.5395
 X33.5176 Y17.5365
G0 Z3.0000
 X47.3838 Y5.3838
G1 Z-4.0000
 X47.4513 Y5.3015
 X47.5014 Y5.2077
 X47.5323 Y5.1059
 X47.5427 Y5.0000
 X47.5323 Y4.8941
 X47.5014 Y4.7923
 X47.4513 Y4.6985
 X47.3838 Y4.6162
 X47.3015 Y4.5487
 X47.2077 Y4.4986
 X47.1059 Y4.4677
 X47.0000 Y4.4573
 X46.8941 Y4.4677
 X46.7923 Y4.4986
 X46.6985 Y4.5487
 X46.6162 Y4.6162
 X46.5487 Y4.6985
 X46.4986 Y4.7923
 X46.4677 Y4.8941
 X46.4573 Y5.0000
 X46.4677 Y5.1059
 X46.4986 Y5.2077
 X46.5487 Y5.3015
 X46.6162 Y5.3838
 X46.6985 Y5.4513
 X46.7923 Y5.5014
 X46.8941 Y5.5323
 X47.0000 Y5.5427
 X47.1059 Y5.5323
 X47.2077 Y5.5014
 X47.3015 Y5.4513
 X47.3838 Y5.3838
G0 Z3.0000
 X5.5323 Y30.1059
G1 Z-4.0000
 X5.5427 Y30.0000
 X5.5323 Y29.8941
 X5.5014 Y29.7923
 X5.4513 Y29.6985
 X5.3838 Y29.6162
 X5.3015 Y29.5487
 X5.2077 Y29.4986
 X5.1059 Y29.4677
 X5.0000 Y29.4573
 X4.8941 Y29.4677
 X4.7923 Y29.4986
 X4.6985 Y29.5487
 X4.6162 Y29.6162
 X4.5487 Y29.6985
 X4.4986 Y29.7923
 X4.4677 Y29.8941
 X4.4573 Y30.0000
 X4.4677 Y30.1059
 X4.4986 Y30.2077
 X4.5487 Y30.3015
 X4.6162 Y30.3838
 X4.6985 Y30.4513
 X4.7923 Y30.5014
 X4.8941 Y30.5323
 X5.0000 Y30.5427
 X5.1059 Y30.5323
 X5.2077 Y30.5014
 X5.3015 Y30.4513
 X5.3838 Y30.3838
 X5.4513 Y30.3015
 X5.5014 Y30.2077
 X5.5323 Y30.1059
G0 Z3.0000
 X18.5405 Y17.5000
G1 Z-4.0000
 X18.5395 Y17.4910
 X18.5365 Y17.4824
 X18.5317 Y17.4747
 X18.5253 Y17.4683
 X18.5176 Y17.4635
 X18.5090 Y17.4605
 X18.5000 Y17.4595
 X18.4910 Y17.4605
 X18.4824 Y17.4635
 X18.4747 Y17.4683
 X18.4683 Y17.4747
 X18.4635 Y17.4824
 X18.4605 Y17.4910
 X18.4595 Y17.5000
 X18.4605 Y17.5090
 X18.4635 Y17.5176
 X18.4683 Y17.5253
 X18.4747 Y17.5317
 X18.4824 Y17.5365
 X18.4910 Y17.5395
 X18.5000 Y17.5405
 X18.5090 Y17.5395
 X18.5176 Y17.5365
 X18.5253 Y17.5317
 X18.5317 Y17.5253
 X18.5365 Y17.5176
 X18.5395 Y17.5090
 X18.5405 Y17.5000
G0 Z3.0000
 X5.5014 Y5.2077
G1 Z-4.0000
 X5.5323 Y5.1059
 X5.5427 Y5.0000
 X5.5323 Y4.8941
 X5.5014 Y4.7923
 X5.4513 Y4.6985
 X5.3838 Y4.6162
 X5.3015 Y4.5487
 X5.2077 Y4.4986
 X5.1059 Y4.4677
 X5.0000 Y4.4573
 X4.8941 Y4.4677
 X4.7923 Y4.4986
 X4.6985 Y4.5487
 X4.6162 Y4.6162
 X4.5487 Y4.6985
 X4.4986 Y4.7923
 X4.4677 Y4.8941
 X4.4573 Y5.0000
 X4.4677 Y5.1059
 X4.4986 Y5.2077
 X4.5487 Y5.3015
 X4.6162 Y5.3838
 X4.6985 Y5.4513
 X4.7923 Y5.5014
 X4.8941 Y5.5323
 X5.0000 Y5.5427
 X5.1059 Y5.5323
 X5.2077 Y5.5014
 X5.3015 Y5.4513
 X5.3838 Y5.3838
 X5.4513 Y5.3015
 X5.5014 Y5.2077
G0 Z3.0000
 X51.9485 Y35.9162
G1 Z-4.0000
 X51.3422 Y36.2403
 X50.6842 Y36.4399
 X50.0737 Y36.5000
 X1.9263
 X1.3158 Y36.4399
 X0.6578 Y36.2403
 X0.0515 Y35.9162
 X-0.4800 Y35.4800
 X-0.9162 Y34.9485
 X-1.2403 Y34.3422
 X-1.4399 Y33.6842
 X-1.5000 Y33.0737
 Y1.9263
 X-1.4399 Y1.3158
 X-1.2403 Y0.6578
 X-0.9162 Y0.0515
 X-0.4800 Y-0.4800
 X0.0515 Y-0.9162
 X0.6578 Y-1.2403
 X1.3158 Y-1.4399
 X1.9263 Y-1.5000
 X50.0737
 X50.6842 Y-1.4399
 X51.3422 Y-1.2403
 X51.9485 Y-0.9162
 X52.4800 Y-0.4800
 X52.9162 Y0.0515
 X53.2403 Y0.6578
 X53.4399 Y1.3158
 X53.5000 Y1.9263
 Y33.0737
 X53.4399 Y33.6842
 X53.2403 Y34.3422
 X52.9162 Y34.9485
 X52.4800 Y35.4800
 X51.9485 Y35.9162
G0 Z3.0000
M5 (stop spindle)
G04 P3 (wait for 3 seconds)
G0 Z3.0000
M2 (end program)
