;PYCAM-META-DATA: Filename: C:\Users\hanse\Desktop\Beep\Hardware\GetriebeB\frontcncld.stl
;PYCAM-META-DATA: Timestamp: 2013-06-04 16:03:14.420000
;PYCAM-META-DATA: Version: 0.5.1
;Estimated machine time: 5 minutes
G40 (disable tool radius compensation)
G49 (disable tool length compensation)
G80 (cancel modal motion)
G54 (select coordinate system 1)
G90 (disable incremental moves)
G21 (metric)
G61 (exact path mode)
F200.00000
S1000.00000
;PYCAM_TOOLPATH_SETTINGS: START
;[Bounds]
;maxz = 0.0
;maxx = 55.7
;maxy = 37.0
;minx = -3.7
;miny = -2.0
;minz = -2.0
;
;[Tool]
;torus_radius = 0.25
;speed = 1000.0
;shape = CylindricalCutter
;tool_radius = 1.5
;feedrate = 200.0
;
;[Process]
;generator = ContourFollow
;pocketing_type = none
;engrave_offset = 0.0
;milling_style = conventional
;path_direction = x
;step_down = 5.0
;postprocessor = SimpleCutter
;material_allowance = 0.0
;
;PYCAM_TOOLPATH_SETTINGS: END
T1 M6
G0 Z5.0000
M3 (start spindle)
G04 P3 (wait for 3 seconds)
 X47.1947 Y30.4962
G1 Z0.0000
 X47.3323 Y30.4167
 X47.4404 Y30.3003
 X47.5094 Y30.1571
 X47.5330 Y30.0000
 X47.5094 Y29.8429
 X47.4404 Y29.6997
 X47.3323 Y29.5833
 X47.1947 Y29.5038
 X47.0398 Y29.4684
 X46.8814 Y29.4803
 X46.7335 Y29.5384
 X46.6093 Y29.6374
 X46.5197 Y29.7687
 X46.4729 Y29.9206
 Y30.0794
 X46.5197 Y30.2313
 X46.6093 Y30.3626
 X46.7335 Y30.4616
 X46.8814 Y30.5197
 X47.0398 Y30.5316
 X47.1947 Y30.4962
G0 Z5.0000
 X47.0398 Y5.5316
G1 Z0.0000
 X47.1947 Y5.4962
 X47.3323 Y5.4167
 X47.4404 Y5.3003
 X47.5094 Y5.1571
 X47.5330 Y5.0000
 X47.5094 Y4.8429
 X47.4404 Y4.6997
 X47.3323 Y4.5833
 X47.1947 Y4.5038
 X47.0398 Y4.4684
 X46.8814 Y4.4803
 X46.7335 Y4.5384
 X46.6093 Y4.6374
 X46.5197 Y4.7687
 X46.4729 Y4.9206
 Y5.0794
 X46.5197 Y5.2313
 X46.6093 Y5.3626
 X46.7335 Y5.4616
 X46.8814 Y5.5197
 X47.0398 Y5.5316
G0 Z5.0000
 X5.5330 Y30.0000
G1 Z0.0000
 X5.5094 Y29.8429
 X5.4404 Y29.6997
 X5.3323 Y29.5833
 X5.1947 Y29.5038
 X5.0398 Y29.4684
 X4.8814 Y29.4803
 X4.7335 Y29.5384
 X4.6092 Y29.6374
 X4.5197 Y29.7687
 X4.4729 Y29.9205
 Y30.0795
 X4.5197 Y30.2313
 X4.6092 Y30.3626
 X4.7335 Y30.4616
 X4.8814 Y30.5197
 X5.0398 Y30.5316
 X5.1947 Y30.4962
 X5.3323 Y30.4167
 X5.4404 Y30.3003
 X5.5094 Y30.1571
 X5.5330 Y30.0000
G0 Z5.0000
 X33.5018 Y17.5000
G1 Z0.0000
 X33.5017 Y17.4994
 X33.5014 Y17.4988
 X33.5009 Y17.4984
 X33.5003 Y17.4982
 X33.4997
 X33.4991 Y17.4984
 X33.4986 Y17.4988
 X33.4983 Y17.4994
 X33.4982 Y17.5000
 X33.4983 Y17.5006
 X33.4986 Y17.5012
 X33.4991 Y17.5016
 X33.4997 Y17.5018
 X33.5003
 X33.5009 Y17.5016
 X33.5014 Y17.5012
 X33.5017 Y17.5006
 X33.5018 Y17.5000
G0 Z5.0000
 X18.5017 Y17.5006
G1 Z0.0000
 X18.5018 Y17.5000
 X18.5017 Y17.4994
 X18.5014 Y17.4988
 X18.5009 Y17.4984
 X18.5003 Y17.4982
 X18.4997
 X18.4991 Y17.4984
 X18.4986 Y17.4988
 X18.4983 Y17.4994
 X18.4982 Y17.5000
 X18.4983 Y17.5006
 X18.4986 Y17.5012
 X18.4991 Y17.5016
 X18.4997 Y17.5018
 X18.5003
 X18.5009 Y17.5016
 X18.5014 Y17.5012
 X18.5017 Y17.5006
G0 Z5.0000
 X5.5094 Y5.1571
G1 Z0.0000
 X5.5330 Y5.0000
 X5.5094 Y4.8429
 X5.4404 Y4.6997
 X5.3323 Y4.5833
 X5.1947 Y4.5038
 X5.0398 Y4.4684
 X4.8814 Y4.4803
 X4.7335 Y4.5384
 X4.6092 Y4.6374
 X4.5197 Y4.7687
 X4.4729 Y4.9205
 Y5.0795
 X4.5197 Y5.2313
 X4.6092 Y5.3626
 X4.7335 Y5.4616
 X4.8814 Y5.5197
 X5.0398 Y5.5316
 X5.1947 Y5.4962
 X5.3323 Y5.4167
 X5.4404 Y5.3003
 X5.5094 Y5.1571
G0 Z5.0000
 X52.0682 Y35.8467
G1 Z0.0000
 X51.0873 Y36.3465
 X50.1181 Y36.5000
 X1.8819
 X0.9127 Y36.3465
 X-0.0682 Y35.8467
 X-0.8467 Y35.0682
 X-1.3465 Y34.0873
 X-1.5000 Y33.1181
 Y1.8819
 X-1.3465 Y0.9127
 X-0.8467 Y-0.0682
 X-0.0682 Y-0.8467
 X0.9127 Y-1.3465
 X1.8819 Y-1.5000
 X50.1181
 X51.0873 Y-1.3465
 X52.0682 Y-0.8467
 X52.8467 Y-0.0682
 X53.3465 Y0.9127
 X53.5000 Y1.8819
 Y33.1181
 X53.3465 Y34.0873
 X52.8467 Y35.0682
 X52.0682 Y35.8467
G0 Z5.0000
 X47.2292 Y30.4763
G1 Z-2.0000
 X47.2978 Y30.4367
 X47.3595 Y30.3875
 X47.4133 Y30.3295
 X47.4577 Y30.2644
 X47.4921 Y30.1930
 X47.5153 Y30.1177
 X47.5271 Y30.0394
 Y29.9606
 X47.5153 Y29.8823
 X47.4921 Y29.8070
 X47.4577 Y29.7356
 X47.4133 Y29.6705
 X47.3595 Y29.6125
 X47.2978 Y29.5633
 X47.2292 Y29.5237
 X47.1559 Y29.4949
 X47.0787 Y29.4773
 X47.0001 Y29.4714
 X46.9211 Y29.4773
 X46.8443 Y29.4949
 X46.7706 Y29.5238
 X46.7023 Y29.5632
 X46.6404 Y29.6126
 X46.5868 Y29.6704
 X46.5422 Y29.7358
 X46.5080 Y29.8068
 X46.4847 Y29.8825
 X46.4729 Y29.9604
 Y30.0396
 X46.4847 Y30.1175
 X46.5080 Y30.1932
 X46.5422 Y30.2642
 X46.5868 Y30.3296
 X46.6404 Y30.3874
 X46.7023 Y30.4368
 X46.7706 Y30.4762
 X46.8443 Y30.5051
 X46.9211 Y30.5227
 X47.0001 Y30.5286
 X47.0787 Y30.5227
 X47.1559 Y30.5051
 X47.2977 Y30.4368
 X47.3596 Y30.3874
 X47.4132 Y30.3296
 X47.4578 Y30.2642
 X47.4920 Y30.1932
 X47.5153 Y30.1175
 X47.5271 Y30.0396
 Y29.9604
 X47.5153 Y29.8825
 X47.4920 Y29.8068
 X47.4578 Y29.7358
 X47.4132 Y29.6704
 X47.3596 Y29.6126
 X47.2977 Y29.5632
 X47.2294 Y29.5238
 X47.1557 Y29.4949
 X47.0789 Y29.4773
 X46.9999 Y29.4714
 X46.9213 Y29.4773
 X46.8441 Y29.4949
 X46.7708 Y29.5237
 X46.7022 Y29.5633
 X46.6405 Y29.6125
 X46.5867 Y29.6705
 X46.5423 Y29.7356
 X46.5079 Y29.8070
 X46.4847 Y29.8823
 X46.4729 Y29.9606
 Y30.0394
 X46.4847 Y30.1177
 X46.5079 Y30.1930
 X46.5423 Y30.2644
 X46.5867 Y30.3295
 X46.6405 Y30.3875
 X46.7022 Y30.4367
 X46.7708 Y30.4763
 X46.8441 Y30.5051
 X46.9213 Y30.5227
 X46.9999 Y30.5286
 X47.0789 Y30.5227
 X47.1557 Y30.5051
 X47.2294 Y30.4762
G0 Z5.0000
 X47.1557 Y5.5051
G1 Z-2.0000
 X47.2294 Y5.4762
 X47.2977 Y5.4368
 X47.3596 Y5.3874
 X47.4132 Y5.3296
 X47.4578 Y5.2642
 X47.4920 Y5.1932
 X47.5153 Y5.1175
 X47.5271 Y5.0396
 Y4.9604
 X47.5153 Y4.8825
 X47.4920 Y4.8068
 X47.4578 Y4.7358
 X47.4132 Y4.6704
 X47.3596 Y4.6126
 X47.2977 Y4.5632
 X47.2294 Y4.5238
 X47.1557 Y4.4949
 X47.0789 Y4.4773
 X46.9999 Y4.4714
 X46.9213 Y4.4773
 X46.8441 Y4.4949
 X46.7707 Y4.5237
 X46.7022 Y4.5633
 X46.6406 Y4.6125
 X46.5867 Y4.6705
 X46.5423 Y4.7356
 X46.5079 Y4.8070
 X46.4847 Y4.8823
 X46.4729 Y4.9606
 Y5.0394
 X46.4847 Y5.1177
 X46.5079 Y5.1930
 X46.5423 Y5.2644
 X46.5867 Y5.3295
 X46.6406 Y5.3875
 X46.7022 Y5.4367
 X46.7707 Y5.4763
 X46.8441 Y5.5051
 X46.9213 Y5.5227
 X46.9999 Y5.5286
 X47.0789 Y5.5227
 X47.0787
 X47.1559 Y5.5051
 X47.2293 Y5.4763
 X47.2978 Y5.4367
 X47.3594 Y5.3875
 X47.4133 Y5.3295
 X47.4577 Y5.2644
 X47.4921 Y5.1930
 X47.5153 Y5.1177
 X47.5271 Y5.0394
 Y4.9606
 X47.5153 Y4.8823
 X47.4921 Y4.8070
 X47.4577 Y4.7356
 X47.4133 Y4.6705
 X47.3594 Y4.6125
 X47.2978 Y4.5633
 X47.2293 Y4.5237
 X47.1559 Y4.4949
 X47.0787 Y4.4773
 X47.0001 Y4.4714
 X46.9211 Y4.4773
 X46.8443 Y4.4949
 X46.7706 Y4.5238
 X46.7023 Y4.5632
 X46.6404 Y4.6126
 X46.5868 Y4.6704
 X46.5422 Y4.7358
 X46.5080 Y4.8068
 X46.4847 Y4.8825
 X46.4729 Y4.9604
 Y5.0396
 X46.4847 Y5.1175
 X46.5080 Y5.1932
 X46.5422 Y5.2642
 X46.5868 Y5.3296
 X46.6404 Y5.3874
 X46.7023 Y5.4368
 X46.7706 Y5.4762
 X46.8443 Y5.5051
 X46.9211 Y5.5227
 X47.0001 Y5.5286
G0 Z5.0000
 X5.5271 Y29.9606
G1 Z-2.0000
 X5.5153 Y29.8823
 X5.4921 Y29.8070
 X5.4577 Y29.7356
 X5.4133 Y29.6705
 X5.3594 Y29.6125
 X5.2979 Y29.5633
 X5.2292 Y29.5237
 X5.1559 Y29.4949
 X5.0787 Y29.4773
 X5.0001 Y29.4714
 X4.9211 Y29.4773
 X4.8443 Y29.4949
 X4.7706 Y29.5238
 X4.7023 Y29.5632
 X4.6404 Y29.6126
 X4.5868 Y29.6704
 X4.5422 Y29.7358
 X4.5080 Y29.8068
 X4.4847 Y29.8825
 X4.4729 Y29.9604
 Y30.0396
 X4.4847 Y30.1175
 X4.5080 Y30.1932
 X4.5422 Y30.2642
 X4.5868 Y30.3296
 X4.6404 Y30.3874
 X4.7023 Y30.4368
 X4.7706 Y30.4762
 X4.8443 Y30.5051
 X4.9211 Y30.5227
 X5.0001 Y30.5286
 X5.0787 Y30.5227
 X5.1559 Y30.5051
 X5.2292 Y30.4763
 X5.2979 Y30.4367
 X5.3594 Y30.3875
 X5.4133 Y30.3295
 X5.4577 Y30.2644
 X5.4921 Y30.1930
 X5.5153 Y30.1177
 X5.5271 Y30.0394
 Y30.0396
 Y29.9604
 X5.5153 Y29.8825
 X5.4920 Y29.8068
 X5.4578 Y29.7358
 X5.4132 Y29.6704
 X5.3596 Y29.6126
 X5.2977 Y29.5632
 X5.2294 Y29.5238
 X5.1557 Y29.4949
 X5.0789 Y29.4773
 X4.9999 Y29.4714
 X4.9213 Y29.4773
 X4.8441 Y29.4949
 X4.7708 Y29.5237
 X4.7021 Y29.5633
 X4.6406 Y29.6125
 X4.5867 Y29.6705
 X4.5423 Y29.7356
 X4.5079 Y29.8070
 X4.4847 Y29.8823
 X4.4729 Y29.9606
 Y30.0394
 X4.4847 Y30.1177
 X4.5079 Y30.1930
 X4.5423 Y30.2644
 X4.5867 Y30.3295
 X4.6406 Y30.3875
 X4.7021 Y30.4367
 X4.7708 Y30.4763
 X4.8441 Y30.5051
 X4.9213 Y30.5227
 X4.9999 Y30.5286
 X5.0789 Y30.5227
 X5.1557 Y30.5051
 X5.2294 Y30.4762
 X5.2977 Y30.4368
 X5.3596 Y30.3874
 X5.4132 Y30.3296
 X5.4578 Y30.2642
 X5.4920 Y30.1932
 X5.5153 Y30.1175
G0 Z5.0000
 X33.5018 Y17.5000
G1 Z-2.0000
 X33.5017 Y17.4994
 X33.5014 Y17.4988
 X33.5009 Y17.4984
 X33.5003 Y17.4982
 X33.4997
 X33.4991 Y17.4984
 X33.4986 Y17.4988
 X33.4983 Y17.4994
 X33.4982 Y17.5000
 X33.4983 Y17.5006
 X33.4986 Y17.5012
 X33.4991 Y17.5016
 X33.4997 Y17.5018
 X33.5003
 X33.5009 Y17.5016
 X33.5014 Y17.5012
 X33.5017 Y17.5006
 X33.5018 Y17.5000
G0 Z5.0000
 X18.5017 Y17.5006
G1 Z-2.0000
 X18.5018 Y17.5000
 X18.5017 Y17.4994
 X18.5014 Y17.4988
 X18.5009 Y17.4984
 X18.5003 Y17.4982
 X18.4997
 X18.4991 Y17.4984
 X18.4986 Y17.4988
 X18.4983 Y17.4994
 X18.4982 Y17.5000
 X18.4983 Y17.5006
 X18.4986 Y17.5012
 X18.4991 Y17.5016
 X18.4997 Y17.5018
 X18.5003
 X18.5009 Y17.5016
 X18.5014 Y17.5012
 X18.5017 Y17.5006
G0 Z5.0000
 X5.5153 Y5.1177
G1 Z-2.0000
 X5.5271 Y5.0394
 Y4.9606
 X5.5153 Y4.8823
 X5.4921 Y4.8070
 X5.4577 Y4.7356
 X5.4133 Y4.6705
 X5.3594 Y4.6124
 X5.2978 Y4.5633
 X5.2292 Y4.5237
 X5.1559 Y4.4949
 X5.0787 Y4.4773
 X5.0001 Y4.4714
 X4.9211 Y4.4773
 X4.8443 Y4.4949
 X4.7706 Y4.5238
 X4.7023 Y4.5632
 X4.6404 Y4.6126
 X4.5868 Y4.6704
 X4.5422 Y4.7358
 X4.5080 Y4.8068
 X4.4847 Y4.8825
 X4.4729 Y4.9604
 Y5.0396
 X4.4847 Y5.1175
 X4.5080 Y5.1932
 X4.5422 Y5.2642
 X4.5868 Y5.3296
 X4.6404 Y5.3874
 X4.7023 Y5.4368
 X4.7706 Y5.4762
 X4.8443 Y5.5051
 X4.9211 Y5.5227
 X5.0001 Y5.5286
 X5.0787 Y5.5227
 X5.1559 Y5.5051
 X5.2292 Y5.4763
 X5.2978 Y5.4367
 X5.3594 Y5.3876
 X5.4133 Y5.3295
 X5.4577 Y5.2644
 X5.4921 Y5.1930
 X5.5271 Y5.0396
 Y4.9604
 X5.5153 Y4.8825
 X5.4920 Y4.8068
 X5.4578 Y4.7358
 X5.4132 Y4.6704
 X5.3596 Y4.6126
 X5.2977 Y4.5632
 X5.2294 Y4.5238
 X5.1557 Y4.4949
 X5.0789 Y4.4773
 X4.9999 Y4.4714
 X4.9213 Y4.4773
 X4.8441 Y4.4949
 X4.7708 Y4.5237
 X4.7022 Y4.5633
 X4.6406 Y4.6124
 X4.5867 Y4.6705
 X4.5423 Y4.7356
 X4.5079 Y4.8070
 X4.4847 Y4.8823
 X4.4729 Y4.9606
 Y5.0394
 X4.4847 Y5.1177
 X4.5079 Y5.1930
 X4.5423 Y5.2644
 X4.5867 Y5.3295
 X4.6406 Y5.3876
 X4.7022 Y5.4367
 X4.7708 Y5.4763
 X4.8441 Y5.5051
 X4.9213 Y5.5227
 X4.9999 Y5.5286
 X5.0789 Y5.5227
 X5.1557 Y5.5051
 X5.2294 Y5.4762
 X5.2977 Y5.4368
 X5.3596 Y5.3874
 X5.4132 Y5.3296
 X5.4578 Y5.2642
 X5.4920 Y5.1932
 X5.5153 Y5.1175
G0 Z5.0000
 X1.1473 Y-1.3837
G1 Z-2.0000
 X1.8819 Y-1.5000
 X50.1181
 X51.0873 Y-1.3465
 X52.0682 Y-0.8467
 X52.8467 Y-0.0682
 X53.3465 Y0.9127
 X53.5000 Y1.8819
 Y33.1181
 X53.3465 Y34.0873
 X52.8467 Y35.0682
 X52.0682 Y35.8467
 X51.0873 Y36.3465
 X50.1181 Y36.5000
 X1.8819
 X0.9127 Y36.3465
 X-0.0682 Y35.8467
 X-0.8467 Y35.0682
 X-1.3465 Y34.0873
 X-1.5000 Y33.1181
 Y1.8819
 X-1.3465 Y0.9127
 X-0.8467 Y-0.0682
 X-0.2362 Y-0.6787
G0 Z5.0000
M5 (stop spindle)
G04 P3 (wait for 3 seconds)
G0 Z5.0000
M2 (end program)
